; Speed: 123 Passes: 3; GCODE Generated by cam.openbuilds.com on 2023-02-09 
G21 ; mm-mode
G54; Work Coordinates
G21; mm-mode
M3; Constant Power Laser On

; Pass 0
; Operation 0: Laser: Vector (no path offset)
; Laser Spot Diameter: 0.1

G0 Z10; move to z-safe height
G0 F1000 X36.6275 Y12.1605

G0 Z0
G1 F300 Z-0.1000
G1 F123 X36.5974 Y11.8125 Z-0.1000 S1000
G1 F123 X36.5072 Y11.4752 Z-0.1000 S1000
G1 F123 X36.3594 Y11.1588 Z-0.1000 S1000
G1 F123 X36.1589 Y10.8729 Z-0.1000 S1000
G1 F123 X35.9120 Y10.6260 Z-0.1000 S1000
G1 F123 X35.6261 Y10.4255 Z-0.1000 S1000
G1 F123 X35.3097 Y10.2777 Z-0.1000 S1000
G1 F123 X34.9724 Y10.1875 Z-0.1000 S1000
G1 F123 X34.6245 Y10.1574 Z-0.1000 S1000
G1 F123 X27.6131 Y10.1574 Z-0.1000 S1000
G1 F123 X27.2652 Y10.1875 Z-0.1000 S1000
G1 F123 X26.9279 Y10.2776 Z-0.1000 S1000
G1 F123 X26.6115 Y10.4254 Z-0.1000 S1000
G1 F123 X26.3256 Y10.6259 Z-0.1000 S1000
G1 F123 X26.0786 Y10.8729 Z-0.1000 S1000
G1 F123 X25.8781 Y11.1588 Z-0.1000 S1000
G1 F123 X25.7303 Y11.4752 Z-0.1000 S1000
G1 F123 X25.6402 Y11.8125 Z-0.1000 S1000
G1 F123 X25.6101 Y12.1605 Z-0.1000 S1000
G1 F123 X25.6101 Y19.1714 Z-0.1000 S1000
G1 F123 X25.6402 Y19.5194 Z-0.1000 S1000
G1 F123 X25.7303 Y19.8568 Z-0.1000 S1000
G1 F123 X25.8780 Y20.1732 Z-0.1000 S1000
G1 F123 X26.0785 Y20.4592 Z-0.1000 S1000
G1 F123 X26.3255 Y20.7062 Z-0.1000 S1000
G1 F123 X26.6114 Y20.9067 Z-0.1000 S1000
G1 F123 X26.9278 Y21.0545 Z-0.1000 S1000
G1 F123 X27.2652 Y21.1447 Z-0.1000 S1000
G1 F123 X27.6131 Y21.1748 Z-0.1000 S1000
G1 F123 X34.6245 Y21.1748 Z-0.1000 S1000
G1 F123 X34.9724 Y21.1447 Z-0.1000 S1000
G1 F123 X35.3098 Y21.0545 Z-0.1000 S1000
G1 F123 X35.6262 Y20.9067 Z-0.1000 S1000
G1 F123 X35.9121 Y20.7061 Z-0.1000 S1000
G1 F123 X36.1590 Y20.4591 Z-0.1000 S1000
G1 F123 X36.3595 Y20.1732 Z-0.1000 S1000
G1 F123 X36.5073 Y19.8567 Z-0.1000 S1000
G1 F123 X36.5974 Y19.5194 Z-0.1000 S1000
G1 F123 X36.6275 Y19.1714 Z-0.1000 S1000
G1 F123 X36.6275 Y12.1605 Z-0.1000 S1000
G1 F123 X36.6275 Y12.1605 Z-0.1000 S1000
;---
G1 F123 X36.5974 Y11.8125 Z-0.1000 S1000
G1 F123 X36.5072 Y11.4752 Z-0.1000 S1000
G1 F123 X36.3594 Y11.1588 Z-0.1000 S1000
G1 F123 X36.1589 Y10.8729 Z-0.1000 S1000
G1 F123 X35.9120 Y10.6260 Z-0.1000 S1000
G1 F123 X35.6261 Y10.4255 Z-0.1000 S1000
G1 F123 X35.3097 Y10.2777 Z-0.1000 S1000
G1 F123 X34.9724 Y10.1875 Z-0.1000 S1000
G1 F123 X34.6245 Y10.1574 Z-0.1000 S1000
G1 F123 X27.6131 Y10.1574 Z-0.1000 S1000
G1 F123 X27.2652 Y10.1875 Z-0.1000 S1000
G1 F123 X26.9279 Y10.2776 Z-0.1000 S1000
G1 F123 X26.6115 Y10.4254 Z-0.1000 S1000
G1 F123 X26.3256 Y10.6259 Z-0.1000 S1000
G1 F123 X26.0786 Y10.8729 Z-0.1000 S1000
G1 F123 X25.8781 Y11.1588 Z-0.1000 S1000
G1 F123 X25.7303 Y11.4752 Z-0.1000 S1000
G1 F123 X25.6402 Y11.8125 Z-0.1000 S1000
G1 F123 X25.6101 Y12.1605 Z-0.1000 S1000
G1 F123 X25.6101 Y19.1714 Z-0.1000 S1000
G1 F123 X25.6402 Y19.5194 Z-0.1000 S1000
G1 F123 X25.7303 Y19.8568 Z-0.1000 S1000
G1 F123 X25.8780 Y20.1732 Z-0.1000 S1000
G1 F123 X26.0785 Y20.4592 Z-0.1000 S1000
G1 F123 X26.3255 Y20.7062 Z-0.1000 S1000
G1 F123 X26.6114 Y20.9067 Z-0.1000 S1000
G1 F123 X26.9278 Y21.0545 Z-0.1000 S1000
G1 F123 X27.2652 Y21.1447 Z-0.1000 S1000
G1 F123 X27.6131 Y21.1748 Z-0.1000 S1000
G1 F123 X34.6245 Y21.1748 Z-0.1000 S1000
G1 F123 X34.9724 Y21.1447 Z-0.1000 S1000
G1 F123 X35.3098 Y21.0545 Z-0.1000 S1000
G1 F123 X35.6262 Y20.9067 Z-0.1000 S1000
G1 F123 X35.9121 Y20.7061 Z-0.1000 S1000
G1 F123 X36.1590 Y20.4591 Z-0.1000 S1000
G1 F123 X36.3595 Y20.1732 Z-0.1000 S1000
G1 F123 X36.5073 Y19.8567 Z-0.1000 S1000
G1 F123 X36.5974 Y19.5194 Z-0.1000 S1000
G1 F123 X36.6275 Y19.1714 Z-0.1000 S1000
G1 F123 X36.6275 Y12.1605 Z-0.1000 S1000
G1 F123 X36.6275 Y12.1605 Z-0.1000 S1000
;---
G1 F123 X36.5974 Y11.8125 Z-0.1000 S1000
G1 F123 X36.5072 Y11.4752 Z-0.1000 S1000
G1 F123 X36.3594 Y11.1588 Z-0.1000 S1000
G1 F123 X36.1589 Y10.8729 Z-0.1000 S1000
G1 F123 X35.9120 Y10.6260 Z-0.1000 S1000
G1 F123 X35.6261 Y10.4255 Z-0.1000 S1000
G1 F123 X35.3097 Y10.2777 Z-0.1000 S1000
G1 F123 X34.9724 Y10.1875 Z-0.1000 S1000
G1 F123 X34.6245 Y10.1574 Z-0.1000 S1000
G1 F123 X27.6131 Y10.1574 Z-0.1000 S1000
G1 F123 X27.2652 Y10.1875 Z-0.1000 S1000
G1 F123 X26.9279 Y10.2776 Z-0.1000 S1000
G1 F123 X26.6115 Y10.4254 Z-0.1000 S1000
G1 F123 X26.3256 Y10.6259 Z-0.1000 S1000
G1 F123 X26.0786 Y10.8729 Z-0.1000 S1000
G1 F123 X25.8781 Y11.1588 Z-0.1000 S1000
G1 F123 X25.7303 Y11.4752 Z-0.1000 S1000
G1 F123 X25.6402 Y11.8125 Z-0.1000 S1000
G1 F123 X25.6101 Y12.1605 Z-0.1000 S1000
G1 F123 X25.6101 Y19.1714 Z-0.1000 S1000
G1 F123 X25.6402 Y19.5194 Z-0.1000 S1000
G1 F123 X25.7303 Y19.8568 Z-0.1000 S1000
G1 F123 X25.8780 Y20.1732 Z-0.1000 S1000
G1 F123 X26.0785 Y20.4592 Z-0.1000 S1000
G1 F123 X26.3255 Y20.7062 Z-0.1000 S1000
G1 F123 X26.6114 Y20.9067 Z-0.1000 S1000
G1 F123 X26.9278 Y21.0545 Z-0.1000 S1000
G1 F123 X27.2652 Y21.1447 Z-0.1000 S1000
G1 F123 X27.6131 Y21.1748 Z-0.1000 S1000
G1 F123 X34.6245 Y21.1748 Z-0.1000 S1000
G1 F123 X34.9724 Y21.1447 Z-0.1000 S1000
G1 F123 X35.3098 Y21.0545 Z-0.1000 S1000
G1 F123 X35.6262 Y20.9067 Z-0.1000 S1000
G1 F123 X35.9121 Y20.7061 Z-0.1000 S1000
G1 F123 X36.1590 Y20.4591 Z-0.1000 S1000
G1 F123 X36.3595 Y20.1732 Z-0.1000 S1000
G1 F123 X36.5073 Y19.8567 Z-0.1000 S1000
G1 F123 X36.5974 Y19.5194 Z-0.1000 S1000
G1 F123 X36.6275 Y19.1714 Z-0.1000 S1000
G1 F123 X36.6275 Y12.1605 Z-0.1000 S1000
G1 F123 X36.6275 Y12.1605 Z-0.1000 S1000
;---

G0 Z10; move to z-safe height
G0 X36.6275 Y57.2321

G0 Z0
G1 F300 Z-0.1000
G1 F123 X36.5974 Y56.8841 Z-0.1000 S1000
G1 F123 X36.5072 Y56.5468 Z-0.1000 S1000
G1 F123 X36.3594 Y56.2304 Z-0.1000 S1000
G1 F123 X36.1589 Y55.9445 Z-0.1000 S1000
G1 F123 X35.9120 Y55.6976 Z-0.1000 S1000
G1 F123 X35.6261 Y55.4971 Z-0.1000 S1000
G1 F123 X35.3097 Y55.3493 Z-0.1000 S1000
G1 F123 X34.9724 Y55.2591 Z-0.1000 S1000
G1 F123 X34.6245 Y55.2290 Z-0.1000 S1000
G1 F123 X27.6131 Y55.2290 Z-0.1000 S1000
G1 F123 X27.2652 Y55.2591 Z-0.1000 S1000
G1 F123 X26.9279 Y55.3493 Z-0.1000 S1000
G1 F123 X26.6115 Y55.4970 Z-0.1000 S1000
G1 F123 X26.3256 Y55.6976 Z-0.1000 S1000
G1 F123 X26.0786 Y55.9445 Z-0.1000 S1000
G1 F123 X25.8781 Y56.2304 Z-0.1000 S1000
G1 F123 X25.7303 Y56.5468 Z-0.1000 S1000
G1 F123 X25.6402 Y56.8841 Z-0.1000 S1000
G1 F123 X25.6101 Y57.2321 Z-0.1000 S1000
G1 F123 X25.6101 Y64.2430 Z-0.1000 S1000
G1 F123 X25.6402 Y64.5910 Z-0.1000 S1000
G1 F123 X25.7303 Y64.9284 Z-0.1000 S1000
G1 F123 X25.8780 Y65.2448 Z-0.1000 S1000
G1 F123 X26.0785 Y65.5308 Z-0.1000 S1000
G1 F123 X26.3255 Y65.7778 Z-0.1000 S1000
G1 F123 X26.6114 Y65.9784 Z-0.1000 S1000
G1 F123 X26.9278 Y66.1261 Z-0.1000 S1000
G1 F123 X27.2652 Y66.2163 Z-0.1000 S1000
G1 F123 X27.6131 Y66.2465 Z-0.1000 S1000
G1 F123 X34.6245 Y66.2465 Z-0.1000 S1000
G1 F123 X34.9724 Y66.2163 Z-0.1000 S1000
G1 F123 X35.3098 Y66.1261 Z-0.1000 S1000
G1 F123 X35.6262 Y65.9783 Z-0.1000 S1000
G1 F123 X35.9121 Y65.7777 Z-0.1000 S1000
G1 F123 X36.1590 Y65.5307 Z-0.1000 S1000
G1 F123 X36.3595 Y65.2448 Z-0.1000 S1000
G1 F123 X36.5073 Y64.9284 Z-0.1000 S1000
G1 F123 X36.5974 Y64.5910 Z-0.1000 S1000
G1 F123 X36.6275 Y64.2430 Z-0.1000 S1000
G1 F123 X36.6275 Y57.2321 Z-0.1000 S1000
G1 F123 X36.6275 Y57.2321 Z-0.1000 S1000
;---
G1 F123 X36.5974 Y56.8841 Z-0.1000 S1000
G1 F123 X36.5072 Y56.5468 Z-0.1000 S1000
G1 F123 X36.3594 Y56.2304 Z-0.1000 S1000
G1 F123 X36.1589 Y55.9445 Z-0.1000 S1000
G1 F123 X35.9120 Y55.6976 Z-0.1000 S1000
G1 F123 X35.6261 Y55.4971 Z-0.1000 S1000
G1 F123 X35.3097 Y55.3493 Z-0.1000 S1000
G1 F123 X34.9724 Y55.2591 Z-0.1000 S1000
G1 F123 X34.6245 Y55.2290 Z-0.1000 S1000
G1 F123 X27.6131 Y55.2290 Z-0.1000 S1000
G1 F123 X27.2652 Y55.2591 Z-0.1000 S1000
G1 F123 X26.9279 Y55.3493 Z-0.1000 S1000
G1 F123 X26.6115 Y55.4970 Z-0.1000 S1000
G1 F123 X26.3256 Y55.6976 Z-0.1000 S1000
G1 F123 X26.0786 Y55.9445 Z-0.1000 S1000
G1 F123 X25.8781 Y56.2304 Z-0.1000 S1000
G1 F123 X25.7303 Y56.5468 Z-0.1000 S1000
G1 F123 X25.6402 Y56.8841 Z-0.1000 S1000
G1 F123 X25.6101 Y57.2321 Z-0.1000 S1000
G1 F123 X25.6101 Y64.2430 Z-0.1000 S1000
G1 F123 X25.6402 Y64.5910 Z-0.1000 S1000
G1 F123 X25.7303 Y64.9284 Z-0.1000 S1000
G1 F123 X25.8780 Y65.2448 Z-0.1000 S1000
G1 F123 X26.0785 Y65.5308 Z-0.1000 S1000
G1 F123 X26.3255 Y65.7778 Z-0.1000 S1000
G1 F123 X26.6114 Y65.9784 Z-0.1000 S1000
G1 F123 X26.9278 Y66.1261 Z-0.1000 S1000
G1 F123 X27.2652 Y66.2163 Z-0.1000 S1000
G1 F123 X27.6131 Y66.2465 Z-0.1000 S1000
G1 F123 X34.6245 Y66.2465 Z-0.1000 S1000
G1 F123 X34.9724 Y66.2163 Z-0.1000 S1000
G1 F123 X35.3098 Y66.1261 Z-0.1000 S1000
G1 F123 X35.6262 Y65.9783 Z-0.1000 S1000
G1 F123 X35.9121 Y65.7777 Z-0.1000 S1000
G1 F123 X36.1590 Y65.5307 Z-0.1000 S1000
G1 F123 X36.3595 Y65.2448 Z-0.1000 S1000
G1 F123 X36.5073 Y64.9284 Z-0.1000 S1000
G1 F123 X36.5974 Y64.5910 Z-0.1000 S1000
G1 F123 X36.6275 Y64.2430 Z-0.1000 S1000
G1 F123 X36.6275 Y57.2321 Z-0.1000 S1000
G1 F123 X36.6275 Y57.2321 Z-0.1000 S1000
;---
G1 F123 X36.5974 Y56.8841 Z-0.1000 S1000
G1 F123 X36.5072 Y56.5468 Z-0.1000 S1000
G1 F123 X36.3594 Y56.2304 Z-0.1000 S1000
G1 F123 X36.1589 Y55.9445 Z-0.1000 S1000
G1 F123 X35.9120 Y55.6976 Z-0.1000 S1000
G1 F123 X35.6261 Y55.4971 Z-0.1000 S1000
G1 F123 X35.3097 Y55.3493 Z-0.1000 S1000
G1 F123 X34.9724 Y55.2591 Z-0.1000 S1000
G1 F123 X34.6245 Y55.2290 Z-0.1000 S1000
G1 F123 X27.6131 Y55.2290 Z-0.1000 S1000
G1 F123 X27.2652 Y55.2591 Z-0.1000 S1000
G1 F123 X26.9279 Y55.3493 Z-0.1000 S1000
G1 F123 X26.6115 Y55.4970 Z-0.1000 S1000
G1 F123 X26.3256 Y55.6976 Z-0.1000 S1000
G1 F123 X26.0786 Y55.9445 Z-0.1000 S1000
G1 F123 X25.8781 Y56.2304 Z-0.1000 S1000
G1 F123 X25.7303 Y56.5468 Z-0.1000 S1000
G1 F123 X25.6402 Y56.8841 Z-0.1000 S1000
G1 F123 X25.6101 Y57.2321 Z-0.1000 S1000
G1 F123 X25.6101 Y64.2430 Z-0.1000 S1000
G1 F123 X25.6402 Y64.5910 Z-0.1000 S1000
G1 F123 X25.7303 Y64.9284 Z-0.1000 S1000
G1 F123 X25.8780 Y65.2448 Z-0.1000 S1000
G1 F123 X26.0785 Y65.5308 Z-0.1000 S1000
G1 F123 X26.3255 Y65.7778 Z-0.1000 S1000
G1 F123 X26.6114 Y65.9784 Z-0.1000 S1000
G1 F123 X26.9278 Y66.1261 Z-0.1000 S1000
G1 F123 X27.2652 Y66.2163 Z-0.1000 S1000
G1 F123 X27.6131 Y66.2465 Z-0.1000 S1000
G1 F123 X34.6245 Y66.2465 Z-0.1000 S1000
G1 F123 X34.9724 Y66.2163 Z-0.1000 S1000
G1 F123 X35.3098 Y66.1261 Z-0.1000 S1000
G1 F123 X35.6262 Y65.9783 Z-0.1000 S1000
G1 F123 X35.9121 Y65.7777 Z-0.1000 S1000
G1 F123 X36.1590 Y65.5307 Z-0.1000 S1000
G1 F123 X36.3595 Y65.2448 Z-0.1000 S1000
G1 F123 X36.5073 Y64.9284 Z-0.1000 S1000
G1 F123 X36.5974 Y64.5910 Z-0.1000 S1000
G1 F123 X36.6275 Y64.2430 Z-0.1000 S1000
G1 F123 X36.6275 Y57.2321 Z-0.1000 S1000
G1 F123 X36.6275 Y57.2321 Z-0.1000 S1000
;---

G0 Z10; move to z-safe height
G0 X36.6275 Y27.1843

G0 Z0
G1 F300 Z-0.1000
G1 F123 X36.5974 Y26.8363 Z-0.1000 S1000
G1 F123 X36.5072 Y26.4990 Z-0.1000 S1000
G1 F123 X36.3594 Y26.1826 Z-0.1000 S1000
G1 F123 X36.1589 Y25.8967 Z-0.1000 S1000
G1 F123 X35.9120 Y25.6498 Z-0.1000 S1000
G1 F123 X35.6261 Y25.4493 Z-0.1000 S1000
G1 F123 X35.3097 Y25.3015 Z-0.1000 S1000
G1 F123 X34.9724 Y25.2113 Z-0.1000 S1000
G1 F123 X34.6245 Y25.1812 Z-0.1000 S1000
G1 F123 X27.6131 Y25.1812 Z-0.1000 S1000
G1 F123 X27.2652 Y25.2113 Z-0.1000 S1000
G1 F123 X26.9279 Y25.3015 Z-0.1000 S1000
G1 F123 X26.6115 Y25.4492 Z-0.1000 S1000
G1 F123 X26.3256 Y25.6498 Z-0.1000 S1000
G1 F123 X26.0786 Y25.8967 Z-0.1000 S1000
G1 F123 X25.8781 Y26.1826 Z-0.1000 S1000
G1 F123 X25.7303 Y26.4990 Z-0.1000 S1000
G1 F123 X25.6402 Y26.8363 Z-0.1000 S1000
G1 F123 X25.6101 Y27.1843 Z-0.1000 S1000
G1 F123 X25.6101 Y34.1956 Z-0.1000 S1000
G1 F123 X25.6402 Y34.5435 Z-0.1000 S1000
G1 F123 X25.7303 Y34.8809 Z-0.1000 S1000
G1 F123 X25.8781 Y35.1973 Z-0.1000 S1000
G1 F123 X26.0786 Y35.4832 Z-0.1000 S1000
G1 F123 X26.3256 Y35.7301 Z-0.1000 S1000
G1 F123 X26.6115 Y35.9306 Z-0.1000 S1000
G1 F123 X26.9279 Y36.0784 Z-0.1000 S1000
G1 F123 X27.2652 Y36.1685 Z-0.1000 S1000
G1 F123 X27.6131 Y36.1987 Z-0.1000 S1000
G1 F123 X34.6245 Y36.1987 Z-0.1000 S1000
G1 F123 X34.9724 Y36.1685 Z-0.1000 S1000
G1 F123 X35.3097 Y36.0783 Z-0.1000 S1000
G1 F123 X35.6261 Y35.9305 Z-0.1000 S1000
G1 F123 X35.9120 Y35.7300 Z-0.1000 S1000
G1 F123 X36.1589 Y35.4831 Z-0.1000 S1000
G1 F123 X36.3594 Y35.1972 Z-0.1000 S1000
G1 F123 X36.5072 Y34.8808 Z-0.1000 S1000
G1 F123 X36.5974 Y34.5435 Z-0.1000 S1000
G1 F123 X36.6275 Y34.1956 Z-0.1000 S1000
G1 F123 X36.6275 Y27.1843 Z-0.1000 S1000
G1 F123 X36.6275 Y27.1843 Z-0.1000 S1000
;---
G1 F123 X36.5974 Y26.8363 Z-0.1000 S1000
G1 F123 X36.5072 Y26.4990 Z-0.1000 S1000
G1 F123 X36.3594 Y26.1826 Z-0.1000 S1000
G1 F123 X36.1589 Y25.8967 Z-0.1000 S1000
G1 F123 X35.9120 Y25.6498 Z-0.1000 S1000
G1 F123 X35.6261 Y25.4493 Z-0.1000 S1000
G1 F123 X35.3097 Y25.3015 Z-0.1000 S1000
G1 F123 X34.9724 Y25.2113 Z-0.1000 S1000
G1 F123 X34.6245 Y25.1812 Z-0.1000 S1000
G1 F123 X27.6131 Y25.1812 Z-0.1000 S1000
G1 F123 X27.2652 Y25.2113 Z-0.1000 S1000
G1 F123 X26.9279 Y25.3015 Z-0.1000 S1000
G1 F123 X26.6115 Y25.4492 Z-0.1000 S1000
G1 F123 X26.3256 Y25.6498 Z-0.1000 S1000
G1 F123 X26.0786 Y25.8967 Z-0.1000 S1000
G1 F123 X25.8781 Y26.1826 Z-0.1000 S1000
G1 F123 X25.7303 Y26.4990 Z-0.1000 S1000
G1 F123 X25.6402 Y26.8363 Z-0.1000 S1000
G1 F123 X25.6101 Y27.1843 Z-0.1000 S1000
G1 F123 X25.6101 Y34.1956 Z-0.1000 S1000
G1 F123 X25.6402 Y34.5435 Z-0.1000 S1000
G1 F123 X25.7303 Y34.8809 Z-0.1000 S1000
G1 F123 X25.8781 Y35.1973 Z-0.1000 S1000
G1 F123 X26.0786 Y35.4832 Z-0.1000 S1000
G1 F123 X26.3256 Y35.7301 Z-0.1000 S1000
G1 F123 X26.6115 Y35.9306 Z-0.1000 S1000
G1 F123 X26.9279 Y36.0784 Z-0.1000 S1000
G1 F123 X27.2652 Y36.1685 Z-0.1000 S1000
G1 F123 X27.6131 Y36.1987 Z-0.1000 S1000
G1 F123 X34.6245 Y36.1987 Z-0.1000 S1000
G1 F123 X34.9724 Y36.1685 Z-0.1000 S1000
G1 F123 X35.3097 Y36.0783 Z-0.1000 S1000
G1 F123 X35.6261 Y35.9305 Z-0.1000 S1000
G1 F123 X35.9120 Y35.7300 Z-0.1000 S1000
G1 F123 X36.1589 Y35.4831 Z-0.1000 S1000
G1 F123 X36.3594 Y35.1972 Z-0.1000 S1000
G1 F123 X36.5072 Y34.8808 Z-0.1000 S1000
G1 F123 X36.5974 Y34.5435 Z-0.1000 S1000
G1 F123 X36.6275 Y34.1956 Z-0.1000 S1000
G1 F123 X36.6275 Y27.1843 Z-0.1000 S1000
G1 F123 X36.6275 Y27.1843 Z-0.1000 S1000
;---
G1 F123 X36.5974 Y26.8363 Z-0.1000 S1000
G1 F123 X36.5072 Y26.4990 Z-0.1000 S1000
G1 F123 X36.3594 Y26.1826 Z-0.1000 S1000
G1 F123 X36.1589 Y25.8967 Z-0.1000 S1000
G1 F123 X35.9120 Y25.6498 Z-0.1000 S1000
G1 F123 X35.6261 Y25.4493 Z-0.1000 S1000
G1 F123 X35.3097 Y25.3015 Z-0.1000 S1000
G1 F123 X34.9724 Y25.2113 Z-0.1000 S1000
G1 F123 X34.6245 Y25.1812 Z-0.1000 S1000
G1 F123 X27.6131 Y25.1812 Z-0.1000 S1000
G1 F123 X27.2652 Y25.2113 Z-0.1000 S1000
G1 F123 X26.9279 Y25.3015 Z-0.1000 S1000
G1 F123 X26.6115 Y25.4492 Z-0.1000 S1000
G1 F123 X26.3256 Y25.6498 Z-0.1000 S1000
G1 F123 X26.0786 Y25.8967 Z-0.1000 S1000
G1 F123 X25.8781 Y26.1826 Z-0.1000 S1000
G1 F123 X25.7303 Y26.4990 Z-0.1000 S1000
G1 F123 X25.6402 Y26.8363 Z-0.1000 S1000
G1 F123 X25.6101 Y27.1843 Z-0.1000 S1000
G1 F123 X25.6101 Y34.1956 Z-0.1000 S1000
G1 F123 X25.6402 Y34.5435 Z-0.1000 S1000
G1 F123 X25.7303 Y34.8809 Z-0.1000 S1000
G1 F123 X25.8781 Y35.1973 Z-0.1000 S1000
G1 F123 X26.0786 Y35.4832 Z-0.1000 S1000
G1 F123 X26.3256 Y35.7301 Z-0.1000 S1000
G1 F123 X26.6115 Y35.9306 Z-0.1000 S1000
G1 F123 X26.9279 Y36.0784 Z-0.1000 S1000
G1 F123 X27.2652 Y36.1685 Z-0.1000 S1000
G1 F123 X27.6131 Y36.1987 Z-0.1000 S1000
G1 F123 X34.6245 Y36.1987 Z-0.1000 S1000
G1 F123 X34.9724 Y36.1685 Z-0.1000 S1000
G1 F123 X35.3097 Y36.0783 Z-0.1000 S1000
G1 F123 X35.6261 Y35.9305 Z-0.1000 S1000
G1 F123 X35.9120 Y35.7300 Z-0.1000 S1000
G1 F123 X36.1589 Y35.4831 Z-0.1000 S1000
G1 F123 X36.3594 Y35.1972 Z-0.1000 S1000
G1 F123 X36.5072 Y34.8808 Z-0.1000 S1000
G1 F123 X36.5974 Y34.5435 Z-0.1000 S1000
G1 F123 X36.6275 Y34.1956 Z-0.1000 S1000
G1 F123 X36.6275 Y27.1843 Z-0.1000 S1000
G1 F123 X36.6275 Y27.1843 Z-0.1000 S1000
;---

G0 Z10; move to z-safe height
G0 X36.6275 Y42.2081

G0 Z0
G1 F300 Z-0.1000
G1 F123 X36.5974 Y41.8602 Z-0.1000 S1000
G1 F123 X36.5072 Y41.5228 Z-0.1000 S1000
G1 F123 X36.3594 Y41.2064 Z-0.1000 S1000
G1 F123 X36.1589 Y40.9206 Z-0.1000 S1000
G1 F123 X35.9120 Y40.6736 Z-0.1000 S1000
G1 F123 X35.6261 Y40.4731 Z-0.1000 S1000
G1 F123 X35.3097 Y40.3253 Z-0.1000 S1000
G1 F123 X34.9724 Y40.2351 Z-0.1000 S1000
G1 F123 X34.6245 Y40.2050 Z-0.1000 S1000
G1 F123 X27.6131 Y40.2050 Z-0.1000 S1000
G1 F123 X27.2652 Y40.2351 Z-0.1000 S1000
G1 F123 X26.9279 Y40.3253 Z-0.1000 S1000
G1 F123 X26.6115 Y40.4730 Z-0.1000 S1000
G1 F123 X26.3256 Y40.6736 Z-0.1000 S1000
G1 F123 X26.0786 Y40.9205 Z-0.1000 S1000
G1 F123 X25.8781 Y41.2064 Z-0.1000 S1000
G1 F123 X25.7303 Y41.5228 Z-0.1000 S1000
G1 F123 X25.6402 Y41.8601 Z-0.1000 S1000
G1 F123 X25.6101 Y42.2081 Z-0.1000 S1000
G1 F123 X25.6101 Y49.2194 Z-0.1000 S1000
G1 F123 X25.6402 Y49.5673 Z-0.1000 S1000
G1 F123 X25.7303 Y49.9047 Z-0.1000 S1000
G1 F123 X25.8781 Y50.2211 Z-0.1000 S1000
G1 F123 X26.0786 Y50.5070 Z-0.1000 S1000
G1 F123 X26.3256 Y50.7539 Z-0.1000 S1000
G1 F123 X26.6115 Y50.9544 Z-0.1000 S1000
G1 F123 X26.9279 Y51.1022 Z-0.1000 S1000
G1 F123 X27.2652 Y51.1924 Z-0.1000 S1000
G1 F123 X27.6131 Y51.2225 Z-0.1000 S1000
G1 F123 X34.6245 Y51.2225 Z-0.1000 S1000
G1 F123 X34.9724 Y51.1923 Z-0.1000 S1000
G1 F123 X35.3097 Y51.1021 Z-0.1000 S1000
G1 F123 X35.6261 Y50.9544 Z-0.1000 S1000
G1 F123 X35.9120 Y50.7538 Z-0.1000 S1000
G1 F123 X36.1589 Y50.5069 Z-0.1000 S1000
G1 F123 X36.3594 Y50.2210 Z-0.1000 S1000
G1 F123 X36.5072 Y49.9046 Z-0.1000 S1000
G1 F123 X36.5974 Y49.5673 Z-0.1000 S1000
G1 F123 X36.6275 Y49.2194 Z-0.1000 S1000
G1 F123 X36.6275 Y42.2081 Z-0.1000 S1000
G1 F123 X36.6275 Y42.2081 Z-0.1000 S1000
;---
G1 F123 X36.5974 Y41.8602 Z-0.1000 S1000
G1 F123 X36.5072 Y41.5228 Z-0.1000 S1000
G1 F123 X36.3594 Y41.2064 Z-0.1000 S1000
G1 F123 X36.1589 Y40.9206 Z-0.1000 S1000
G1 F123 X35.9120 Y40.6736 Z-0.1000 S1000
G1 F123 X35.6261 Y40.4731 Z-0.1000 S1000
G1 F123 X35.3097 Y40.3253 Z-0.1000 S1000
G1 F123 X34.9724 Y40.2351 Z-0.1000 S1000
G1 F123 X34.6245 Y40.2050 Z-0.1000 S1000
G1 F123 X27.6131 Y40.2050 Z-0.1000 S1000
G1 F123 X27.2652 Y40.2351 Z-0.1000 S1000
G1 F123 X26.9279 Y40.3253 Z-0.1000 S1000
G1 F123 X26.6115 Y40.4730 Z-0.1000 S1000
G1 F123 X26.3256 Y40.6736 Z-0.1000 S1000
G1 F123 X26.0786 Y40.9205 Z-0.1000 S1000
G1 F123 X25.8781 Y41.2064 Z-0.1000 S1000
G1 F123 X25.7303 Y41.5228 Z-0.1000 S1000
G1 F123 X25.6402 Y41.8601 Z-0.1000 S1000
G1 F123 X25.6101 Y42.2081 Z-0.1000 S1000
G1 F123 X25.6101 Y49.2194 Z-0.1000 S1000
G1 F123 X25.6402 Y49.5673 Z-0.1000 S1000
G1 F123 X25.7303 Y49.9047 Z-0.1000 S1000
G1 F123 X25.8781 Y50.2211 Z-0.1000 S1000
G1 F123 X26.0786 Y50.5070 Z-0.1000 S1000
G1 F123 X26.3256 Y50.7539 Z-0.1000 S1000
G1 F123 X26.6115 Y50.9544 Z-0.1000 S1000
G1 F123 X26.9279 Y51.1022 Z-0.1000 S1000
G1 F123 X27.2652 Y51.1924 Z-0.1000 S1000
G1 F123 X27.6131 Y51.2225 Z-0.1000 S1000
G1 F123 X34.6245 Y51.2225 Z-0.1000 S1000
G1 F123 X34.9724 Y51.1923 Z-0.1000 S1000
G1 F123 X35.3097 Y51.1021 Z-0.1000 S1000
G1 F123 X35.6261 Y50.9544 Z-0.1000 S1000
G1 F123 X35.9120 Y50.7538 Z-0.1000 S1000
G1 F123 X36.1589 Y50.5069 Z-0.1000 S1000
G1 F123 X36.3594 Y50.2210 Z-0.1000 S1000
G1 F123 X36.5072 Y49.9046 Z-0.1000 S1000
G1 F123 X36.5974 Y49.5673 Z-0.1000 S1000
G1 F123 X36.6275 Y49.2194 Z-0.1000 S1000
G1 F123 X36.6275 Y42.2081 Z-0.1000 S1000
G1 F123 X36.6275 Y42.2081 Z-0.1000 S1000
;---
G1 F123 X36.5974 Y41.8602 Z-0.1000 S1000
G1 F123 X36.5072 Y41.5228 Z-0.1000 S1000
G1 F123 X36.3594 Y41.2064 Z-0.1000 S1000
G1 F123 X36.1589 Y40.9206 Z-0.1000 S1000
G1 F123 X35.9120 Y40.6736 Z-0.1000 S1000
G1 F123 X35.6261 Y40.4731 Z-0.1000 S1000
G1 F123 X35.3097 Y40.3253 Z-0.1000 S1000
G1 F123 X34.9724 Y40.2351 Z-0.1000 S1000
G1 F123 X34.6245 Y40.2050 Z-0.1000 S1000
G1 F123 X27.6131 Y40.2050 Z-0.1000 S1000
G1 F123 X27.2652 Y40.2351 Z-0.1000 S1000
G1 F123 X26.9279 Y40.3253 Z-0.1000 S1000
G1 F123 X26.6115 Y40.4730 Z-0.1000 S1000
G1 F123 X26.3256 Y40.6736 Z-0.1000 S1000
G1 F123 X26.0786 Y40.9205 Z-0.1000 S1000
G1 F123 X25.8781 Y41.2064 Z-0.1000 S1000
G1 F123 X25.7303 Y41.5228 Z-0.1000 S1000
G1 F123 X25.6402 Y41.8601 Z-0.1000 S1000
G1 F123 X25.6101 Y42.2081 Z-0.1000 S1000
G1 F123 X25.6101 Y49.2194 Z-0.1000 S1000
G1 F123 X25.6402 Y49.5673 Z-0.1000 S1000
G1 F123 X25.7303 Y49.9047 Z-0.1000 S1000
G1 F123 X25.8781 Y50.2211 Z-0.1000 S1000
G1 F123 X26.0786 Y50.5070 Z-0.1000 S1000
G1 F123 X26.3256 Y50.7539 Z-0.1000 S1000
G1 F123 X26.6115 Y50.9544 Z-0.1000 S1000
G1 F123 X26.9279 Y51.1022 Z-0.1000 S1000
G1 F123 X27.2652 Y51.1924 Z-0.1000 S1000
G1 F123 X27.6131 Y51.2225 Z-0.1000 S1000
G1 F123 X34.6245 Y51.2225 Z-0.1000 S1000
G1 F123 X34.9724 Y51.1923 Z-0.1000 S1000
G1 F123 X35.3097 Y51.1021 Z-0.1000 S1000
G1 F123 X35.6261 Y50.9544 Z-0.1000 S1000
G1 F123 X35.9120 Y50.7538 Z-0.1000 S1000
G1 F123 X36.1589 Y50.5069 Z-0.1000 S1000
G1 F123 X36.3594 Y50.2210 Z-0.1000 S1000
G1 F123 X36.5072 Y49.9046 Z-0.1000 S1000
G1 F123 X36.5974 Y49.5673 Z-0.1000 S1000
G1 F123 X36.6275 Y49.2194 Z-0.1000 S1000
G1 F123 X36.6275 Y42.2081 Z-0.1000 S1000
G1 F123 X36.6275 Y42.2081 Z-0.1000 S1000
;---

G0 Z10; move to z-safe height
G0 X81.6990 Y57.2321

G0 Z0
G1 F300 Z-0.1000
G1 F123 X81.6688 Y56.8841 Z-0.1000 S1000
G1 F123 X81.5787 Y56.5468 Z-0.1000 S1000
G1 F123 X81.4309 Y56.2304 Z-0.1000 S1000
G1 F123 X81.2304 Y55.9445 Z-0.1000 S1000
G1 F123 X80.9835 Y55.6976 Z-0.1000 S1000
G1 F123 X80.6976 Y55.4970 Z-0.1000 S1000
G1 F123 X80.3812 Y55.3493 Z-0.1000 S1000
G1 F123 X80.0438 Y55.2591 Z-0.1000 S1000
G1 F123 X79.6959 Y55.2290 Z-0.1000 S1000
G1 F123 X72.6846 Y55.2290 Z-0.1000 S1000
G1 F123 X72.3366 Y55.2591 Z-0.1000 S1000
G1 F123 X71.9993 Y55.3493 Z-0.1000 S1000
G1 F123 X71.6829 Y55.4970 Z-0.1000 S1000
G1 F123 X71.3970 Y55.6976 Z-0.1000 S1000
G1 F123 X71.1501 Y55.9445 Z-0.1000 S1000
G1 F123 X70.9495 Y56.2304 Z-0.1000 S1000
G1 F123 X70.8018 Y56.5468 Z-0.1000 S1000
G1 F123 X70.7116 Y56.8841 Z-0.1000 S1000
G1 F123 X70.6815 Y57.2321 Z-0.1000 S1000
G1 F123 X70.6815 Y64.2430 Z-0.1000 S1000
G1 F123 X70.7116 Y64.5910 Z-0.1000 S1000
G1 F123 X70.8017 Y64.9284 Z-0.1000 S1000
G1 F123 X70.9495 Y65.2448 Z-0.1000 S1000
G1 F123 X71.1500 Y65.5308 Z-0.1000 S1000
G1 F123 X71.3969 Y65.7778 Z-0.1000 S1000
G1 F123 X71.6828 Y65.9784 Z-0.1000 S1000
G1 F123 X71.9992 Y66.1261 Z-0.1000 S1000
G1 F123 X72.3366 Y66.2163 Z-0.1000 S1000
G1 F123 X72.6846 Y66.2465 Z-0.1000 S1000
G1 F123 X79.6959 Y66.2465 Z-0.1000 S1000
G1 F123 X80.0438 Y66.2163 Z-0.1000 S1000
G1 F123 X80.3812 Y66.1261 Z-0.1000 S1000
G1 F123 X80.6976 Y65.9784 Z-0.1000 S1000
G1 F123 X80.9835 Y65.7778 Z-0.1000 S1000
G1 F123 X81.2305 Y65.5308 Z-0.1000 S1000
G1 F123 X81.4310 Y65.2448 Z-0.1000 S1000
G1 F123 X81.5787 Y64.9284 Z-0.1000 S1000
G1 F123 X81.6689 Y64.5910 Z-0.1000 S1000
G1 F123 X81.6990 Y64.2430 Z-0.1000 S1000
G1 F123 X81.6990 Y57.2321 Z-0.1000 S1000
G1 F123 X81.6990 Y57.2321 Z-0.1000 S1000
;---
G1 F123 X81.6688 Y56.8841 Z-0.1000 S1000
G1 F123 X81.5787 Y56.5468 Z-0.1000 S1000
G1 F123 X81.4309 Y56.2304 Z-0.1000 S1000
G1 F123 X81.2304 Y55.9445 Z-0.1000 S1000
G1 F123 X80.9835 Y55.6976 Z-0.1000 S1000
G1 F123 X80.6976 Y55.4970 Z-0.1000 S1000
G1 F123 X80.3812 Y55.3493 Z-0.1000 S1000
G1 F123 X80.0438 Y55.2591 Z-0.1000 S1000
G1 F123 X79.6959 Y55.2290 Z-0.1000 S1000
G1 F123 X72.6846 Y55.2290 Z-0.1000 S1000
G1 F123 X72.3366 Y55.2591 Z-0.1000 S1000
G1 F123 X71.9993 Y55.3493 Z-0.1000 S1000
G1 F123 X71.6829 Y55.4970 Z-0.1000 S1000
G1 F123 X71.3970 Y55.6976 Z-0.1000 S1000
G1 F123 X71.1501 Y55.9445 Z-0.1000 S1000
G1 F123 X70.9495 Y56.2304 Z-0.1000 S1000
G1 F123 X70.8018 Y56.5468 Z-0.1000 S1000
G1 F123 X70.7116 Y56.8841 Z-0.1000 S1000
G1 F123 X70.6815 Y57.2321 Z-0.1000 S1000
G1 F123 X70.6815 Y64.2430 Z-0.1000 S1000
G1 F123 X70.7116 Y64.5910 Z-0.1000 S1000
G1 F123 X70.8017 Y64.9284 Z-0.1000 S1000
G1 F123 X70.9495 Y65.2448 Z-0.1000 S1000
G1 F123 X71.1500 Y65.5308 Z-0.1000 S1000
G1 F123 X71.3969 Y65.7778 Z-0.1000 S1000
G1 F123 X71.6828 Y65.9784 Z-0.1000 S1000
G1 F123 X71.9992 Y66.1261 Z-0.1000 S1000
G1 F123 X72.3366 Y66.2163 Z-0.1000 S1000
G1 F123 X72.6846 Y66.2465 Z-0.1000 S1000
G1 F123 X79.6959 Y66.2465 Z-0.1000 S1000
G1 F123 X80.0438 Y66.2163 Z-0.1000 S1000
G1 F123 X80.3812 Y66.1261 Z-0.1000 S1000
G1 F123 X80.6976 Y65.9784 Z-0.1000 S1000
G1 F123 X80.9835 Y65.7778 Z-0.1000 S1000
G1 F123 X81.2305 Y65.5308 Z-0.1000 S1000
G1 F123 X81.4310 Y65.2448 Z-0.1000 S1000
G1 F123 X81.5787 Y64.9284 Z-0.1000 S1000
G1 F123 X81.6689 Y64.5910 Z-0.1000 S1000
G1 F123 X81.6990 Y64.2430 Z-0.1000 S1000
G1 F123 X81.6990 Y57.2321 Z-0.1000 S1000
G1 F123 X81.6990 Y57.2321 Z-0.1000 S1000
;---
G1 F123 X81.6688 Y56.8841 Z-0.1000 S1000
G1 F123 X81.5787 Y56.5468 Z-0.1000 S1000
G1 F123 X81.4309 Y56.2304 Z-0.1000 S1000
G1 F123 X81.2304 Y55.9445 Z-0.1000 S1000
G1 F123 X80.9835 Y55.6976 Z-0.1000 S1000
G1 F123 X80.6976 Y55.4970 Z-0.1000 S1000
G1 F123 X80.3812 Y55.3493 Z-0.1000 S1000
G1 F123 X80.0438 Y55.2591 Z-0.1000 S1000
G1 F123 X79.6959 Y55.2290 Z-0.1000 S1000
G1 F123 X72.6846 Y55.2290 Z-0.1000 S1000
G1 F123 X72.3366 Y55.2591 Z-0.1000 S1000
G1 F123 X71.9993 Y55.3493 Z-0.1000 S1000
G1 F123 X71.6829 Y55.4970 Z-0.1000 S1000
G1 F123 X71.3970 Y55.6976 Z-0.1000 S1000
G1 F123 X71.1501 Y55.9445 Z-0.1000 S1000
G1 F123 X70.9495 Y56.2304 Z-0.1000 S1000
G1 F123 X70.8018 Y56.5468 Z-0.1000 S1000
G1 F123 X70.7116 Y56.8841 Z-0.1000 S1000
G1 F123 X70.6815 Y57.2321 Z-0.1000 S1000
G1 F123 X70.6815 Y64.2430 Z-0.1000 S1000
G1 F123 X70.7116 Y64.5910 Z-0.1000 S1000
G1 F123 X70.8017 Y64.9284 Z-0.1000 S1000
G1 F123 X70.9495 Y65.2448 Z-0.1000 S1000
G1 F123 X71.1500 Y65.5308 Z-0.1000 S1000
G1 F123 X71.3969 Y65.7778 Z-0.1000 S1000
G1 F123 X71.6828 Y65.9784 Z-0.1000 S1000
G1 F123 X71.9992 Y66.1261 Z-0.1000 S1000
G1 F123 X72.3366 Y66.2163 Z-0.1000 S1000
G1 F123 X72.6846 Y66.2465 Z-0.1000 S1000
G1 F123 X79.6959 Y66.2465 Z-0.1000 S1000
G1 F123 X80.0438 Y66.2163 Z-0.1000 S1000
G1 F123 X80.3812 Y66.1261 Z-0.1000 S1000
G1 F123 X80.6976 Y65.9784 Z-0.1000 S1000
G1 F123 X80.9835 Y65.7778 Z-0.1000 S1000
G1 F123 X81.2305 Y65.5308 Z-0.1000 S1000
G1 F123 X81.4310 Y65.2448 Z-0.1000 S1000
G1 F123 X81.5787 Y64.9284 Z-0.1000 S1000
G1 F123 X81.6689 Y64.5910 Z-0.1000 S1000
G1 F123 X81.6990 Y64.2430 Z-0.1000 S1000
G1 F123 X81.6990 Y57.2321 Z-0.1000 S1000
G1 F123 X81.6990 Y57.2321 Z-0.1000 S1000
;---

G0 Z10; move to z-safe height
G0 X96.7227 Y57.2321

G0 Z0
G1 F300 Z-0.1000
G1 F123 X96.6926 Y56.8841 Z-0.1000 S1000
G1 F123 X96.6025 Y56.5468 Z-0.1000 S1000
G1 F123 X96.4547 Y56.2304 Z-0.1000 S1000
G1 F123 X96.2542 Y55.9445 Z-0.1000 S1000
G1 F123 X96.0072 Y55.6976 Z-0.1000 S1000
G1 F123 X95.7213 Y55.4970 Z-0.1000 S1000
G1 F123 X95.4049 Y55.3493 Z-0.1000 S1000
G1 F123 X95.0676 Y55.2591 Z-0.1000 S1000
G1 F123 X94.7197 Y55.2290 Z-0.1000 S1000
G1 F123 X87.7084 Y55.2290 Z-0.1000 S1000
G1 F123 X87.3604 Y55.2591 Z-0.1000 S1000
G1 F123 X87.0231 Y55.3493 Z-0.1000 S1000
G1 F123 X86.7067 Y55.4970 Z-0.1000 S1000
G1 F123 X86.4208 Y55.6976 Z-0.1000 S1000
G1 F123 X86.1739 Y55.9445 Z-0.1000 S1000
G1 F123 X85.9733 Y56.2304 Z-0.1000 S1000
G1 F123 X85.8256 Y56.5468 Z-0.1000 S1000
G1 F123 X85.7354 Y56.8841 Z-0.1000 S1000
G1 F123 X85.7053 Y57.2321 Z-0.1000 S1000
G1 F123 X85.7053 Y64.2430 Z-0.1000 S1000
G1 F123 X85.7354 Y64.5910 Z-0.1000 S1000
G1 F123 X85.8255 Y64.9284 Z-0.1000 S1000
G1 F123 X85.9733 Y65.2448 Z-0.1000 S1000
G1 F123 X86.1738 Y65.5308 Z-0.1000 S1000
G1 F123 X86.4207 Y65.7778 Z-0.1000 S1000
G1 F123 X86.7066 Y65.9784 Z-0.1000 S1000
G1 F123 X87.0230 Y66.1261 Z-0.1000 S1000
G1 F123 X87.3604 Y66.2163 Z-0.1000 S1000
G1 F123 X87.7084 Y66.2465 Z-0.1000 S1000
G1 F123 X94.7197 Y66.2465 Z-0.1000 S1000
G1 F123 X95.0676 Y66.2163 Z-0.1000 S1000
G1 F123 X95.4050 Y66.1261 Z-0.1000 S1000
G1 F123 X95.7214 Y65.9784 Z-0.1000 S1000
G1 F123 X96.0073 Y65.7778 Z-0.1000 S1000
G1 F123 X96.2543 Y65.5308 Z-0.1000 S1000
G1 F123 X96.4548 Y65.2448 Z-0.1000 S1000
G1 F123 X96.6025 Y64.9284 Z-0.1000 S1000
G1 F123 X96.6927 Y64.5910 Z-0.1000 S1000
G1 F123 X96.7227 Y64.2430 Z-0.1000 S1000
G1 F123 X96.7227 Y57.2321 Z-0.1000 S1000
G1 F123 X96.7227 Y57.2321 Z-0.1000 S1000
;---
G1 F123 X96.6926 Y56.8841 Z-0.1000 S1000
G1 F123 X96.6025 Y56.5468 Z-0.1000 S1000
G1 F123 X96.4547 Y56.2304 Z-0.1000 S1000
G1 F123 X96.2542 Y55.9445 Z-0.1000 S1000
G1 F123 X96.0072 Y55.6976 Z-0.1000 S1000
G1 F123 X95.7213 Y55.4970 Z-0.1000 S1000
G1 F123 X95.4049 Y55.3493 Z-0.1000 S1000
G1 F123 X95.0676 Y55.2591 Z-0.1000 S1000
G1 F123 X94.7197 Y55.2290 Z-0.1000 S1000
G1 F123 X87.7084 Y55.2290 Z-0.1000 S1000
G1 F123 X87.3604 Y55.2591 Z-0.1000 S1000
G1 F123 X87.0231 Y55.3493 Z-0.1000 S1000
G1 F123 X86.7067 Y55.4970 Z-0.1000 S1000
G1 F123 X86.4208 Y55.6976 Z-0.1000 S1000
G1 F123 X86.1739 Y55.9445 Z-0.1000 S1000
G1 F123 X85.9733 Y56.2304 Z-0.1000 S1000
G1 F123 X85.8256 Y56.5468 Z-0.1000 S1000
G1 F123 X85.7354 Y56.8841 Z-0.1000 S1000
G1 F123 X85.7053 Y57.2321 Z-0.1000 S1000
G1 F123 X85.7053 Y64.2430 Z-0.1000 S1000
G1 F123 X85.7354 Y64.5910 Z-0.1000 S1000
G1 F123 X85.8255 Y64.9284 Z-0.1000 S1000
G1 F123 X85.9733 Y65.2448 Z-0.1000 S1000
G1 F123 X86.1738 Y65.5308 Z-0.1000 S1000
G1 F123 X86.4207 Y65.7778 Z-0.1000 S1000
G1 F123 X86.7066 Y65.9784 Z-0.1000 S1000
G1 F123 X87.0230 Y66.1261 Z-0.1000 S1000
G1 F123 X87.3604 Y66.2163 Z-0.1000 S1000
G1 F123 X87.7084 Y66.2465 Z-0.1000 S1000
G1 F123 X94.7197 Y66.2465 Z-0.1000 S1000
G1 F123 X95.0676 Y66.2163 Z-0.1000 S1000
G1 F123 X95.4050 Y66.1261 Z-0.1000 S1000
G1 F123 X95.7214 Y65.9784 Z-0.1000 S1000
G1 F123 X96.0073 Y65.7778 Z-0.1000 S1000
G1 F123 X96.2543 Y65.5308 Z-0.1000 S1000
G1 F123 X96.4548 Y65.2448 Z-0.1000 S1000
G1 F123 X96.6025 Y64.9284 Z-0.1000 S1000
G1 F123 X96.6927 Y64.5910 Z-0.1000 S1000
G1 F123 X96.7227 Y64.2430 Z-0.1000 S1000
G1 F123 X96.7227 Y57.2321 Z-0.1000 S1000
G1 F123 X96.7227 Y57.2321 Z-0.1000 S1000
;---
G1 F123 X96.6926 Y56.8841 Z-0.1000 S1000
G1 F123 X96.6025 Y56.5468 Z-0.1000 S1000
G1 F123 X96.4547 Y56.2304 Z-0.1000 S1000
G1 F123 X96.2542 Y55.9445 Z-0.1000 S1000
G1 F123 X96.0072 Y55.6976 Z-0.1000 S1000
G1 F123 X95.7213 Y55.4970 Z-0.1000 S1000
G1 F123 X95.4049 Y55.3493 Z-0.1000 S1000
G1 F123 X95.0676 Y55.2591 Z-0.1000 S1000
G1 F123 X94.7197 Y55.2290 Z-0.1000 S1000
G1 F123 X87.7084 Y55.2290 Z-0.1000 S1000
G1 F123 X87.3604 Y55.2591 Z-0.1000 S1000
G1 F123 X87.0231 Y55.3493 Z-0.1000 S1000
G1 F123 X86.7067 Y55.4970 Z-0.1000 S1000
G1 F123 X86.4208 Y55.6976 Z-0.1000 S1000
G1 F123 X86.1739 Y55.9445 Z-0.1000 S1000
G1 F123 X85.9733 Y56.2304 Z-0.1000 S1000
G1 F123 X85.8256 Y56.5468 Z-0.1000 S1000
G1 F123 X85.7354 Y56.8841 Z-0.1000 S1000
G1 F123 X85.7053 Y57.2321 Z-0.1000 S1000
G1 F123 X85.7053 Y64.2430 Z-0.1000 S1000
G1 F123 X85.7354 Y64.5910 Z-0.1000 S1000
G1 F123 X85.8255 Y64.9284 Z-0.1000 S1000
G1 F123 X85.9733 Y65.2448 Z-0.1000 S1000
G1 F123 X86.1738 Y65.5308 Z-0.1000 S1000
G1 F123 X86.4207 Y65.7778 Z-0.1000 S1000
G1 F123 X86.7066 Y65.9784 Z-0.1000 S1000
G1 F123 X87.0230 Y66.1261 Z-0.1000 S1000
G1 F123 X87.3604 Y66.2163 Z-0.1000 S1000
G1 F123 X87.7084 Y66.2465 Z-0.1000 S1000
G1 F123 X94.7197 Y66.2465 Z-0.1000 S1000
G1 F123 X95.0676 Y66.2163 Z-0.1000 S1000
G1 F123 X95.4050 Y66.1261 Z-0.1000 S1000
G1 F123 X95.7214 Y65.9784 Z-0.1000 S1000
G1 F123 X96.0073 Y65.7778 Z-0.1000 S1000
G1 F123 X96.2543 Y65.5308 Z-0.1000 S1000
G1 F123 X96.4548 Y65.2448 Z-0.1000 S1000
G1 F123 X96.6025 Y64.9284 Z-0.1000 S1000
G1 F123 X96.6927 Y64.5910 Z-0.1000 S1000
G1 F123 X96.7227 Y64.2430 Z-0.1000 S1000
G1 F123 X96.7227 Y57.2321 Z-0.1000 S1000
G1 F123 X96.7227 Y57.2321 Z-0.1000 S1000
;---

G0 Z10; move to z-safe height
G0 X51.6514 Y57.2321

G0 Z0
G1 F300 Z-0.1000
G1 F123 X51.6213 Y56.8841 Z-0.1000 S1000
G1 F123 X51.5311 Y56.5468 Z-0.1000 S1000
G1 F123 X51.3833 Y56.2304 Z-0.1000 S1000
G1 F123 X51.1828 Y55.9445 Z-0.1000 S1000
G1 F123 X50.9359 Y55.6976 Z-0.1000 S1000
G1 F123 X50.6500 Y55.4970 Z-0.1000 S1000
G1 F123 X50.3336 Y55.3493 Z-0.1000 S1000
G1 F123 X49.9962 Y55.2591 Z-0.1000 S1000
G1 F123 X49.6483 Y55.2290 Z-0.1000 S1000
G1 F123 X42.6370 Y55.2290 Z-0.1000 S1000
G1 F123 X42.2891 Y55.2591 Z-0.1000 S1000
G1 F123 X41.9517 Y55.3493 Z-0.1000 S1000
G1 F123 X41.6353 Y55.4970 Z-0.1000 S1000
G1 F123 X41.3494 Y55.6976 Z-0.1000 S1000
G1 F123 X41.1025 Y55.9445 Z-0.1000 S1000
G1 F123 X40.9019 Y56.2304 Z-0.1000 S1000
G1 F123 X40.7542 Y56.5468 Z-0.1000 S1000
G1 F123 X40.6640 Y56.8841 Z-0.1000 S1000
G1 F123 X40.6339 Y57.2321 Z-0.1000 S1000
G1 F123 X40.6339 Y64.2430 Z-0.1000 S1000
G1 F123 X40.6640 Y64.5910 Z-0.1000 S1000
G1 F123 X40.7541 Y64.9284 Z-0.1000 S1000
G1 F123 X40.9019 Y65.2448 Z-0.1000 S1000
G1 F123 X41.1024 Y65.5308 Z-0.1000 S1000
G1 F123 X41.3493 Y65.7778 Z-0.1000 S1000
G1 F123 X41.6352 Y65.9784 Z-0.1000 S1000
G1 F123 X41.9516 Y66.1261 Z-0.1000 S1000
G1 F123 X42.2890 Y66.2163 Z-0.1000 S1000
G1 F123 X42.6370 Y66.2465 Z-0.1000 S1000
G1 F123 X49.6483 Y66.2465 Z-0.1000 S1000
G1 F123 X49.9962 Y66.2163 Z-0.1000 S1000
G1 F123 X50.3336 Y66.1261 Z-0.1000 S1000
G1 F123 X50.6500 Y65.9784 Z-0.1000 S1000
G1 F123 X50.9360 Y65.7778 Z-0.1000 S1000
G1 F123 X51.1829 Y65.5308 Z-0.1000 S1000
G1 F123 X51.3834 Y65.2448 Z-0.1000 S1000
G1 F123 X51.5311 Y64.9284 Z-0.1000 S1000
G1 F123 X51.6213 Y64.5910 Z-0.1000 S1000
G1 F123 X51.6514 Y64.2430 Z-0.1000 S1000
G1 F123 X51.6514 Y57.2321 Z-0.1000 S1000
G1 F123 X51.6514 Y57.2321 Z-0.1000 S1000
;---
G1 F123 X51.6213 Y56.8841 Z-0.1000 S1000
G1 F123 X51.5311 Y56.5468 Z-0.1000 S1000
G1 F123 X51.3833 Y56.2304 Z-0.1000 S1000
G1 F123 X51.1828 Y55.9445 Z-0.1000 S1000
G1 F123 X50.9359 Y55.6976 Z-0.1000 S1000
G1 F123 X50.6500 Y55.4970 Z-0.1000 S1000
G1 F123 X50.3336 Y55.3493 Z-0.1000 S1000
G1 F123 X49.9962 Y55.2591 Z-0.1000 S1000
G1 F123 X49.6483 Y55.2290 Z-0.1000 S1000
G1 F123 X42.6370 Y55.2290 Z-0.1000 S1000
G1 F123 X42.2891 Y55.2591 Z-0.1000 S1000
G1 F123 X41.9517 Y55.3493 Z-0.1000 S1000
G1 F123 X41.6353 Y55.4970 Z-0.1000 S1000
G1 F123 X41.3494 Y55.6976 Z-0.1000 S1000
G1 F123 X41.1025 Y55.9445 Z-0.1000 S1000
G1 F123 X40.9019 Y56.2304 Z-0.1000 S1000
G1 F123 X40.7542 Y56.5468 Z-0.1000 S1000
G1 F123 X40.6640 Y56.8841 Z-0.1000 S1000
G1 F123 X40.6339 Y57.2321 Z-0.1000 S1000
G1 F123 X40.6339 Y64.2430 Z-0.1000 S1000
G1 F123 X40.6640 Y64.5910 Z-0.1000 S1000
G1 F123 X40.7541 Y64.9284 Z-0.1000 S1000
G1 F123 X40.9019 Y65.2448 Z-0.1000 S1000
G1 F123 X41.1024 Y65.5308 Z-0.1000 S1000
G1 F123 X41.3493 Y65.7778 Z-0.1000 S1000
G1 F123 X41.6352 Y65.9784 Z-0.1000 S1000
G1 F123 X41.9516 Y66.1261 Z-0.1000 S1000
G1 F123 X42.2890 Y66.2163 Z-0.1000 S1000
G1 F123 X42.6370 Y66.2465 Z-0.1000 S1000
G1 F123 X49.6483 Y66.2465 Z-0.1000 S1000
G1 F123 X49.9962 Y66.2163 Z-0.1000 S1000
G1 F123 X50.3336 Y66.1261 Z-0.1000 S1000
G1 F123 X50.6500 Y65.9784 Z-0.1000 S1000
G1 F123 X50.9360 Y65.7778 Z-0.1000 S1000
G1 F123 X51.1829 Y65.5308 Z-0.1000 S1000
G1 F123 X51.3834 Y65.2448 Z-0.1000 S1000
G1 F123 X51.5311 Y64.9284 Z-0.1000 S1000
G1 F123 X51.6213 Y64.5910 Z-0.1000 S1000
G1 F123 X51.6514 Y64.2430 Z-0.1000 S1000
G1 F123 X51.6514 Y57.2321 Z-0.1000 S1000
G1 F123 X51.6514 Y57.2321 Z-0.1000 S1000
;---
G1 F123 X51.6213 Y56.8841 Z-0.1000 S1000
G1 F123 X51.5311 Y56.5468 Z-0.1000 S1000
G1 F123 X51.3833 Y56.2304 Z-0.1000 S1000
G1 F123 X51.1828 Y55.9445 Z-0.1000 S1000
G1 F123 X50.9359 Y55.6976 Z-0.1000 S1000
G1 F123 X50.6500 Y55.4970 Z-0.1000 S1000
G1 F123 X50.3336 Y55.3493 Z-0.1000 S1000
G1 F123 X49.9962 Y55.2591 Z-0.1000 S1000
G1 F123 X49.6483 Y55.2290 Z-0.1000 S1000
G1 F123 X42.6370 Y55.2290 Z-0.1000 S1000
G1 F123 X42.2891 Y55.2591 Z-0.1000 S1000
G1 F123 X41.9517 Y55.3493 Z-0.1000 S1000
G1 F123 X41.6353 Y55.4970 Z-0.1000 S1000
G1 F123 X41.3494 Y55.6976 Z-0.1000 S1000
G1 F123 X41.1025 Y55.9445 Z-0.1000 S1000
G1 F123 X40.9019 Y56.2304 Z-0.1000 S1000
G1 F123 X40.7542 Y56.5468 Z-0.1000 S1000
G1 F123 X40.6640 Y56.8841 Z-0.1000 S1000
G1 F123 X40.6339 Y57.2321 Z-0.1000 S1000
G1 F123 X40.6339 Y64.2430 Z-0.1000 S1000
G1 F123 X40.6640 Y64.5910 Z-0.1000 S1000
G1 F123 X40.7541 Y64.9284 Z-0.1000 S1000
G1 F123 X40.9019 Y65.2448 Z-0.1000 S1000
G1 F123 X41.1024 Y65.5308 Z-0.1000 S1000
G1 F123 X41.3493 Y65.7778 Z-0.1000 S1000
G1 F123 X41.6352 Y65.9784 Z-0.1000 S1000
G1 F123 X41.9516 Y66.1261 Z-0.1000 S1000
G1 F123 X42.2890 Y66.2163 Z-0.1000 S1000
G1 F123 X42.6370 Y66.2465 Z-0.1000 S1000
G1 F123 X49.6483 Y66.2465 Z-0.1000 S1000
G1 F123 X49.9962 Y66.2163 Z-0.1000 S1000
G1 F123 X50.3336 Y66.1261 Z-0.1000 S1000
G1 F123 X50.6500 Y65.9784 Z-0.1000 S1000
G1 F123 X50.9360 Y65.7778 Z-0.1000 S1000
G1 F123 X51.1829 Y65.5308 Z-0.1000 S1000
G1 F123 X51.3834 Y65.2448 Z-0.1000 S1000
G1 F123 X51.5311 Y64.9284 Z-0.1000 S1000
G1 F123 X51.6213 Y64.5910 Z-0.1000 S1000
G1 F123 X51.6514 Y64.2430 Z-0.1000 S1000
G1 F123 X51.6514 Y57.2321 Z-0.1000 S1000
G1 F123 X51.6514 Y57.2321 Z-0.1000 S1000
;---

G0 Z10; move to z-safe height
G0 X21.6036 Y57.2321

G0 Z0
G1 F300 Z-0.1000
G1 F123 X21.5735 Y56.8841 Z-0.1000 S1000
G1 F123 X21.4833 Y56.5468 Z-0.1000 S1000
G1 F123 X21.3355 Y56.2304 Z-0.1000 S1000
G1 F123 X21.1350 Y55.9445 Z-0.1000 S1000
G1 F123 X20.8881 Y55.6976 Z-0.1000 S1000
G1 F123 X20.6022 Y55.4970 Z-0.1000 S1000
G1 F123 X20.2858 Y55.3493 Z-0.1000 S1000
G1 F123 X19.9484 Y55.2591 Z-0.1000 S1000
G1 F123 X19.6005 Y55.2290 Z-0.1000 S1000
G1 F123 X12.5892 Y55.2290 Z-0.1000 S1000
G1 F123 X12.2412 Y55.2591 Z-0.1000 S1000
G1 F123 X11.9039 Y55.3493 Z-0.1000 S1000
G1 F123 X11.5875 Y55.4970 Z-0.1000 S1000
G1 F123 X11.3016 Y55.6976 Z-0.1000 S1000
G1 F123 X11.0547 Y55.9445 Z-0.1000 S1000
G1 F123 X10.8541 Y56.2304 Z-0.1000 S1000
G1 F123 X10.7064 Y56.5468 Z-0.1000 S1000
G1 F123 X10.6162 Y56.8841 Z-0.1000 S1000
G1 F123 X10.5861 Y57.2321 Z-0.1000 S1000
G1 F123 X10.5861 Y64.2430 Z-0.1000 S1000
G1 F123 X10.6162 Y64.5910 Z-0.1000 S1000
G1 F123 X10.7063 Y64.9284 Z-0.1000 S1000
G1 F123 X10.8541 Y65.2448 Z-0.1000 S1000
G1 F123 X11.0546 Y65.5308 Z-0.1000 S1000
G1 F123 X11.3015 Y65.7778 Z-0.1000 S1000
G1 F123 X11.5874 Y65.9784 Z-0.1000 S1000
G1 F123 X11.9038 Y66.1261 Z-0.1000 S1000
G1 F123 X12.2412 Y66.2163 Z-0.1000 S1000
G1 F123 X12.5892 Y66.2465 Z-0.1000 S1000
G1 F123 X19.6005 Y66.2465 Z-0.1000 S1000
G1 F123 X19.9484 Y66.2163 Z-0.1000 S1000
G1 F123 X20.2858 Y66.1261 Z-0.1000 S1000
G1 F123 X20.6022 Y65.9784 Z-0.1000 S1000
G1 F123 X20.8882 Y65.7778 Z-0.1000 S1000
G1 F123 X21.1351 Y65.5308 Z-0.1000 S1000
G1 F123 X21.3356 Y65.2448 Z-0.1000 S1000
G1 F123 X21.4833 Y64.9284 Z-0.1000 S1000
G1 F123 X21.5735 Y64.5910 Z-0.1000 S1000
G1 F123 X21.6036 Y64.2430 Z-0.1000 S1000
G1 F123 X21.6036 Y57.2321 Z-0.1000 S1000
G1 F123 X21.6036 Y57.2321 Z-0.1000 S1000
;---
G1 F123 X21.5735 Y56.8841 Z-0.1000 S1000
G1 F123 X21.4833 Y56.5468 Z-0.1000 S1000
G1 F123 X21.3355 Y56.2304 Z-0.1000 S1000
G1 F123 X21.1350 Y55.9445 Z-0.1000 S1000
G1 F123 X20.8881 Y55.6976 Z-0.1000 S1000
G1 F123 X20.6022 Y55.4970 Z-0.1000 S1000
G1 F123 X20.2858 Y55.3493 Z-0.1000 S1000
G1 F123 X19.9484 Y55.2591 Z-0.1000 S1000
G1 F123 X19.6005 Y55.2290 Z-0.1000 S1000
G1 F123 X12.5892 Y55.2290 Z-0.1000 S1000
G1 F123 X12.2412 Y55.2591 Z-0.1000 S1000
G1 F123 X11.9039 Y55.3493 Z-0.1000 S1000
G1 F123 X11.5875 Y55.4970 Z-0.1000 S1000
G1 F123 X11.3016 Y55.6976 Z-0.1000 S1000
G1 F123 X11.0547 Y55.9445 Z-0.1000 S1000
G1 F123 X10.8541 Y56.2304 Z-0.1000 S1000
G1 F123 X10.7064 Y56.5468 Z-0.1000 S1000
G1 F123 X10.6162 Y56.8841 Z-0.1000 S1000
G1 F123 X10.5861 Y57.2321 Z-0.1000 S1000
G1 F123 X10.5861 Y64.2430 Z-0.1000 S1000
G1 F123 X10.6162 Y64.5910 Z-0.1000 S1000
G1 F123 X10.7063 Y64.9284 Z-0.1000 S1000
G1 F123 X10.8541 Y65.2448 Z-0.1000 S1000
G1 F123 X11.0546 Y65.5308 Z-0.1000 S1000
G1 F123 X11.3015 Y65.7778 Z-0.1000 S1000
G1 F123 X11.5874 Y65.9784 Z-0.1000 S1000
G1 F123 X11.9038 Y66.1261 Z-0.1000 S1000
G1 F123 X12.2412 Y66.2163 Z-0.1000 S1000
G1 F123 X12.5892 Y66.2465 Z-0.1000 S1000
G1 F123 X19.6005 Y66.2465 Z-0.1000 S1000
G1 F123 X19.9484 Y66.2163 Z-0.1000 S1000
G1 F123 X20.2858 Y66.1261 Z-0.1000 S1000
G1 F123 X20.6022 Y65.9784 Z-0.1000 S1000
G1 F123 X20.8882 Y65.7778 Z-0.1000 S1000
G1 F123 X21.1351 Y65.5308 Z-0.1000 S1000
G1 F123 X21.3356 Y65.2448 Z-0.1000 S1000
G1 F123 X21.4833 Y64.9284 Z-0.1000 S1000
G1 F123 X21.5735 Y64.5910 Z-0.1000 S1000
G1 F123 X21.6036 Y64.2430 Z-0.1000 S1000
G1 F123 X21.6036 Y57.2321 Z-0.1000 S1000
G1 F123 X21.6036 Y57.2321 Z-0.1000 S1000
;---
G1 F123 X21.5735 Y56.8841 Z-0.1000 S1000
G1 F123 X21.4833 Y56.5468 Z-0.1000 S1000
G1 F123 X21.3355 Y56.2304 Z-0.1000 S1000
G1 F123 X21.1350 Y55.9445 Z-0.1000 S1000
G1 F123 X20.8881 Y55.6976 Z-0.1000 S1000
G1 F123 X20.6022 Y55.4970 Z-0.1000 S1000
G1 F123 X20.2858 Y55.3493 Z-0.1000 S1000
G1 F123 X19.9484 Y55.2591 Z-0.1000 S1000
G1 F123 X19.6005 Y55.2290 Z-0.1000 S1000
G1 F123 X12.5892 Y55.2290 Z-0.1000 S1000
G1 F123 X12.2412 Y55.2591 Z-0.1000 S1000
G1 F123 X11.9039 Y55.3493 Z-0.1000 S1000
G1 F123 X11.5875 Y55.4970 Z-0.1000 S1000
G1 F123 X11.3016 Y55.6976 Z-0.1000 S1000
G1 F123 X11.0547 Y55.9445 Z-0.1000 S1000
G1 F123 X10.8541 Y56.2304 Z-0.1000 S1000
G1 F123 X10.7064 Y56.5468 Z-0.1000 S1000
G1 F123 X10.6162 Y56.8841 Z-0.1000 S1000
G1 F123 X10.5861 Y57.2321 Z-0.1000 S1000
G1 F123 X10.5861 Y64.2430 Z-0.1000 S1000
G1 F123 X10.6162 Y64.5910 Z-0.1000 S1000
G1 F123 X10.7063 Y64.9284 Z-0.1000 S1000
G1 F123 X10.8541 Y65.2448 Z-0.1000 S1000
G1 F123 X11.0546 Y65.5308 Z-0.1000 S1000
G1 F123 X11.3015 Y65.7778 Z-0.1000 S1000
G1 F123 X11.5874 Y65.9784 Z-0.1000 S1000
G1 F123 X11.9038 Y66.1261 Z-0.1000 S1000
G1 F123 X12.2412 Y66.2163 Z-0.1000 S1000
G1 F123 X12.5892 Y66.2465 Z-0.1000 S1000
G1 F123 X19.6005 Y66.2465 Z-0.1000 S1000
G1 F123 X19.9484 Y66.2163 Z-0.1000 S1000
G1 F123 X20.2858 Y66.1261 Z-0.1000 S1000
G1 F123 X20.6022 Y65.9784 Z-0.1000 S1000
G1 F123 X20.8882 Y65.7778 Z-0.1000 S1000
G1 F123 X21.1351 Y65.5308 Z-0.1000 S1000
G1 F123 X21.3356 Y65.2448 Z-0.1000 S1000
G1 F123 X21.4833 Y64.9284 Z-0.1000 S1000
G1 F123 X21.5735 Y64.5910 Z-0.1000 S1000
G1 F123 X21.6036 Y64.2430 Z-0.1000 S1000
G1 F123 X21.6036 Y57.2321 Z-0.1000 S1000
G1 F123 X21.6036 Y57.2321 Z-0.1000 S1000
;---

G0 Z10; move to z-safe height
G0 X21.6036 Y12.1605

G0 Z0
G1 F300 Z-0.1000
G1 F123 X21.5735 Y11.8125 Z-0.1000 S1000
G1 F123 X21.4833 Y11.4752 Z-0.1000 S1000
G1 F123 X21.3355 Y11.1588 Z-0.1000 S1000
G1 F123 X21.1350 Y10.8729 Z-0.1000 S1000
G1 F123 X20.8881 Y10.6259 Z-0.1000 S1000
G1 F123 X20.6022 Y10.4254 Z-0.1000 S1000
G1 F123 X20.2858 Y10.2776 Z-0.1000 S1000
G1 F123 X19.9484 Y10.1875 Z-0.1000 S1000
G1 F123 X19.6005 Y10.1574 Z-0.1000 S1000
G1 F123 X12.5892 Y10.1574 Z-0.1000 S1000
G1 F123 X12.2412 Y10.1875 Z-0.1000 S1000
G1 F123 X11.9039 Y10.2776 Z-0.1000 S1000
G1 F123 X11.5875 Y10.4254 Z-0.1000 S1000
G1 F123 X11.3016 Y10.6259 Z-0.1000 S1000
G1 F123 X11.0547 Y10.8729 Z-0.1000 S1000
G1 F123 X10.8541 Y11.1588 Z-0.1000 S1000
G1 F123 X10.7064 Y11.4752 Z-0.1000 S1000
G1 F123 X10.6162 Y11.8125 Z-0.1000 S1000
G1 F123 X10.5861 Y12.1605 Z-0.1000 S1000
G1 F123 X10.5861 Y19.1714 Z-0.1000 S1000
G1 F123 X10.6162 Y19.5194 Z-0.1000 S1000
G1 F123 X10.7063 Y19.8568 Z-0.1000 S1000
G1 F123 X10.8541 Y20.1732 Z-0.1000 S1000
G1 F123 X11.0546 Y20.4592 Z-0.1000 S1000
G1 F123 X11.3015 Y20.7062 Z-0.1000 S1000
G1 F123 X11.5874 Y20.9067 Z-0.1000 S1000
G1 F123 X11.9038 Y21.0545 Z-0.1000 S1000
G1 F123 X12.2412 Y21.1447 Z-0.1000 S1000
G1 F123 X12.5892 Y21.1748 Z-0.1000 S1000
G1 F123 X19.6005 Y21.1748 Z-0.1000 S1000
G1 F123 X19.9484 Y21.1447 Z-0.1000 S1000
G1 F123 X20.2858 Y21.0545 Z-0.1000 S1000
G1 F123 X20.6022 Y20.9067 Z-0.1000 S1000
G1 F123 X20.8882 Y20.7062 Z-0.1000 S1000
G1 F123 X21.1351 Y20.4592 Z-0.1000 S1000
G1 F123 X21.3356 Y20.1732 Z-0.1000 S1000
G1 F123 X21.4833 Y19.8568 Z-0.1000 S1000
G1 F123 X21.5735 Y19.5194 Z-0.1000 S1000
G1 F123 X21.6036 Y19.1714 Z-0.1000 S1000
G1 F123 X21.6036 Y12.1605 Z-0.1000 S1000
G1 F123 X21.6036 Y12.1605 Z-0.1000 S1000
;---
G1 F123 X21.5735 Y11.8125 Z-0.1000 S1000
G1 F123 X21.4833 Y11.4752 Z-0.1000 S1000
G1 F123 X21.3355 Y11.1588 Z-0.1000 S1000
G1 F123 X21.1350 Y10.8729 Z-0.1000 S1000
G1 F123 X20.8881 Y10.6259 Z-0.1000 S1000
G1 F123 X20.6022 Y10.4254 Z-0.1000 S1000
G1 F123 X20.2858 Y10.2776 Z-0.1000 S1000
G1 F123 X19.9484 Y10.1875 Z-0.1000 S1000
G1 F123 X19.6005 Y10.1574 Z-0.1000 S1000
G1 F123 X12.5892 Y10.1574 Z-0.1000 S1000
G1 F123 X12.2412 Y10.1875 Z-0.1000 S1000
G1 F123 X11.9039 Y10.2776 Z-0.1000 S1000
G1 F123 X11.5875 Y10.4254 Z-0.1000 S1000
G1 F123 X11.3016 Y10.6259 Z-0.1000 S1000
G1 F123 X11.0547 Y10.8729 Z-0.1000 S1000
G1 F123 X10.8541 Y11.1588 Z-0.1000 S1000
G1 F123 X10.7064 Y11.4752 Z-0.1000 S1000
G1 F123 X10.6162 Y11.8125 Z-0.1000 S1000
G1 F123 X10.5861 Y12.1605 Z-0.1000 S1000
G1 F123 X10.5861 Y19.1714 Z-0.1000 S1000
G1 F123 X10.6162 Y19.5194 Z-0.1000 S1000
G1 F123 X10.7063 Y19.8568 Z-0.1000 S1000
G1 F123 X10.8541 Y20.1732 Z-0.1000 S1000
G1 F123 X11.0546 Y20.4592 Z-0.1000 S1000
G1 F123 X11.3015 Y20.7062 Z-0.1000 S1000
G1 F123 X11.5874 Y20.9067 Z-0.1000 S1000
G1 F123 X11.9038 Y21.0545 Z-0.1000 S1000
G1 F123 X12.2412 Y21.1447 Z-0.1000 S1000
G1 F123 X12.5892 Y21.1748 Z-0.1000 S1000
G1 F123 X19.6005 Y21.1748 Z-0.1000 S1000
G1 F123 X19.9484 Y21.1447 Z-0.1000 S1000
G1 F123 X20.2858 Y21.0545 Z-0.1000 S1000
G1 F123 X20.6022 Y20.9067 Z-0.1000 S1000
G1 F123 X20.8882 Y20.7062 Z-0.1000 S1000
G1 F123 X21.1351 Y20.4592 Z-0.1000 S1000
G1 F123 X21.3356 Y20.1732 Z-0.1000 S1000
G1 F123 X21.4833 Y19.8568 Z-0.1000 S1000
G1 F123 X21.5735 Y19.5194 Z-0.1000 S1000
G1 F123 X21.6036 Y19.1714 Z-0.1000 S1000
G1 F123 X21.6036 Y12.1605 Z-0.1000 S1000
G1 F123 X21.6036 Y12.1605 Z-0.1000 S1000
;---
G1 F123 X21.5735 Y11.8125 Z-0.1000 S1000
G1 F123 X21.4833 Y11.4752 Z-0.1000 S1000
G1 F123 X21.3355 Y11.1588 Z-0.1000 S1000
G1 F123 X21.1350 Y10.8729 Z-0.1000 S1000
G1 F123 X20.8881 Y10.6259 Z-0.1000 S1000
G1 F123 X20.6022 Y10.4254 Z-0.1000 S1000
G1 F123 X20.2858 Y10.2776 Z-0.1000 S1000
G1 F123 X19.9484 Y10.1875 Z-0.1000 S1000
G1 F123 X19.6005 Y10.1574 Z-0.1000 S1000
G1 F123 X12.5892 Y10.1574 Z-0.1000 S1000
G1 F123 X12.2412 Y10.1875 Z-0.1000 S1000
G1 F123 X11.9039 Y10.2776 Z-0.1000 S1000
G1 F123 X11.5875 Y10.4254 Z-0.1000 S1000
G1 F123 X11.3016 Y10.6259 Z-0.1000 S1000
G1 F123 X11.0547 Y10.8729 Z-0.1000 S1000
G1 F123 X10.8541 Y11.1588 Z-0.1000 S1000
G1 F123 X10.7064 Y11.4752 Z-0.1000 S1000
G1 F123 X10.6162 Y11.8125 Z-0.1000 S1000
G1 F123 X10.5861 Y12.1605 Z-0.1000 S1000
G1 F123 X10.5861 Y19.1714 Z-0.1000 S1000
G1 F123 X10.6162 Y19.5194 Z-0.1000 S1000
G1 F123 X10.7063 Y19.8568 Z-0.1000 S1000
G1 F123 X10.8541 Y20.1732 Z-0.1000 S1000
G1 F123 X11.0546 Y20.4592 Z-0.1000 S1000
G1 F123 X11.3015 Y20.7062 Z-0.1000 S1000
G1 F123 X11.5874 Y20.9067 Z-0.1000 S1000
G1 F123 X11.9038 Y21.0545 Z-0.1000 S1000
G1 F123 X12.2412 Y21.1447 Z-0.1000 S1000
G1 F123 X12.5892 Y21.1748 Z-0.1000 S1000
G1 F123 X19.6005 Y21.1748 Z-0.1000 S1000
G1 F123 X19.9484 Y21.1447 Z-0.1000 S1000
G1 F123 X20.2858 Y21.0545 Z-0.1000 S1000
G1 F123 X20.6022 Y20.9067 Z-0.1000 S1000
G1 F123 X20.8882 Y20.7062 Z-0.1000 S1000
G1 F123 X21.1351 Y20.4592 Z-0.1000 S1000
G1 F123 X21.3356 Y20.1732 Z-0.1000 S1000
G1 F123 X21.4833 Y19.8568 Z-0.1000 S1000
G1 F123 X21.5735 Y19.5194 Z-0.1000 S1000
G1 F123 X21.6036 Y19.1714 Z-0.1000 S1000
G1 F123 X21.6036 Y12.1605 Z-0.1000 S1000
G1 F123 X21.6036 Y12.1605 Z-0.1000 S1000
;---

G0 Z10; move to z-safe height
G0 X66.6752 Y12.1605

G0 Z0
G1 F300 Z-0.1000
G1 F123 X66.6450 Y11.8125 Z-0.1000 S1000
G1 F123 X66.5549 Y11.4752 Z-0.1000 S1000
G1 F123 X66.4071 Y11.1588 Z-0.1000 S1000
G1 F123 X66.2066 Y10.8729 Z-0.1000 S1000
G1 F123 X65.9597 Y10.6259 Z-0.1000 S1000
G1 F123 X65.6738 Y10.4254 Z-0.1000 S1000
G1 F123 X65.3574 Y10.2776 Z-0.1000 S1000
G1 F123 X65.0200 Y10.1875 Z-0.1000 S1000
G1 F123 X64.6721 Y10.1574 Z-0.1000 S1000
G1 F123 X57.6608 Y10.1574 Z-0.1000 S1000
G1 F123 X57.3128 Y10.1875 Z-0.1000 S1000
G1 F123 X56.9755 Y10.2776 Z-0.1000 S1000
G1 F123 X56.6591 Y10.4254 Z-0.1000 S1000
G1 F123 X56.3732 Y10.6259 Z-0.1000 S1000
G1 F123 X56.1263 Y10.8729 Z-0.1000 S1000
G1 F123 X55.9257 Y11.1588 Z-0.1000 S1000
G1 F123 X55.7780 Y11.4752 Z-0.1000 S1000
G1 F123 X55.6878 Y11.8125 Z-0.1000 S1000
G1 F123 X55.6577 Y12.1605 Z-0.1000 S1000
G1 F123 X55.6577 Y19.1714 Z-0.1000 S1000
G1 F123 X55.6878 Y19.5194 Z-0.1000 S1000
G1 F123 X55.7779 Y19.8568 Z-0.1000 S1000
G1 F123 X55.9257 Y20.1732 Z-0.1000 S1000
G1 F123 X56.1262 Y20.4592 Z-0.1000 S1000
G1 F123 X56.3731 Y20.7062 Z-0.1000 S1000
G1 F123 X56.6590 Y20.9067 Z-0.1000 S1000
G1 F123 X56.9754 Y21.0545 Z-0.1000 S1000
G1 F123 X57.3128 Y21.1447 Z-0.1000 S1000
G1 F123 X57.6608 Y21.1748 Z-0.1000 S1000
G1 F123 X64.6721 Y21.1748 Z-0.1000 S1000
G1 F123 X65.0200 Y21.1447 Z-0.1000 S1000
G1 F123 X65.3574 Y21.0545 Z-0.1000 S1000
G1 F123 X65.6738 Y20.9067 Z-0.1000 S1000
G1 F123 X65.9598 Y20.7062 Z-0.1000 S1000
G1 F123 X66.2067 Y20.4592 Z-0.1000 S1000
G1 F123 X66.4072 Y20.1732 Z-0.1000 S1000
G1 F123 X66.5549 Y19.8568 Z-0.1000 S1000
G1 F123 X66.6451 Y19.5194 Z-0.1000 S1000
G1 F123 X66.6752 Y19.1714 Z-0.1000 S1000
G1 F123 X66.6752 Y12.1605 Z-0.1000 S1000
G1 F123 X66.6752 Y12.1605 Z-0.1000 S1000
;---
G1 F123 X66.6450 Y11.8125 Z-0.1000 S1000
G1 F123 X66.5549 Y11.4752 Z-0.1000 S1000
G1 F123 X66.4071 Y11.1588 Z-0.1000 S1000
G1 F123 X66.2066 Y10.8729 Z-0.1000 S1000
G1 F123 X65.9597 Y10.6259 Z-0.1000 S1000
G1 F123 X65.6738 Y10.4254 Z-0.1000 S1000
G1 F123 X65.3574 Y10.2776 Z-0.1000 S1000
G1 F123 X65.0200 Y10.1875 Z-0.1000 S1000
G1 F123 X64.6721 Y10.1574 Z-0.1000 S1000
G1 F123 X57.6608 Y10.1574 Z-0.1000 S1000
G1 F123 X57.3128 Y10.1875 Z-0.1000 S1000
G1 F123 X56.9755 Y10.2776 Z-0.1000 S1000
G1 F123 X56.6591 Y10.4254 Z-0.1000 S1000
G1 F123 X56.3732 Y10.6259 Z-0.1000 S1000
G1 F123 X56.1263 Y10.8729 Z-0.1000 S1000
G1 F123 X55.9257 Y11.1588 Z-0.1000 S1000
G1 F123 X55.7780 Y11.4752 Z-0.1000 S1000
G1 F123 X55.6878 Y11.8125 Z-0.1000 S1000
G1 F123 X55.6577 Y12.1605 Z-0.1000 S1000
G1 F123 X55.6577 Y19.1714 Z-0.1000 S1000
G1 F123 X55.6878 Y19.5194 Z-0.1000 S1000
G1 F123 X55.7779 Y19.8568 Z-0.1000 S1000
G1 F123 X55.9257 Y20.1732 Z-0.1000 S1000
G1 F123 X56.1262 Y20.4592 Z-0.1000 S1000
G1 F123 X56.3731 Y20.7062 Z-0.1000 S1000
G1 F123 X56.6590 Y20.9067 Z-0.1000 S1000
G1 F123 X56.9754 Y21.0545 Z-0.1000 S1000
G1 F123 X57.3128 Y21.1447 Z-0.1000 S1000
G1 F123 X57.6608 Y21.1748 Z-0.1000 S1000
G1 F123 X64.6721 Y21.1748 Z-0.1000 S1000
G1 F123 X65.0200 Y21.1447 Z-0.1000 S1000
G1 F123 X65.3574 Y21.0545 Z-0.1000 S1000
G1 F123 X65.6738 Y20.9067 Z-0.1000 S1000
G1 F123 X65.9598 Y20.7062 Z-0.1000 S1000
G1 F123 X66.2067 Y20.4592 Z-0.1000 S1000
G1 F123 X66.4072 Y20.1732 Z-0.1000 S1000
G1 F123 X66.5549 Y19.8568 Z-0.1000 S1000
G1 F123 X66.6451 Y19.5194 Z-0.1000 S1000
G1 F123 X66.6752 Y19.1714 Z-0.1000 S1000
G1 F123 X66.6752 Y12.1605 Z-0.1000 S1000
G1 F123 X66.6752 Y12.1605 Z-0.1000 S1000
;---
G1 F123 X66.6450 Y11.8125 Z-0.1000 S1000
G1 F123 X66.5549 Y11.4752 Z-0.1000 S1000
G1 F123 X66.4071 Y11.1588 Z-0.1000 S1000
G1 F123 X66.2066 Y10.8729 Z-0.1000 S1000
G1 F123 X65.9597 Y10.6259 Z-0.1000 S1000
G1 F123 X65.6738 Y10.4254 Z-0.1000 S1000
G1 F123 X65.3574 Y10.2776 Z-0.1000 S1000
G1 F123 X65.0200 Y10.1875 Z-0.1000 S1000
G1 F123 X64.6721 Y10.1574 Z-0.1000 S1000
G1 F123 X57.6608 Y10.1574 Z-0.1000 S1000
G1 F123 X57.3128 Y10.1875 Z-0.1000 S1000
G1 F123 X56.9755 Y10.2776 Z-0.1000 S1000
G1 F123 X56.6591 Y10.4254 Z-0.1000 S1000
G1 F123 X56.3732 Y10.6259 Z-0.1000 S1000
G1 F123 X56.1263 Y10.8729 Z-0.1000 S1000
G1 F123 X55.9257 Y11.1588 Z-0.1000 S1000
G1 F123 X55.7780 Y11.4752 Z-0.1000 S1000
G1 F123 X55.6878 Y11.8125 Z-0.1000 S1000
G1 F123 X55.6577 Y12.1605 Z-0.1000 S1000
G1 F123 X55.6577 Y19.1714 Z-0.1000 S1000
G1 F123 X55.6878 Y19.5194 Z-0.1000 S1000
G1 F123 X55.7779 Y19.8568 Z-0.1000 S1000
G1 F123 X55.9257 Y20.1732 Z-0.1000 S1000
G1 F123 X56.1262 Y20.4592 Z-0.1000 S1000
G1 F123 X56.3731 Y20.7062 Z-0.1000 S1000
G1 F123 X56.6590 Y20.9067 Z-0.1000 S1000
G1 F123 X56.9754 Y21.0545 Z-0.1000 S1000
G1 F123 X57.3128 Y21.1447 Z-0.1000 S1000
G1 F123 X57.6608 Y21.1748 Z-0.1000 S1000
G1 F123 X64.6721 Y21.1748 Z-0.1000 S1000
G1 F123 X65.0200 Y21.1447 Z-0.1000 S1000
G1 F123 X65.3574 Y21.0545 Z-0.1000 S1000
G1 F123 X65.6738 Y20.9067 Z-0.1000 S1000
G1 F123 X65.9598 Y20.7062 Z-0.1000 S1000
G1 F123 X66.2067 Y20.4592 Z-0.1000 S1000
G1 F123 X66.4072 Y20.1732 Z-0.1000 S1000
G1 F123 X66.5549 Y19.8568 Z-0.1000 S1000
G1 F123 X66.6451 Y19.5194 Z-0.1000 S1000
G1 F123 X66.6752 Y19.1714 Z-0.1000 S1000
G1 F123 X66.6752 Y12.1605 Z-0.1000 S1000
G1 F123 X66.6752 Y12.1605 Z-0.1000 S1000
;---

G0 Z10; move to z-safe height
G0 X51.6514 Y12.1605

G0 Z0
G1 F300 Z-0.1000
G1 F123 X51.6213 Y11.8125 Z-0.1000 S1000
G1 F123 X51.5311 Y11.4752 Z-0.1000 S1000
G1 F123 X51.3833 Y11.1588 Z-0.1000 S1000
G1 F123 X51.1828 Y10.8729 Z-0.1000 S1000
G1 F123 X50.9359 Y10.6259 Z-0.1000 S1000
G1 F123 X50.6500 Y10.4254 Z-0.1000 S1000
G1 F123 X50.3336 Y10.2776 Z-0.1000 S1000
G1 F123 X49.9962 Y10.1875 Z-0.1000 S1000
G1 F123 X49.6483 Y10.1574 Z-0.1000 S1000
G1 F123 X42.6370 Y10.1574 Z-0.1000 S1000
G1 F123 X42.2891 Y10.1875 Z-0.1000 S1000
G1 F123 X41.9517 Y10.2776 Z-0.1000 S1000
G1 F123 X41.6353 Y10.4254 Z-0.1000 S1000
G1 F123 X41.3494 Y10.6259 Z-0.1000 S1000
G1 F123 X41.1025 Y10.8729 Z-0.1000 S1000
G1 F123 X40.9019 Y11.1588 Z-0.1000 S1000
G1 F123 X40.7542 Y11.4752 Z-0.1000 S1000
G1 F123 X40.6640 Y11.8125 Z-0.1000 S1000
G1 F123 X40.6339 Y12.1605 Z-0.1000 S1000
G1 F123 X40.6339 Y19.1714 Z-0.1000 S1000
G1 F123 X40.6640 Y19.5194 Z-0.1000 S1000
G1 F123 X40.7541 Y19.8568 Z-0.1000 S1000
G1 F123 X40.9019 Y20.1732 Z-0.1000 S1000
G1 F123 X41.1024 Y20.4592 Z-0.1000 S1000
G1 F123 X41.3493 Y20.7062 Z-0.1000 S1000
G1 F123 X41.6352 Y20.9067 Z-0.1000 S1000
G1 F123 X41.9516 Y21.0545 Z-0.1000 S1000
G1 F123 X42.2890 Y21.1447 Z-0.1000 S1000
G1 F123 X42.6370 Y21.1748 Z-0.1000 S1000
G1 F123 X49.6483 Y21.1748 Z-0.1000 S1000
G1 F123 X49.9962 Y21.1447 Z-0.1000 S1000
G1 F123 X50.3336 Y21.0545 Z-0.1000 S1000
G1 F123 X50.6500 Y20.9067 Z-0.1000 S1000
G1 F123 X50.9360 Y20.7062 Z-0.1000 S1000
G1 F123 X51.1829 Y20.4592 Z-0.1000 S1000
G1 F123 X51.3834 Y20.1732 Z-0.1000 S1000
G1 F123 X51.5311 Y19.8568 Z-0.1000 S1000
G1 F123 X51.6213 Y19.5194 Z-0.1000 S1000
G1 F123 X51.6514 Y19.1714 Z-0.1000 S1000
G1 F123 X51.6514 Y12.1605 Z-0.1000 S1000
G1 F123 X51.6514 Y12.1605 Z-0.1000 S1000
;---
G1 F123 X51.6213 Y11.8125 Z-0.1000 S1000
G1 F123 X51.5311 Y11.4752 Z-0.1000 S1000
G1 F123 X51.3833 Y11.1588 Z-0.1000 S1000
G1 F123 X51.1828 Y10.8729 Z-0.1000 S1000
G1 F123 X50.9359 Y10.6259 Z-0.1000 S1000
G1 F123 X50.6500 Y10.4254 Z-0.1000 S1000
G1 F123 X50.3336 Y10.2776 Z-0.1000 S1000
G1 F123 X49.9962 Y10.1875 Z-0.1000 S1000
G1 F123 X49.6483 Y10.1574 Z-0.1000 S1000
G1 F123 X42.6370 Y10.1574 Z-0.1000 S1000
G1 F123 X42.2891 Y10.1875 Z-0.1000 S1000
G1 F123 X41.9517 Y10.2776 Z-0.1000 S1000
G1 F123 X41.6353 Y10.4254 Z-0.1000 S1000
G1 F123 X41.3494 Y10.6259 Z-0.1000 S1000
G1 F123 X41.1025 Y10.8729 Z-0.1000 S1000
G1 F123 X40.9019 Y11.1588 Z-0.1000 S1000
G1 F123 X40.7542 Y11.4752 Z-0.1000 S1000
G1 F123 X40.6640 Y11.8125 Z-0.1000 S1000
G1 F123 X40.6339 Y12.1605 Z-0.1000 S1000
G1 F123 X40.6339 Y19.1714 Z-0.1000 S1000
G1 F123 X40.6640 Y19.5194 Z-0.1000 S1000
G1 F123 X40.7541 Y19.8568 Z-0.1000 S1000
G1 F123 X40.9019 Y20.1732 Z-0.1000 S1000
G1 F123 X41.1024 Y20.4592 Z-0.1000 S1000
G1 F123 X41.3493 Y20.7062 Z-0.1000 S1000
G1 F123 X41.6352 Y20.9067 Z-0.1000 S1000
G1 F123 X41.9516 Y21.0545 Z-0.1000 S1000
G1 F123 X42.2890 Y21.1447 Z-0.1000 S1000
G1 F123 X42.6370 Y21.1748 Z-0.1000 S1000
G1 F123 X49.6483 Y21.1748 Z-0.1000 S1000
G1 F123 X49.9962 Y21.1447 Z-0.1000 S1000
G1 F123 X50.3336 Y21.0545 Z-0.1000 S1000
G1 F123 X50.6500 Y20.9067 Z-0.1000 S1000
G1 F123 X50.9360 Y20.7062 Z-0.1000 S1000
G1 F123 X51.1829 Y20.4592 Z-0.1000 S1000
G1 F123 X51.3834 Y20.1732 Z-0.1000 S1000
G1 F123 X51.5311 Y19.8568 Z-0.1000 S1000
G1 F123 X51.6213 Y19.5194 Z-0.1000 S1000
G1 F123 X51.6514 Y19.1714 Z-0.1000 S1000
G1 F123 X51.6514 Y12.1605 Z-0.1000 S1000
G1 F123 X51.6514 Y12.1605 Z-0.1000 S1000
;---
G1 F123 X51.6213 Y11.8125 Z-0.1000 S1000
G1 F123 X51.5311 Y11.4752 Z-0.1000 S1000
G1 F123 X51.3833 Y11.1588 Z-0.1000 S1000
G1 F123 X51.1828 Y10.8729 Z-0.1000 S1000
G1 F123 X50.9359 Y10.6259 Z-0.1000 S1000
G1 F123 X50.6500 Y10.4254 Z-0.1000 S1000
G1 F123 X50.3336 Y10.2776 Z-0.1000 S1000
G1 F123 X49.9962 Y10.1875 Z-0.1000 S1000
G1 F123 X49.6483 Y10.1574 Z-0.1000 S1000
G1 F123 X42.6370 Y10.1574 Z-0.1000 S1000
G1 F123 X42.2891 Y10.1875 Z-0.1000 S1000
G1 F123 X41.9517 Y10.2776 Z-0.1000 S1000
G1 F123 X41.6353 Y10.4254 Z-0.1000 S1000
G1 F123 X41.3494 Y10.6259 Z-0.1000 S1000
G1 F123 X41.1025 Y10.8729 Z-0.1000 S1000
G1 F123 X40.9019 Y11.1588 Z-0.1000 S1000
G1 F123 X40.7542 Y11.4752 Z-0.1000 S1000
G1 F123 X40.6640 Y11.8125 Z-0.1000 S1000
G1 F123 X40.6339 Y12.1605 Z-0.1000 S1000
G1 F123 X40.6339 Y19.1714 Z-0.1000 S1000
G1 F123 X40.6640 Y19.5194 Z-0.1000 S1000
G1 F123 X40.7541 Y19.8568 Z-0.1000 S1000
G1 F123 X40.9019 Y20.1732 Z-0.1000 S1000
G1 F123 X41.1024 Y20.4592 Z-0.1000 S1000
G1 F123 X41.3493 Y20.7062 Z-0.1000 S1000
G1 F123 X41.6352 Y20.9067 Z-0.1000 S1000
G1 F123 X41.9516 Y21.0545 Z-0.1000 S1000
G1 F123 X42.2890 Y21.1447 Z-0.1000 S1000
G1 F123 X42.6370 Y21.1748 Z-0.1000 S1000
G1 F123 X49.6483 Y21.1748 Z-0.1000 S1000
G1 F123 X49.9962 Y21.1447 Z-0.1000 S1000
G1 F123 X50.3336 Y21.0545 Z-0.1000 S1000
G1 F123 X50.6500 Y20.9067 Z-0.1000 S1000
G1 F123 X50.9360 Y20.7062 Z-0.1000 S1000
G1 F123 X51.1829 Y20.4592 Z-0.1000 S1000
G1 F123 X51.3834 Y20.1732 Z-0.1000 S1000
G1 F123 X51.5311 Y19.8568 Z-0.1000 S1000
G1 F123 X51.6213 Y19.5194 Z-0.1000 S1000
G1 F123 X51.6514 Y19.1714 Z-0.1000 S1000
G1 F123 X51.6514 Y12.1605 Z-0.1000 S1000
G1 F123 X51.6514 Y12.1605 Z-0.1000 S1000
;---

G0 Z10; move to z-safe height
G0 X81.6990 Y12.1605

G0 Z0
G1 F300 Z-0.1000
G1 F123 X81.6688 Y11.8125 Z-0.1000 S1000
G1 F123 X81.5787 Y11.4752 Z-0.1000 S1000
G1 F123 X81.4309 Y11.1588 Z-0.1000 S1000
G1 F123 X81.2304 Y10.8729 Z-0.1000 S1000
G1 F123 X80.9835 Y10.6259 Z-0.1000 S1000
G1 F123 X80.6976 Y10.4254 Z-0.1000 S1000
G1 F123 X80.3812 Y10.2776 Z-0.1000 S1000
G1 F123 X80.0438 Y10.1875 Z-0.1000 S1000
G1 F123 X79.6959 Y10.1574 Z-0.1000 S1000
G1 F123 X72.6846 Y10.1574 Z-0.1000 S1000
G1 F123 X72.3366 Y10.1875 Z-0.1000 S1000
G1 F123 X71.9993 Y10.2776 Z-0.1000 S1000
G1 F123 X71.6829 Y10.4254 Z-0.1000 S1000
G1 F123 X71.3970 Y10.6259 Z-0.1000 S1000
G1 F123 X71.1501 Y10.8729 Z-0.1000 S1000
G1 F123 X70.9495 Y11.1588 Z-0.1000 S1000
G1 F123 X70.8018 Y11.4752 Z-0.1000 S1000
G1 F123 X70.7116 Y11.8125 Z-0.1000 S1000
G1 F123 X70.6815 Y12.1605 Z-0.1000 S1000
G1 F123 X70.6815 Y19.1714 Z-0.1000 S1000
G1 F123 X70.7116 Y19.5194 Z-0.1000 S1000
G1 F123 X70.8017 Y19.8568 Z-0.1000 S1000
G1 F123 X70.9495 Y20.1732 Z-0.1000 S1000
G1 F123 X71.1500 Y20.4592 Z-0.1000 S1000
G1 F123 X71.3969 Y20.7062 Z-0.1000 S1000
G1 F123 X71.6828 Y20.9067 Z-0.1000 S1000
G1 F123 X71.9992 Y21.0545 Z-0.1000 S1000
G1 F123 X72.3366 Y21.1447 Z-0.1000 S1000
G1 F123 X72.6846 Y21.1748 Z-0.1000 S1000
G1 F123 X79.6959 Y21.1748 Z-0.1000 S1000
G1 F123 X80.0438 Y21.1447 Z-0.1000 S1000
G1 F123 X80.3812 Y21.0545 Z-0.1000 S1000
G1 F123 X80.6976 Y20.9067 Z-0.1000 S1000
G1 F123 X80.9835 Y20.7062 Z-0.1000 S1000
G1 F123 X81.2305 Y20.4592 Z-0.1000 S1000
G1 F123 X81.4310 Y20.1732 Z-0.1000 S1000
G1 F123 X81.5787 Y19.8568 Z-0.1000 S1000
G1 F123 X81.6689 Y19.5194 Z-0.1000 S1000
G1 F123 X81.6990 Y19.1714 Z-0.1000 S1000
G1 F123 X81.6990 Y12.1605 Z-0.1000 S1000
G1 F123 X81.6990 Y12.1605 Z-0.1000 S1000
;---
G1 F123 X81.6688 Y11.8125 Z-0.1000 S1000
G1 F123 X81.5787 Y11.4752 Z-0.1000 S1000
G1 F123 X81.4309 Y11.1588 Z-0.1000 S1000
G1 F123 X81.2304 Y10.8729 Z-0.1000 S1000
G1 F123 X80.9835 Y10.6259 Z-0.1000 S1000
G1 F123 X80.6976 Y10.4254 Z-0.1000 S1000
G1 F123 X80.3812 Y10.2776 Z-0.1000 S1000
G1 F123 X80.0438 Y10.1875 Z-0.1000 S1000
G1 F123 X79.6959 Y10.1574 Z-0.1000 S1000
G1 F123 X72.6846 Y10.1574 Z-0.1000 S1000
G1 F123 X72.3366 Y10.1875 Z-0.1000 S1000
G1 F123 X71.9993 Y10.2776 Z-0.1000 S1000
G1 F123 X71.6829 Y10.4254 Z-0.1000 S1000
G1 F123 X71.3970 Y10.6259 Z-0.1000 S1000
G1 F123 X71.1501 Y10.8729 Z-0.1000 S1000
G1 F123 X70.9495 Y11.1588 Z-0.1000 S1000
G1 F123 X70.8018 Y11.4752 Z-0.1000 S1000
G1 F123 X70.7116 Y11.8125 Z-0.1000 S1000
G1 F123 X70.6815 Y12.1605 Z-0.1000 S1000
G1 F123 X70.6815 Y19.1714 Z-0.1000 S1000
G1 F123 X70.7116 Y19.5194 Z-0.1000 S1000
G1 F123 X70.8017 Y19.8568 Z-0.1000 S1000
G1 F123 X70.9495 Y20.1732 Z-0.1000 S1000
G1 F123 X71.1500 Y20.4592 Z-0.1000 S1000
G1 F123 X71.3969 Y20.7062 Z-0.1000 S1000
G1 F123 X71.6828 Y20.9067 Z-0.1000 S1000
G1 F123 X71.9992 Y21.0545 Z-0.1000 S1000
G1 F123 X72.3366 Y21.1447 Z-0.1000 S1000
G1 F123 X72.6846 Y21.1748 Z-0.1000 S1000
G1 F123 X79.6959 Y21.1748 Z-0.1000 S1000
G1 F123 X80.0438 Y21.1447 Z-0.1000 S1000
G1 F123 X80.3812 Y21.0545 Z-0.1000 S1000
G1 F123 X80.6976 Y20.9067 Z-0.1000 S1000
G1 F123 X80.9835 Y20.7062 Z-0.1000 S1000
G1 F123 X81.2305 Y20.4592 Z-0.1000 S1000
G1 F123 X81.4310 Y20.1732 Z-0.1000 S1000
G1 F123 X81.5787 Y19.8568 Z-0.1000 S1000
G1 F123 X81.6689 Y19.5194 Z-0.1000 S1000
G1 F123 X81.6990 Y19.1714 Z-0.1000 S1000
G1 F123 X81.6990 Y12.1605 Z-0.1000 S1000
G1 F123 X81.6990 Y12.1605 Z-0.1000 S1000
;---
G1 F123 X81.6688 Y11.8125 Z-0.1000 S1000
G1 F123 X81.5787 Y11.4752 Z-0.1000 S1000
G1 F123 X81.4309 Y11.1588 Z-0.1000 S1000
G1 F123 X81.2304 Y10.8729 Z-0.1000 S1000
G1 F123 X80.9835 Y10.6259 Z-0.1000 S1000
G1 F123 X80.6976 Y10.4254 Z-0.1000 S1000
G1 F123 X80.3812 Y10.2776 Z-0.1000 S1000
G1 F123 X80.0438 Y10.1875 Z-0.1000 S1000
G1 F123 X79.6959 Y10.1574 Z-0.1000 S1000
G1 F123 X72.6846 Y10.1574 Z-0.1000 S1000
G1 F123 X72.3366 Y10.1875 Z-0.1000 S1000
G1 F123 X71.9993 Y10.2776 Z-0.1000 S1000
G1 F123 X71.6829 Y10.4254 Z-0.1000 S1000
G1 F123 X71.3970 Y10.6259 Z-0.1000 S1000
G1 F123 X71.1501 Y10.8729 Z-0.1000 S1000
G1 F123 X70.9495 Y11.1588 Z-0.1000 S1000
G1 F123 X70.8018 Y11.4752 Z-0.1000 S1000
G1 F123 X70.7116 Y11.8125 Z-0.1000 S1000
G1 F123 X70.6815 Y12.1605 Z-0.1000 S1000
G1 F123 X70.6815 Y19.1714 Z-0.1000 S1000
G1 F123 X70.7116 Y19.5194 Z-0.1000 S1000
G1 F123 X70.8017 Y19.8568 Z-0.1000 S1000
G1 F123 X70.9495 Y20.1732 Z-0.1000 S1000
G1 F123 X71.1500 Y20.4592 Z-0.1000 S1000
G1 F123 X71.3969 Y20.7062 Z-0.1000 S1000
G1 F123 X71.6828 Y20.9067 Z-0.1000 S1000
G1 F123 X71.9992 Y21.0545 Z-0.1000 S1000
G1 F123 X72.3366 Y21.1447 Z-0.1000 S1000
G1 F123 X72.6846 Y21.1748 Z-0.1000 S1000
G1 F123 X79.6959 Y21.1748 Z-0.1000 S1000
G1 F123 X80.0438 Y21.1447 Z-0.1000 S1000
G1 F123 X80.3812 Y21.0545 Z-0.1000 S1000
G1 F123 X80.6976 Y20.9067 Z-0.1000 S1000
G1 F123 X80.9835 Y20.7062 Z-0.1000 S1000
G1 F123 X81.2305 Y20.4592 Z-0.1000 S1000
G1 F123 X81.4310 Y20.1732 Z-0.1000 S1000
G1 F123 X81.5787 Y19.8568 Z-0.1000 S1000
G1 F123 X81.6689 Y19.5194 Z-0.1000 S1000
G1 F123 X81.6990 Y19.1714 Z-0.1000 S1000
G1 F123 X81.6990 Y12.1605 Z-0.1000 S1000
G1 F123 X81.6990 Y12.1605 Z-0.1000 S1000
;---

G0 Z10; move to z-safe height
G0 X66.6752 Y57.2321

G0 Z0
G1 F300 Z-0.1000
G1 F123 X66.6450 Y56.8841 Z-0.1000 S1000
G1 F123 X66.5549 Y56.5468 Z-0.1000 S1000
G1 F123 X66.4071 Y56.2304 Z-0.1000 S1000
G1 F123 X66.2066 Y55.9445 Z-0.1000 S1000
G1 F123 X65.9597 Y55.6976 Z-0.1000 S1000
G1 F123 X65.6738 Y55.4970 Z-0.1000 S1000
G1 F123 X65.3574 Y55.3493 Z-0.1000 S1000
G1 F123 X65.0200 Y55.2591 Z-0.1000 S1000
G1 F123 X64.6721 Y55.2290 Z-0.1000 S1000
G1 F123 X57.6608 Y55.2290 Z-0.1000 S1000
G1 F123 X57.3128 Y55.2591 Z-0.1000 S1000
G1 F123 X56.9755 Y55.3493 Z-0.1000 S1000
G1 F123 X56.6591 Y55.4970 Z-0.1000 S1000
G1 F123 X56.3732 Y55.6976 Z-0.1000 S1000
G1 F123 X56.1263 Y55.9445 Z-0.1000 S1000
G1 F123 X55.9257 Y56.2304 Z-0.1000 S1000
G1 F123 X55.7780 Y56.5468 Z-0.1000 S1000
G1 F123 X55.6878 Y56.8841 Z-0.1000 S1000
G1 F123 X55.6577 Y57.2321 Z-0.1000 S1000
G1 F123 X55.6577 Y64.2430 Z-0.1000 S1000
G1 F123 X55.6878 Y64.5910 Z-0.1000 S1000
G1 F123 X55.7779 Y64.9284 Z-0.1000 S1000
G1 F123 X55.9257 Y65.2448 Z-0.1000 S1000
G1 F123 X56.1262 Y65.5308 Z-0.1000 S1000
G1 F123 X56.3731 Y65.7778 Z-0.1000 S1000
G1 F123 X56.6590 Y65.9784 Z-0.1000 S1000
G1 F123 X56.9754 Y66.1261 Z-0.1000 S1000
G1 F123 X57.3128 Y66.2163 Z-0.1000 S1000
G1 F123 X57.6608 Y66.2465 Z-0.1000 S1000
G1 F123 X64.6721 Y66.2465 Z-0.1000 S1000
G1 F123 X65.0200 Y66.2163 Z-0.1000 S1000
G1 F123 X65.3574 Y66.1261 Z-0.1000 S1000
G1 F123 X65.6738 Y65.9784 Z-0.1000 S1000
G1 F123 X65.9598 Y65.7778 Z-0.1000 S1000
G1 F123 X66.2067 Y65.5308 Z-0.1000 S1000
G1 F123 X66.4072 Y65.2448 Z-0.1000 S1000
G1 F123 X66.5549 Y64.9284 Z-0.1000 S1000
G1 F123 X66.6451 Y64.5910 Z-0.1000 S1000
G1 F123 X66.6752 Y64.2430 Z-0.1000 S1000
G1 F123 X66.6752 Y57.2321 Z-0.1000 S1000
G1 F123 X66.6752 Y57.2321 Z-0.1000 S1000
;---
G1 F123 X66.6450 Y56.8841 Z-0.1000 S1000
G1 F123 X66.5549 Y56.5468 Z-0.1000 S1000
G1 F123 X66.4071 Y56.2304 Z-0.1000 S1000
G1 F123 X66.2066 Y55.9445 Z-0.1000 S1000
G1 F123 X65.9597 Y55.6976 Z-0.1000 S1000
G1 F123 X65.6738 Y55.4970 Z-0.1000 S1000
G1 F123 X65.3574 Y55.3493 Z-0.1000 S1000
G1 F123 X65.0200 Y55.2591 Z-0.1000 S1000
G1 F123 X64.6721 Y55.2290 Z-0.1000 S1000
G1 F123 X57.6608 Y55.2290 Z-0.1000 S1000
G1 F123 X57.3128 Y55.2591 Z-0.1000 S1000
G1 F123 X56.9755 Y55.3493 Z-0.1000 S1000
G1 F123 X56.6591 Y55.4970 Z-0.1000 S1000
G1 F123 X56.3732 Y55.6976 Z-0.1000 S1000
G1 F123 X56.1263 Y55.9445 Z-0.1000 S1000
G1 F123 X55.9257 Y56.2304 Z-0.1000 S1000
G1 F123 X55.7780 Y56.5468 Z-0.1000 S1000
G1 F123 X55.6878 Y56.8841 Z-0.1000 S1000
G1 F123 X55.6577 Y57.2321 Z-0.1000 S1000
G1 F123 X55.6577 Y64.2430 Z-0.1000 S1000
G1 F123 X55.6878 Y64.5910 Z-0.1000 S1000
G1 F123 X55.7779 Y64.9284 Z-0.1000 S1000
G1 F123 X55.9257 Y65.2448 Z-0.1000 S1000
G1 F123 X56.1262 Y65.5308 Z-0.1000 S1000
G1 F123 X56.3731 Y65.7778 Z-0.1000 S1000
G1 F123 X56.6590 Y65.9784 Z-0.1000 S1000
G1 F123 X56.9754 Y66.1261 Z-0.1000 S1000
G1 F123 X57.3128 Y66.2163 Z-0.1000 S1000
G1 F123 X57.6608 Y66.2465 Z-0.1000 S1000
G1 F123 X64.6721 Y66.2465 Z-0.1000 S1000
G1 F123 X65.0200 Y66.2163 Z-0.1000 S1000
G1 F123 X65.3574 Y66.1261 Z-0.1000 S1000
G1 F123 X65.6738 Y65.9784 Z-0.1000 S1000
G1 F123 X65.9598 Y65.7778 Z-0.1000 S1000
G1 F123 X66.2067 Y65.5308 Z-0.1000 S1000
G1 F123 X66.4072 Y65.2448 Z-0.1000 S1000
G1 F123 X66.5549 Y64.9284 Z-0.1000 S1000
G1 F123 X66.6451 Y64.5910 Z-0.1000 S1000
G1 F123 X66.6752 Y64.2430 Z-0.1000 S1000
G1 F123 X66.6752 Y57.2321 Z-0.1000 S1000
G1 F123 X66.6752 Y57.2321 Z-0.1000 S1000
;---
G1 F123 X66.6450 Y56.8841 Z-0.1000 S1000
G1 F123 X66.5549 Y56.5468 Z-0.1000 S1000
G1 F123 X66.4071 Y56.2304 Z-0.1000 S1000
G1 F123 X66.2066 Y55.9445 Z-0.1000 S1000
G1 F123 X65.9597 Y55.6976 Z-0.1000 S1000
G1 F123 X65.6738 Y55.4970 Z-0.1000 S1000
G1 F123 X65.3574 Y55.3493 Z-0.1000 S1000
G1 F123 X65.0200 Y55.2591 Z-0.1000 S1000
G1 F123 X64.6721 Y55.2290 Z-0.1000 S1000
G1 F123 X57.6608 Y55.2290 Z-0.1000 S1000
G1 F123 X57.3128 Y55.2591 Z-0.1000 S1000
G1 F123 X56.9755 Y55.3493 Z-0.1000 S1000
G1 F123 X56.6591 Y55.4970 Z-0.1000 S1000
G1 F123 X56.3732 Y55.6976 Z-0.1000 S1000
G1 F123 X56.1263 Y55.9445 Z-0.1000 S1000
G1 F123 X55.9257 Y56.2304 Z-0.1000 S1000
G1 F123 X55.7780 Y56.5468 Z-0.1000 S1000
G1 F123 X55.6878 Y56.8841 Z-0.1000 S1000
G1 F123 X55.6577 Y57.2321 Z-0.1000 S1000
G1 F123 X55.6577 Y64.2430 Z-0.1000 S1000
G1 F123 X55.6878 Y64.5910 Z-0.1000 S1000
G1 F123 X55.7779 Y64.9284 Z-0.1000 S1000
G1 F123 X55.9257 Y65.2448 Z-0.1000 S1000
G1 F123 X56.1262 Y65.5308 Z-0.1000 S1000
G1 F123 X56.3731 Y65.7778 Z-0.1000 S1000
G1 F123 X56.6590 Y65.9784 Z-0.1000 S1000
G1 F123 X56.9754 Y66.1261 Z-0.1000 S1000
G1 F123 X57.3128 Y66.2163 Z-0.1000 S1000
G1 F123 X57.6608 Y66.2465 Z-0.1000 S1000
G1 F123 X64.6721 Y66.2465 Z-0.1000 S1000
G1 F123 X65.0200 Y66.2163 Z-0.1000 S1000
G1 F123 X65.3574 Y66.1261 Z-0.1000 S1000
G1 F123 X65.6738 Y65.9784 Z-0.1000 S1000
G1 F123 X65.9598 Y65.7778 Z-0.1000 S1000
G1 F123 X66.2067 Y65.5308 Z-0.1000 S1000
G1 F123 X66.4072 Y65.2448 Z-0.1000 S1000
G1 F123 X66.5549 Y64.9284 Z-0.1000 S1000
G1 F123 X66.6451 Y64.5910 Z-0.1000 S1000
G1 F123 X66.6752 Y64.2430 Z-0.1000 S1000
G1 F123 X66.6752 Y57.2321 Z-0.1000 S1000
G1 F123 X66.6752 Y57.2321 Z-0.1000 S1000
;---

G0 Z10; move to z-safe height
G0 X96.7227 Y12.1605

G0 Z0
G1 F300 Z-0.1000
G1 F123 X96.6926 Y11.8125 Z-0.1000 S1000
G1 F123 X96.6025 Y11.4752 Z-0.1000 S1000
G1 F123 X96.4547 Y11.1588 Z-0.1000 S1000
G1 F123 X96.2542 Y10.8729 Z-0.1000 S1000
G1 F123 X96.0072 Y10.6259 Z-0.1000 S1000
G1 F123 X95.7213 Y10.4254 Z-0.1000 S1000
G1 F123 X95.4049 Y10.2776 Z-0.1000 S1000
G1 F123 X95.0676 Y10.1875 Z-0.1000 S1000
G1 F123 X94.7197 Y10.1574 Z-0.1000 S1000
G1 F123 X87.7084 Y10.1574 Z-0.1000 S1000
G1 F123 X87.3604 Y10.1875 Z-0.1000 S1000
G1 F123 X87.0231 Y10.2776 Z-0.1000 S1000
G1 F123 X86.7067 Y10.4254 Z-0.1000 S1000
G1 F123 X86.4208 Y10.6259 Z-0.1000 S1000
G1 F123 X86.1739 Y10.8729 Z-0.1000 S1000
G1 F123 X85.9733 Y11.1588 Z-0.1000 S1000
G1 F123 X85.8256 Y11.4752 Z-0.1000 S1000
G1 F123 X85.7354 Y11.8125 Z-0.1000 S1000
G1 F123 X85.7053 Y12.1605 Z-0.1000 S1000
G1 F123 X85.7053 Y19.1714 Z-0.1000 S1000
G1 F123 X85.7354 Y19.5194 Z-0.1000 S1000
G1 F123 X85.8255 Y19.8568 Z-0.1000 S1000
G1 F123 X85.9733 Y20.1732 Z-0.1000 S1000
G1 F123 X86.1738 Y20.4592 Z-0.1000 S1000
G1 F123 X86.4207 Y20.7062 Z-0.1000 S1000
G1 F123 X86.7066 Y20.9067 Z-0.1000 S1000
G1 F123 X87.0230 Y21.0545 Z-0.1000 S1000
G1 F123 X87.3604 Y21.1447 Z-0.1000 S1000
G1 F123 X87.7084 Y21.1748 Z-0.1000 S1000
G1 F123 X94.7197 Y21.1748 Z-0.1000 S1000
G1 F123 X95.0676 Y21.1447 Z-0.1000 S1000
G1 F123 X95.4050 Y21.0545 Z-0.1000 S1000
G1 F123 X95.7214 Y20.9067 Z-0.1000 S1000
G1 F123 X96.0073 Y20.7062 Z-0.1000 S1000
G1 F123 X96.2543 Y20.4592 Z-0.1000 S1000
G1 F123 X96.4548 Y20.1732 Z-0.1000 S1000
G1 F123 X96.6025 Y19.8568 Z-0.1000 S1000
G1 F123 X96.6927 Y19.5194 Z-0.1000 S1000
G1 F123 X96.7227 Y19.1714 Z-0.1000 S1000
G1 F123 X96.7227 Y12.1605 Z-0.1000 S1000
G1 F123 X96.7227 Y12.1605 Z-0.1000 S1000
;---
G1 F123 X96.6926 Y11.8125 Z-0.1000 S1000
G1 F123 X96.6025 Y11.4752 Z-0.1000 S1000
G1 F123 X96.4547 Y11.1588 Z-0.1000 S1000
G1 F123 X96.2542 Y10.8729 Z-0.1000 S1000
G1 F123 X96.0072 Y10.6259 Z-0.1000 S1000
G1 F123 X95.7213 Y10.4254 Z-0.1000 S1000
G1 F123 X95.4049 Y10.2776 Z-0.1000 S1000
G1 F123 X95.0676 Y10.1875 Z-0.1000 S1000
G1 F123 X94.7197 Y10.1574 Z-0.1000 S1000
G1 F123 X87.7084 Y10.1574 Z-0.1000 S1000
G1 F123 X87.3604 Y10.1875 Z-0.1000 S1000
G1 F123 X87.0231 Y10.2776 Z-0.1000 S1000
G1 F123 X86.7067 Y10.4254 Z-0.1000 S1000
G1 F123 X86.4208 Y10.6259 Z-0.1000 S1000
G1 F123 X86.1739 Y10.8729 Z-0.1000 S1000
G1 F123 X85.9733 Y11.1588 Z-0.1000 S1000
G1 F123 X85.8256 Y11.4752 Z-0.1000 S1000
G1 F123 X85.7354 Y11.8125 Z-0.1000 S1000
G1 F123 X85.7053 Y12.1605 Z-0.1000 S1000
G1 F123 X85.7053 Y19.1714 Z-0.1000 S1000
G1 F123 X85.7354 Y19.5194 Z-0.1000 S1000
G1 F123 X85.8255 Y19.8568 Z-0.1000 S1000
G1 F123 X85.9733 Y20.1732 Z-0.1000 S1000
G1 F123 X86.1738 Y20.4592 Z-0.1000 S1000
G1 F123 X86.4207 Y20.7062 Z-0.1000 S1000
G1 F123 X86.7066 Y20.9067 Z-0.1000 S1000
G1 F123 X87.0230 Y21.0545 Z-0.1000 S1000
G1 F123 X87.3604 Y21.1447 Z-0.1000 S1000
G1 F123 X87.7084 Y21.1748 Z-0.1000 S1000
G1 F123 X94.7197 Y21.1748 Z-0.1000 S1000
G1 F123 X95.0676 Y21.1447 Z-0.1000 S1000
G1 F123 X95.4050 Y21.0545 Z-0.1000 S1000
G1 F123 X95.7214 Y20.9067 Z-0.1000 S1000
G1 F123 X96.0073 Y20.7062 Z-0.1000 S1000
G1 F123 X96.2543 Y20.4592 Z-0.1000 S1000
G1 F123 X96.4548 Y20.1732 Z-0.1000 S1000
G1 F123 X96.6025 Y19.8568 Z-0.1000 S1000
G1 F123 X96.6927 Y19.5194 Z-0.1000 S1000
G1 F123 X96.7227 Y19.1714 Z-0.1000 S1000
G1 F123 X96.7227 Y12.1605 Z-0.1000 S1000
G1 F123 X96.7227 Y12.1605 Z-0.1000 S1000
;---
G1 F123 X96.6926 Y11.8125 Z-0.1000 S1000
G1 F123 X96.6025 Y11.4752 Z-0.1000 S1000
G1 F123 X96.4547 Y11.1588 Z-0.1000 S1000
G1 F123 X96.2542 Y10.8729 Z-0.1000 S1000
G1 F123 X96.0072 Y10.6259 Z-0.1000 S1000
G1 F123 X95.7213 Y10.4254 Z-0.1000 S1000
G1 F123 X95.4049 Y10.2776 Z-0.1000 S1000
G1 F123 X95.0676 Y10.1875 Z-0.1000 S1000
G1 F123 X94.7197 Y10.1574 Z-0.1000 S1000
G1 F123 X87.7084 Y10.1574 Z-0.1000 S1000
G1 F123 X87.3604 Y10.1875 Z-0.1000 S1000
G1 F123 X87.0231 Y10.2776 Z-0.1000 S1000
G1 F123 X86.7067 Y10.4254 Z-0.1000 S1000
G1 F123 X86.4208 Y10.6259 Z-0.1000 S1000
G1 F123 X86.1739 Y10.8729 Z-0.1000 S1000
G1 F123 X85.9733 Y11.1588 Z-0.1000 S1000
G1 F123 X85.8256 Y11.4752 Z-0.1000 S1000
G1 F123 X85.7354 Y11.8125 Z-0.1000 S1000
G1 F123 X85.7053 Y12.1605 Z-0.1000 S1000
G1 F123 X85.7053 Y19.1714 Z-0.1000 S1000
G1 F123 X85.7354 Y19.5194 Z-0.1000 S1000
G1 F123 X85.8255 Y19.8568 Z-0.1000 S1000
G1 F123 X85.9733 Y20.1732 Z-0.1000 S1000
G1 F123 X86.1738 Y20.4592 Z-0.1000 S1000
G1 F123 X86.4207 Y20.7062 Z-0.1000 S1000
G1 F123 X86.7066 Y20.9067 Z-0.1000 S1000
G1 F123 X87.0230 Y21.0545 Z-0.1000 S1000
G1 F123 X87.3604 Y21.1447 Z-0.1000 S1000
G1 F123 X87.7084 Y21.1748 Z-0.1000 S1000
G1 F123 X94.7197 Y21.1748 Z-0.1000 S1000
G1 F123 X95.0676 Y21.1447 Z-0.1000 S1000
G1 F123 X95.4050 Y21.0545 Z-0.1000 S1000
G1 F123 X95.7214 Y20.9067 Z-0.1000 S1000
G1 F123 X96.0073 Y20.7062 Z-0.1000 S1000
G1 F123 X96.2543 Y20.4592 Z-0.1000 S1000
G1 F123 X96.4548 Y20.1732 Z-0.1000 S1000
G1 F123 X96.6025 Y19.8568 Z-0.1000 S1000
G1 F123 X96.6927 Y19.5194 Z-0.1000 S1000
G1 F123 X96.7227 Y19.1714 Z-0.1000 S1000
G1 F123 X96.7227 Y12.1605 Z-0.1000 S1000
G1 F123 X96.7227 Y12.1605 Z-0.1000 S1000
;---

G0 Z10; move to z-safe height
G0 X66.6752 Y42.2081

G0 Z0
G1 F300 Z-0.1000
G1 F123 X66.6450 Y41.8601 Z-0.1000 S1000
G1 F123 X66.5549 Y41.5228 Z-0.1000 S1000
G1 F123 X66.4071 Y41.2064 Z-0.1000 S1000
G1 F123 X66.2066 Y40.9205 Z-0.1000 S1000
G1 F123 X65.9597 Y40.6736 Z-0.1000 S1000
G1 F123 X65.6738 Y40.4730 Z-0.1000 S1000
G1 F123 X65.3574 Y40.3253 Z-0.1000 S1000
G1 F123 X65.0200 Y40.2351 Z-0.1000 S1000
G1 F123 X64.6721 Y40.2050 Z-0.1000 S1000
G1 F123 X57.6608 Y40.2050 Z-0.1000 S1000
G1 F123 X57.3128 Y40.2351 Z-0.1000 S1000
G1 F123 X56.9755 Y40.3253 Z-0.1000 S1000
G1 F123 X56.6591 Y40.4730 Z-0.1000 S1000
G1 F123 X56.3732 Y40.6736 Z-0.1000 S1000
G1 F123 X56.1263 Y40.9205 Z-0.1000 S1000
G1 F123 X55.9257 Y41.2064 Z-0.1000 S1000
G1 F123 X55.7780 Y41.5228 Z-0.1000 S1000
G1 F123 X55.6878 Y41.8601 Z-0.1000 S1000
G1 F123 X55.6577 Y42.2081 Z-0.1000 S1000
G1 F123 X55.6577 Y49.2194 Z-0.1000 S1000
G1 F123 X55.6878 Y49.5673 Z-0.1000 S1000
G1 F123 X55.7780 Y49.9047 Z-0.1000 S1000
G1 F123 X55.9257 Y50.2211 Z-0.1000 S1000
G1 F123 X56.1263 Y50.5070 Z-0.1000 S1000
G1 F123 X56.3732 Y50.7539 Z-0.1000 S1000
G1 F123 X56.6591 Y50.9544 Z-0.1000 S1000
G1 F123 X56.9755 Y51.1022 Z-0.1000 S1000
G1 F123 X57.3128 Y51.1924 Z-0.1000 S1000
G1 F123 X57.6608 Y51.2225 Z-0.1000 S1000
G1 F123 X64.6721 Y51.2225 Z-0.1000 S1000
G1 F123 X65.0200 Y51.1924 Z-0.1000 S1000
G1 F123 X65.3574 Y51.1022 Z-0.1000 S1000
G1 F123 X65.6738 Y50.9544 Z-0.1000 S1000
G1 F123 X65.9597 Y50.7539 Z-0.1000 S1000
G1 F123 X66.2066 Y50.5070 Z-0.1000 S1000
G1 F123 X66.4071 Y50.2211 Z-0.1000 S1000
G1 F123 X66.5549 Y49.9047 Z-0.1000 S1000
G1 F123 X66.6450 Y49.5673 Z-0.1000 S1000
G1 F123 X66.6752 Y49.2194 Z-0.1000 S1000
G1 F123 X66.6752 Y42.2081 Z-0.1000 S1000
G1 F123 X66.6752 Y42.2081 Z-0.1000 S1000
;---
G1 F123 X66.6450 Y41.8601 Z-0.1000 S1000
G1 F123 X66.5549 Y41.5228 Z-0.1000 S1000
G1 F123 X66.4071 Y41.2064 Z-0.1000 S1000
G1 F123 X66.2066 Y40.9205 Z-0.1000 S1000
G1 F123 X65.9597 Y40.6736 Z-0.1000 S1000
G1 F123 X65.6738 Y40.4730 Z-0.1000 S1000
G1 F123 X65.3574 Y40.3253 Z-0.1000 S1000
G1 F123 X65.0200 Y40.2351 Z-0.1000 S1000
G1 F123 X64.6721 Y40.2050 Z-0.1000 S1000
G1 F123 X57.6608 Y40.2050 Z-0.1000 S1000
G1 F123 X57.3128 Y40.2351 Z-0.1000 S1000
G1 F123 X56.9755 Y40.3253 Z-0.1000 S1000
G1 F123 X56.6591 Y40.4730 Z-0.1000 S1000
G1 F123 X56.3732 Y40.6736 Z-0.1000 S1000
G1 F123 X56.1263 Y40.9205 Z-0.1000 S1000
G1 F123 X55.9257 Y41.2064 Z-0.1000 S1000
G1 F123 X55.7780 Y41.5228 Z-0.1000 S1000
G1 F123 X55.6878 Y41.8601 Z-0.1000 S1000
G1 F123 X55.6577 Y42.2081 Z-0.1000 S1000
G1 F123 X55.6577 Y49.2194 Z-0.1000 S1000
G1 F123 X55.6878 Y49.5673 Z-0.1000 S1000
G1 F123 X55.7780 Y49.9047 Z-0.1000 S1000
G1 F123 X55.9257 Y50.2211 Z-0.1000 S1000
G1 F123 X56.1263 Y50.5070 Z-0.1000 S1000
G1 F123 X56.3732 Y50.7539 Z-0.1000 S1000
G1 F123 X56.6591 Y50.9544 Z-0.1000 S1000
G1 F123 X56.9755 Y51.1022 Z-0.1000 S1000
G1 F123 X57.3128 Y51.1924 Z-0.1000 S1000
G1 F123 X57.6608 Y51.2225 Z-0.1000 S1000
G1 F123 X64.6721 Y51.2225 Z-0.1000 S1000
G1 F123 X65.0200 Y51.1924 Z-0.1000 S1000
G1 F123 X65.3574 Y51.1022 Z-0.1000 S1000
G1 F123 X65.6738 Y50.9544 Z-0.1000 S1000
G1 F123 X65.9597 Y50.7539 Z-0.1000 S1000
G1 F123 X66.2066 Y50.5070 Z-0.1000 S1000
G1 F123 X66.4071 Y50.2211 Z-0.1000 S1000
G1 F123 X66.5549 Y49.9047 Z-0.1000 S1000
G1 F123 X66.6450 Y49.5673 Z-0.1000 S1000
G1 F123 X66.6752 Y49.2194 Z-0.1000 S1000
G1 F123 X66.6752 Y42.2081 Z-0.1000 S1000
G1 F123 X66.6752 Y42.2081 Z-0.1000 S1000
;---
G1 F123 X66.6450 Y41.8601 Z-0.1000 S1000
G1 F123 X66.5549 Y41.5228 Z-0.1000 S1000
G1 F123 X66.4071 Y41.2064 Z-0.1000 S1000
G1 F123 X66.2066 Y40.9205 Z-0.1000 S1000
G1 F123 X65.9597 Y40.6736 Z-0.1000 S1000
G1 F123 X65.6738 Y40.4730 Z-0.1000 S1000
G1 F123 X65.3574 Y40.3253 Z-0.1000 S1000
G1 F123 X65.0200 Y40.2351 Z-0.1000 S1000
G1 F123 X64.6721 Y40.2050 Z-0.1000 S1000
G1 F123 X57.6608 Y40.2050 Z-0.1000 S1000
G1 F123 X57.3128 Y40.2351 Z-0.1000 S1000
G1 F123 X56.9755 Y40.3253 Z-0.1000 S1000
G1 F123 X56.6591 Y40.4730 Z-0.1000 S1000
G1 F123 X56.3732 Y40.6736 Z-0.1000 S1000
G1 F123 X56.1263 Y40.9205 Z-0.1000 S1000
G1 F123 X55.9257 Y41.2064 Z-0.1000 S1000
G1 F123 X55.7780 Y41.5228 Z-0.1000 S1000
G1 F123 X55.6878 Y41.8601 Z-0.1000 S1000
G1 F123 X55.6577 Y42.2081 Z-0.1000 S1000
G1 F123 X55.6577 Y49.2194 Z-0.1000 S1000
G1 F123 X55.6878 Y49.5673 Z-0.1000 S1000
G1 F123 X55.7780 Y49.9047 Z-0.1000 S1000
G1 F123 X55.9257 Y50.2211 Z-0.1000 S1000
G1 F123 X56.1263 Y50.5070 Z-0.1000 S1000
G1 F123 X56.3732 Y50.7539 Z-0.1000 S1000
G1 F123 X56.6591 Y50.9544 Z-0.1000 S1000
G1 F123 X56.9755 Y51.1022 Z-0.1000 S1000
G1 F123 X57.3128 Y51.1924 Z-0.1000 S1000
G1 F123 X57.6608 Y51.2225 Z-0.1000 S1000
G1 F123 X64.6721 Y51.2225 Z-0.1000 S1000
G1 F123 X65.0200 Y51.1924 Z-0.1000 S1000
G1 F123 X65.3574 Y51.1022 Z-0.1000 S1000
G1 F123 X65.6738 Y50.9544 Z-0.1000 S1000
G1 F123 X65.9597 Y50.7539 Z-0.1000 S1000
G1 F123 X66.2066 Y50.5070 Z-0.1000 S1000
G1 F123 X66.4071 Y50.2211 Z-0.1000 S1000
G1 F123 X66.5549 Y49.9047 Z-0.1000 S1000
G1 F123 X66.6450 Y49.5673 Z-0.1000 S1000
G1 F123 X66.6752 Y49.2194 Z-0.1000 S1000
G1 F123 X66.6752 Y42.2081 Z-0.1000 S1000
G1 F123 X66.6752 Y42.2081 Z-0.1000 S1000
;---

G0 Z10; move to z-safe height
G0 X51.6514 Y42.2081

G0 Z0
G1 F300 Z-0.1000
G1 F123 X51.6213 Y41.8601 Z-0.1000 S1000
G1 F123 X51.5311 Y41.5228 Z-0.1000 S1000
G1 F123 X51.3833 Y41.2064 Z-0.1000 S1000
G1 F123 X51.1828 Y40.9205 Z-0.1000 S1000
G1 F123 X50.9359 Y40.6736 Z-0.1000 S1000
G1 F123 X50.6500 Y40.4730 Z-0.1000 S1000
G1 F123 X50.3336 Y40.3253 Z-0.1000 S1000
G1 F123 X49.9962 Y40.2351 Z-0.1000 S1000
G1 F123 X49.6483 Y40.2050 Z-0.1000 S1000
G1 F123 X42.6370 Y40.2050 Z-0.1000 S1000
G1 F123 X42.2891 Y40.2351 Z-0.1000 S1000
G1 F123 X41.9517 Y40.3253 Z-0.1000 S1000
G1 F123 X41.6353 Y40.4730 Z-0.1000 S1000
G1 F123 X41.3494 Y40.6736 Z-0.1000 S1000
G1 F123 X41.1025 Y40.9205 Z-0.1000 S1000
G1 F123 X40.9019 Y41.2064 Z-0.1000 S1000
G1 F123 X40.7542 Y41.5228 Z-0.1000 S1000
G1 F123 X40.6640 Y41.8601 Z-0.1000 S1000
G1 F123 X40.6339 Y42.2081 Z-0.1000 S1000
G1 F123 X40.6339 Y49.2194 Z-0.1000 S1000
G1 F123 X40.6640 Y49.5673 Z-0.1000 S1000
G1 F123 X40.7542 Y49.9047 Z-0.1000 S1000
G1 F123 X40.9019 Y50.2211 Z-0.1000 S1000
G1 F123 X41.1025 Y50.5070 Z-0.1000 S1000
G1 F123 X41.3494 Y50.7539 Z-0.1000 S1000
G1 F123 X41.6353 Y50.9544 Z-0.1000 S1000
G1 F123 X41.9517 Y51.1022 Z-0.1000 S1000
G1 F123 X42.2891 Y51.1924 Z-0.1000 S1000
G1 F123 X42.6370 Y51.2225 Z-0.1000 S1000
G1 F123 X49.6483 Y51.2225 Z-0.1000 S1000
G1 F123 X49.9962 Y51.1924 Z-0.1000 S1000
G1 F123 X50.3336 Y51.1022 Z-0.1000 S1000
G1 F123 X50.6500 Y50.9544 Z-0.1000 S1000
G1 F123 X50.9359 Y50.7539 Z-0.1000 S1000
G1 F123 X51.1828 Y50.5070 Z-0.1000 S1000
G1 F123 X51.3833 Y50.2211 Z-0.1000 S1000
G1 F123 X51.5311 Y49.9047 Z-0.1000 S1000
G1 F123 X51.6213 Y49.5673 Z-0.1000 S1000
G1 F123 X51.6514 Y49.2194 Z-0.1000 S1000
G1 F123 X51.6514 Y42.2081 Z-0.1000 S1000
G1 F123 X51.6514 Y42.2081 Z-0.1000 S1000
;---
G1 F123 X51.6213 Y41.8601 Z-0.1000 S1000
G1 F123 X51.5311 Y41.5228 Z-0.1000 S1000
G1 F123 X51.3833 Y41.2064 Z-0.1000 S1000
G1 F123 X51.1828 Y40.9205 Z-0.1000 S1000
G1 F123 X50.9359 Y40.6736 Z-0.1000 S1000
G1 F123 X50.6500 Y40.4730 Z-0.1000 S1000
G1 F123 X50.3336 Y40.3253 Z-0.1000 S1000
G1 F123 X49.9962 Y40.2351 Z-0.1000 S1000
G1 F123 X49.6483 Y40.2050 Z-0.1000 S1000
G1 F123 X42.6370 Y40.2050 Z-0.1000 S1000
G1 F123 X42.2891 Y40.2351 Z-0.1000 S1000
G1 F123 X41.9517 Y40.3253 Z-0.1000 S1000
G1 F123 X41.6353 Y40.4730 Z-0.1000 S1000
G1 F123 X41.3494 Y40.6736 Z-0.1000 S1000
G1 F123 X41.1025 Y40.9205 Z-0.1000 S1000
G1 F123 X40.9019 Y41.2064 Z-0.1000 S1000
G1 F123 X40.7542 Y41.5228 Z-0.1000 S1000
G1 F123 X40.6640 Y41.8601 Z-0.1000 S1000
G1 F123 X40.6339 Y42.2081 Z-0.1000 S1000
G1 F123 X40.6339 Y49.2194 Z-0.1000 S1000
G1 F123 X40.6640 Y49.5673 Z-0.1000 S1000
G1 F123 X40.7542 Y49.9047 Z-0.1000 S1000
G1 F123 X40.9019 Y50.2211 Z-0.1000 S1000
G1 F123 X41.1025 Y50.5070 Z-0.1000 S1000
G1 F123 X41.3494 Y50.7539 Z-0.1000 S1000
G1 F123 X41.6353 Y50.9544 Z-0.1000 S1000
G1 F123 X41.9517 Y51.1022 Z-0.1000 S1000
G1 F123 X42.2891 Y51.1924 Z-0.1000 S1000
G1 F123 X42.6370 Y51.2225 Z-0.1000 S1000
G1 F123 X49.6483 Y51.2225 Z-0.1000 S1000
G1 F123 X49.9962 Y51.1924 Z-0.1000 S1000
G1 F123 X50.3336 Y51.1022 Z-0.1000 S1000
G1 F123 X50.6500 Y50.9544 Z-0.1000 S1000
G1 F123 X50.9359 Y50.7539 Z-0.1000 S1000
G1 F123 X51.1828 Y50.5070 Z-0.1000 S1000
G1 F123 X51.3833 Y50.2211 Z-0.1000 S1000
G1 F123 X51.5311 Y49.9047 Z-0.1000 S1000
G1 F123 X51.6213 Y49.5673 Z-0.1000 S1000
G1 F123 X51.6514 Y49.2194 Z-0.1000 S1000
G1 F123 X51.6514 Y42.2081 Z-0.1000 S1000
G1 F123 X51.6514 Y42.2081 Z-0.1000 S1000
;---
G1 F123 X51.6213 Y41.8601 Z-0.1000 S1000
G1 F123 X51.5311 Y41.5228 Z-0.1000 S1000
G1 F123 X51.3833 Y41.2064 Z-0.1000 S1000
G1 F123 X51.1828 Y40.9205 Z-0.1000 S1000
G1 F123 X50.9359 Y40.6736 Z-0.1000 S1000
G1 F123 X50.6500 Y40.4730 Z-0.1000 S1000
G1 F123 X50.3336 Y40.3253 Z-0.1000 S1000
G1 F123 X49.9962 Y40.2351 Z-0.1000 S1000
G1 F123 X49.6483 Y40.2050 Z-0.1000 S1000
G1 F123 X42.6370 Y40.2050 Z-0.1000 S1000
G1 F123 X42.2891 Y40.2351 Z-0.1000 S1000
G1 F123 X41.9517 Y40.3253 Z-0.1000 S1000
G1 F123 X41.6353 Y40.4730 Z-0.1000 S1000
G1 F123 X41.3494 Y40.6736 Z-0.1000 S1000
G1 F123 X41.1025 Y40.9205 Z-0.1000 S1000
G1 F123 X40.9019 Y41.2064 Z-0.1000 S1000
G1 F123 X40.7542 Y41.5228 Z-0.1000 S1000
G1 F123 X40.6640 Y41.8601 Z-0.1000 S1000
G1 F123 X40.6339 Y42.2081 Z-0.1000 S1000
G1 F123 X40.6339 Y49.2194 Z-0.1000 S1000
G1 F123 X40.6640 Y49.5673 Z-0.1000 S1000
G1 F123 X40.7542 Y49.9047 Z-0.1000 S1000
G1 F123 X40.9019 Y50.2211 Z-0.1000 S1000
G1 F123 X41.1025 Y50.5070 Z-0.1000 S1000
G1 F123 X41.3494 Y50.7539 Z-0.1000 S1000
G1 F123 X41.6353 Y50.9544 Z-0.1000 S1000
G1 F123 X41.9517 Y51.1022 Z-0.1000 S1000
G1 F123 X42.2891 Y51.1924 Z-0.1000 S1000
G1 F123 X42.6370 Y51.2225 Z-0.1000 S1000
G1 F123 X49.6483 Y51.2225 Z-0.1000 S1000
G1 F123 X49.9962 Y51.1924 Z-0.1000 S1000
G1 F123 X50.3336 Y51.1022 Z-0.1000 S1000
G1 F123 X50.6500 Y50.9544 Z-0.1000 S1000
G1 F123 X50.9359 Y50.7539 Z-0.1000 S1000
G1 F123 X51.1828 Y50.5070 Z-0.1000 S1000
G1 F123 X51.3833 Y50.2211 Z-0.1000 S1000
G1 F123 X51.5311 Y49.9047 Z-0.1000 S1000
G1 F123 X51.6213 Y49.5673 Z-0.1000 S1000
G1 F123 X51.6514 Y49.2194 Z-0.1000 S1000
G1 F123 X51.6514 Y42.2081 Z-0.1000 S1000
G1 F123 X51.6514 Y42.2081 Z-0.1000 S1000
;---

G0 Z10; move to z-safe height
G0 X96.7227 Y27.1843

G0 Z0
G1 F300 Z-0.1000
G1 F123 X96.6926 Y26.8363 Z-0.1000 S1000
G1 F123 X96.6025 Y26.4990 Z-0.1000 S1000
G1 F123 X96.4547 Y26.1826 Z-0.1000 S1000
G1 F123 X96.2542 Y25.8967 Z-0.1000 S1000
G1 F123 X96.0072 Y25.6498 Z-0.1000 S1000
G1 F123 X95.7213 Y25.4492 Z-0.1000 S1000
G1 F123 X95.4049 Y25.3015 Z-0.1000 S1000
G1 F123 X95.0676 Y25.2113 Z-0.1000 S1000
G1 F123 X94.7197 Y25.1812 Z-0.1000 S1000
G1 F123 X87.7084 Y25.1812 Z-0.1000 S1000
G1 F123 X87.3604 Y25.2113 Z-0.1000 S1000
G1 F123 X87.0231 Y25.3015 Z-0.1000 S1000
G1 F123 X86.7067 Y25.4492 Z-0.1000 S1000
G1 F123 X86.4208 Y25.6498 Z-0.1000 S1000
G1 F123 X86.1739 Y25.8967 Z-0.1000 S1000
G1 F123 X85.9733 Y26.1826 Z-0.1000 S1000
G1 F123 X85.8256 Y26.4990 Z-0.1000 S1000
G1 F123 X85.7354 Y26.8363 Z-0.1000 S1000
G1 F123 X85.7053 Y27.1843 Z-0.1000 S1000
G1 F123 X85.7053 Y34.1956 Z-0.1000 S1000
G1 F123 X85.7354 Y34.5435 Z-0.1000 S1000
G1 F123 X85.8256 Y34.8809 Z-0.1000 S1000
G1 F123 X85.9733 Y35.1973 Z-0.1000 S1000
G1 F123 X86.1739 Y35.4832 Z-0.1000 S1000
G1 F123 X86.4208 Y35.7301 Z-0.1000 S1000
G1 F123 X86.7067 Y35.9306 Z-0.1000 S1000
G1 F123 X87.0231 Y36.0784 Z-0.1000 S1000
G1 F123 X87.3604 Y36.1685 Z-0.1000 S1000
G1 F123 X87.7084 Y36.1987 Z-0.1000 S1000
G1 F123 X94.7197 Y36.1987 Z-0.1000 S1000
G1 F123 X95.0676 Y36.1685 Z-0.1000 S1000
G1 F123 X95.4049 Y36.0784 Z-0.1000 S1000
G1 F123 X95.7213 Y35.9306 Z-0.1000 S1000
G1 F123 X96.0072 Y35.7301 Z-0.1000 S1000
G1 F123 X96.2542 Y35.4832 Z-0.1000 S1000
G1 F123 X96.4547 Y35.1973 Z-0.1000 S1000
G1 F123 X96.6025 Y34.8809 Z-0.1000 S1000
G1 F123 X96.6926 Y34.5435 Z-0.1000 S1000
G1 F123 X96.7227 Y34.1956 Z-0.1000 S1000
G1 F123 X96.7227 Y27.1843 Z-0.1000 S1000
G1 F123 X96.7227 Y27.1843 Z-0.1000 S1000
;---
G1 F123 X96.6926 Y26.8363 Z-0.1000 S1000
G1 F123 X96.6025 Y26.4990 Z-0.1000 S1000
G1 F123 X96.4547 Y26.1826 Z-0.1000 S1000
G1 F123 X96.2542 Y25.8967 Z-0.1000 S1000
G1 F123 X96.0072 Y25.6498 Z-0.1000 S1000
G1 F123 X95.7213 Y25.4492 Z-0.1000 S1000
G1 F123 X95.4049 Y25.3015 Z-0.1000 S1000
G1 F123 X95.0676 Y25.2113 Z-0.1000 S1000
G1 F123 X94.7197 Y25.1812 Z-0.1000 S1000
G1 F123 X87.7084 Y25.1812 Z-0.1000 S1000
G1 F123 X87.3604 Y25.2113 Z-0.1000 S1000
G1 F123 X87.0231 Y25.3015 Z-0.1000 S1000
G1 F123 X86.7067 Y25.4492 Z-0.1000 S1000
G1 F123 X86.4208 Y25.6498 Z-0.1000 S1000
G1 F123 X86.1739 Y25.8967 Z-0.1000 S1000
G1 F123 X85.9733 Y26.1826 Z-0.1000 S1000
G1 F123 X85.8256 Y26.4990 Z-0.1000 S1000
G1 F123 X85.7354 Y26.8363 Z-0.1000 S1000
G1 F123 X85.7053 Y27.1843 Z-0.1000 S1000
G1 F123 X85.7053 Y34.1956 Z-0.1000 S1000
G1 F123 X85.7354 Y34.5435 Z-0.1000 S1000
G1 F123 X85.8256 Y34.8809 Z-0.1000 S1000
G1 F123 X85.9733 Y35.1973 Z-0.1000 S1000
G1 F123 X86.1739 Y35.4832 Z-0.1000 S1000
G1 F123 X86.4208 Y35.7301 Z-0.1000 S1000
G1 F123 X86.7067 Y35.9306 Z-0.1000 S1000
G1 F123 X87.0231 Y36.0784 Z-0.1000 S1000
G1 F123 X87.3604 Y36.1685 Z-0.1000 S1000
G1 F123 X87.7084 Y36.1987 Z-0.1000 S1000
G1 F123 X94.7197 Y36.1987 Z-0.1000 S1000
G1 F123 X95.0676 Y36.1685 Z-0.1000 S1000
G1 F123 X95.4049 Y36.0784 Z-0.1000 S1000
G1 F123 X95.7213 Y35.9306 Z-0.1000 S1000
G1 F123 X96.0072 Y35.7301 Z-0.1000 S1000
G1 F123 X96.2542 Y35.4832 Z-0.1000 S1000
G1 F123 X96.4547 Y35.1973 Z-0.1000 S1000
G1 F123 X96.6025 Y34.8809 Z-0.1000 S1000
G1 F123 X96.6926 Y34.5435 Z-0.1000 S1000
G1 F123 X96.7227 Y34.1956 Z-0.1000 S1000
G1 F123 X96.7227 Y27.1843 Z-0.1000 S1000
G1 F123 X96.7227 Y27.1843 Z-0.1000 S1000
;---
G1 F123 X96.6926 Y26.8363 Z-0.1000 S1000
G1 F123 X96.6025 Y26.4990 Z-0.1000 S1000
G1 F123 X96.4547 Y26.1826 Z-0.1000 S1000
G1 F123 X96.2542 Y25.8967 Z-0.1000 S1000
G1 F123 X96.0072 Y25.6498 Z-0.1000 S1000
G1 F123 X95.7213 Y25.4492 Z-0.1000 S1000
G1 F123 X95.4049 Y25.3015 Z-0.1000 S1000
G1 F123 X95.0676 Y25.2113 Z-0.1000 S1000
G1 F123 X94.7197 Y25.1812 Z-0.1000 S1000
G1 F123 X87.7084 Y25.1812 Z-0.1000 S1000
G1 F123 X87.3604 Y25.2113 Z-0.1000 S1000
G1 F123 X87.0231 Y25.3015 Z-0.1000 S1000
G1 F123 X86.7067 Y25.4492 Z-0.1000 S1000
G1 F123 X86.4208 Y25.6498 Z-0.1000 S1000
G1 F123 X86.1739 Y25.8967 Z-0.1000 S1000
G1 F123 X85.9733 Y26.1826 Z-0.1000 S1000
G1 F123 X85.8256 Y26.4990 Z-0.1000 S1000
G1 F123 X85.7354 Y26.8363 Z-0.1000 S1000
G1 F123 X85.7053 Y27.1843 Z-0.1000 S1000
G1 F123 X85.7053 Y34.1956 Z-0.1000 S1000
G1 F123 X85.7354 Y34.5435 Z-0.1000 S1000
G1 F123 X85.8256 Y34.8809 Z-0.1000 S1000
G1 F123 X85.9733 Y35.1973 Z-0.1000 S1000
G1 F123 X86.1739 Y35.4832 Z-0.1000 S1000
G1 F123 X86.4208 Y35.7301 Z-0.1000 S1000
G1 F123 X86.7067 Y35.9306 Z-0.1000 S1000
G1 F123 X87.0231 Y36.0784 Z-0.1000 S1000
G1 F123 X87.3604 Y36.1685 Z-0.1000 S1000
G1 F123 X87.7084 Y36.1987 Z-0.1000 S1000
G1 F123 X94.7197 Y36.1987 Z-0.1000 S1000
G1 F123 X95.0676 Y36.1685 Z-0.1000 S1000
G1 F123 X95.4049 Y36.0784 Z-0.1000 S1000
G1 F123 X95.7213 Y35.9306 Z-0.1000 S1000
G1 F123 X96.0072 Y35.7301 Z-0.1000 S1000
G1 F123 X96.2542 Y35.4832 Z-0.1000 S1000
G1 F123 X96.4547 Y35.1973 Z-0.1000 S1000
G1 F123 X96.6025 Y34.8809 Z-0.1000 S1000
G1 F123 X96.6926 Y34.5435 Z-0.1000 S1000
G1 F123 X96.7227 Y34.1956 Z-0.1000 S1000
G1 F123 X96.7227 Y27.1843 Z-0.1000 S1000
G1 F123 X96.7227 Y27.1843 Z-0.1000 S1000
;---

G0 Z10; move to z-safe height
G0 X81.6990 Y27.1843

G0 Z0
G1 F300 Z-0.1000
G1 F123 X81.6688 Y26.8363 Z-0.1000 S1000
G1 F123 X81.5787 Y26.4990 Z-0.1000 S1000
G1 F123 X81.4309 Y26.1826 Z-0.1000 S1000
G1 F123 X81.2304 Y25.8967 Z-0.1000 S1000
G1 F123 X80.9835 Y25.6498 Z-0.1000 S1000
G1 F123 X80.6976 Y25.4492 Z-0.1000 S1000
G1 F123 X80.3812 Y25.3015 Z-0.1000 S1000
G1 F123 X80.0438 Y25.2113 Z-0.1000 S1000
G1 F123 X79.6959 Y25.1812 Z-0.1000 S1000
G1 F123 X72.6846 Y25.1812 Z-0.1000 S1000
G1 F123 X72.3366 Y25.2113 Z-0.1000 S1000
G1 F123 X71.9993 Y25.3015 Z-0.1000 S1000
G1 F123 X71.6829 Y25.4492 Z-0.1000 S1000
G1 F123 X71.3970 Y25.6498 Z-0.1000 S1000
G1 F123 X71.1501 Y25.8967 Z-0.1000 S1000
G1 F123 X70.9495 Y26.1826 Z-0.1000 S1000
G1 F123 X70.8018 Y26.4990 Z-0.1000 S1000
G1 F123 X70.7116 Y26.8363 Z-0.1000 S1000
G1 F123 X70.6815 Y27.1843 Z-0.1000 S1000
G1 F123 X70.6815 Y34.1956 Z-0.1000 S1000
G1 F123 X70.7116 Y34.5435 Z-0.1000 S1000
G1 F123 X70.8018 Y34.8809 Z-0.1000 S1000
G1 F123 X70.9495 Y35.1973 Z-0.1000 S1000
G1 F123 X71.1501 Y35.4832 Z-0.1000 S1000
G1 F123 X71.3970 Y35.7301 Z-0.1000 S1000
G1 F123 X71.6829 Y35.9306 Z-0.1000 S1000
G1 F123 X71.9993 Y36.0784 Z-0.1000 S1000
G1 F123 X72.3366 Y36.1685 Z-0.1000 S1000
G1 F123 X72.6846 Y36.1987 Z-0.1000 S1000
G1 F123 X79.6959 Y36.1987 Z-0.1000 S1000
G1 F123 X80.0438 Y36.1685 Z-0.1000 S1000
G1 F123 X80.3812 Y36.0784 Z-0.1000 S1000
G1 F123 X80.6976 Y35.9306 Z-0.1000 S1000
G1 F123 X80.9835 Y35.7301 Z-0.1000 S1000
G1 F123 X81.2304 Y35.4832 Z-0.1000 S1000
G1 F123 X81.4309 Y35.1973 Z-0.1000 S1000
G1 F123 X81.5787 Y34.8809 Z-0.1000 S1000
G1 F123 X81.6688 Y34.5435 Z-0.1000 S1000
G1 F123 X81.6990 Y34.1956 Z-0.1000 S1000
G1 F123 X81.6990 Y27.1843 Z-0.1000 S1000
G1 F123 X81.6990 Y27.1843 Z-0.1000 S1000
;---
G1 F123 X81.6688 Y26.8363 Z-0.1000 S1000
G1 F123 X81.5787 Y26.4990 Z-0.1000 S1000
G1 F123 X81.4309 Y26.1826 Z-0.1000 S1000
G1 F123 X81.2304 Y25.8967 Z-0.1000 S1000
G1 F123 X80.9835 Y25.6498 Z-0.1000 S1000
G1 F123 X80.6976 Y25.4492 Z-0.1000 S1000
G1 F123 X80.3812 Y25.3015 Z-0.1000 S1000
G1 F123 X80.0438 Y25.2113 Z-0.1000 S1000
G1 F123 X79.6959 Y25.1812 Z-0.1000 S1000
G1 F123 X72.6846 Y25.1812 Z-0.1000 S1000
G1 F123 X72.3366 Y25.2113 Z-0.1000 S1000
G1 F123 X71.9993 Y25.3015 Z-0.1000 S1000
G1 F123 X71.6829 Y25.4492 Z-0.1000 S1000
G1 F123 X71.3970 Y25.6498 Z-0.1000 S1000
G1 F123 X71.1501 Y25.8967 Z-0.1000 S1000
G1 F123 X70.9495 Y26.1826 Z-0.1000 S1000
G1 F123 X70.8018 Y26.4990 Z-0.1000 S1000
G1 F123 X70.7116 Y26.8363 Z-0.1000 S1000
G1 F123 X70.6815 Y27.1843 Z-0.1000 S1000
G1 F123 X70.6815 Y34.1956 Z-0.1000 S1000
G1 F123 X70.7116 Y34.5435 Z-0.1000 S1000
G1 F123 X70.8018 Y34.8809 Z-0.1000 S1000
G1 F123 X70.9495 Y35.1973 Z-0.1000 S1000
G1 F123 X71.1501 Y35.4832 Z-0.1000 S1000
G1 F123 X71.3970 Y35.7301 Z-0.1000 S1000
G1 F123 X71.6829 Y35.9306 Z-0.1000 S1000
G1 F123 X71.9993 Y36.0784 Z-0.1000 S1000
G1 F123 X72.3366 Y36.1685 Z-0.1000 S1000
G1 F123 X72.6846 Y36.1987 Z-0.1000 S1000
G1 F123 X79.6959 Y36.1987 Z-0.1000 S1000
G1 F123 X80.0438 Y36.1685 Z-0.1000 S1000
G1 F123 X80.3812 Y36.0784 Z-0.1000 S1000
G1 F123 X80.6976 Y35.9306 Z-0.1000 S1000
G1 F123 X80.9835 Y35.7301 Z-0.1000 S1000
G1 F123 X81.2304 Y35.4832 Z-0.1000 S1000
G1 F123 X81.4309 Y35.1973 Z-0.1000 S1000
G1 F123 X81.5787 Y34.8809 Z-0.1000 S1000
G1 F123 X81.6688 Y34.5435 Z-0.1000 S1000
G1 F123 X81.6990 Y34.1956 Z-0.1000 S1000
G1 F123 X81.6990 Y27.1843 Z-0.1000 S1000
G1 F123 X81.6990 Y27.1843 Z-0.1000 S1000
;---
G1 F123 X81.6688 Y26.8363 Z-0.1000 S1000
G1 F123 X81.5787 Y26.4990 Z-0.1000 S1000
G1 F123 X81.4309 Y26.1826 Z-0.1000 S1000
G1 F123 X81.2304 Y25.8967 Z-0.1000 S1000
G1 F123 X80.9835 Y25.6498 Z-0.1000 S1000
G1 F123 X80.6976 Y25.4492 Z-0.1000 S1000
G1 F123 X80.3812 Y25.3015 Z-0.1000 S1000
G1 F123 X80.0438 Y25.2113 Z-0.1000 S1000
G1 F123 X79.6959 Y25.1812 Z-0.1000 S1000
G1 F123 X72.6846 Y25.1812 Z-0.1000 S1000
G1 F123 X72.3366 Y25.2113 Z-0.1000 S1000
G1 F123 X71.9993 Y25.3015 Z-0.1000 S1000
G1 F123 X71.6829 Y25.4492 Z-0.1000 S1000
G1 F123 X71.3970 Y25.6498 Z-0.1000 S1000
G1 F123 X71.1501 Y25.8967 Z-0.1000 S1000
G1 F123 X70.9495 Y26.1826 Z-0.1000 S1000
G1 F123 X70.8018 Y26.4990 Z-0.1000 S1000
G1 F123 X70.7116 Y26.8363 Z-0.1000 S1000
G1 F123 X70.6815 Y27.1843 Z-0.1000 S1000
G1 F123 X70.6815 Y34.1956 Z-0.1000 S1000
G1 F123 X70.7116 Y34.5435 Z-0.1000 S1000
G1 F123 X70.8018 Y34.8809 Z-0.1000 S1000
G1 F123 X70.9495 Y35.1973 Z-0.1000 S1000
G1 F123 X71.1501 Y35.4832 Z-0.1000 S1000
G1 F123 X71.3970 Y35.7301 Z-0.1000 S1000
G1 F123 X71.6829 Y35.9306 Z-0.1000 S1000
G1 F123 X71.9993 Y36.0784 Z-0.1000 S1000
G1 F123 X72.3366 Y36.1685 Z-0.1000 S1000
G1 F123 X72.6846 Y36.1987 Z-0.1000 S1000
G1 F123 X79.6959 Y36.1987 Z-0.1000 S1000
G1 F123 X80.0438 Y36.1685 Z-0.1000 S1000
G1 F123 X80.3812 Y36.0784 Z-0.1000 S1000
G1 F123 X80.6976 Y35.9306 Z-0.1000 S1000
G1 F123 X80.9835 Y35.7301 Z-0.1000 S1000
G1 F123 X81.2304 Y35.4832 Z-0.1000 S1000
G1 F123 X81.4309 Y35.1973 Z-0.1000 S1000
G1 F123 X81.5787 Y34.8809 Z-0.1000 S1000
G1 F123 X81.6688 Y34.5435 Z-0.1000 S1000
G1 F123 X81.6990 Y34.1956 Z-0.1000 S1000
G1 F123 X81.6990 Y27.1843 Z-0.1000 S1000
G1 F123 X81.6990 Y27.1843 Z-0.1000 S1000
;---

G0 Z10; move to z-safe height
G0 X81.6990 Y42.2081

G0 Z0
G1 F300 Z-0.1000
G1 F123 X81.6688 Y41.8601 Z-0.1000 S1000
G1 F123 X81.5787 Y41.5228 Z-0.1000 S1000
G1 F123 X81.4309 Y41.2064 Z-0.1000 S1000
G1 F123 X81.2304 Y40.9205 Z-0.1000 S1000
G1 F123 X80.9835 Y40.6736 Z-0.1000 S1000
G1 F123 X80.6976 Y40.4730 Z-0.1000 S1000
G1 F123 X80.3812 Y40.3253 Z-0.1000 S1000
G1 F123 X80.0438 Y40.2351 Z-0.1000 S1000
G1 F123 X79.6959 Y40.2050 Z-0.1000 S1000
G1 F123 X72.6846 Y40.2050 Z-0.1000 S1000
G1 F123 X72.3366 Y40.2351 Z-0.1000 S1000
G1 F123 X71.9993 Y40.3253 Z-0.1000 S1000
G1 F123 X71.6829 Y40.4730 Z-0.1000 S1000
G1 F123 X71.3970 Y40.6736 Z-0.1000 S1000
G1 F123 X71.1501 Y40.9205 Z-0.1000 S1000
G1 F123 X70.9495 Y41.2064 Z-0.1000 S1000
G1 F123 X70.8018 Y41.5228 Z-0.1000 S1000
G1 F123 X70.7116 Y41.8601 Z-0.1000 S1000
G1 F123 X70.6815 Y42.2081 Z-0.1000 S1000
G1 F123 X70.6815 Y49.2194 Z-0.1000 S1000
G1 F123 X70.7116 Y49.5673 Z-0.1000 S1000
G1 F123 X70.8018 Y49.9047 Z-0.1000 S1000
G1 F123 X70.9495 Y50.2211 Z-0.1000 S1000
G1 F123 X71.1501 Y50.5070 Z-0.1000 S1000
G1 F123 X71.3970 Y50.7539 Z-0.1000 S1000
G1 F123 X71.6829 Y50.9544 Z-0.1000 S1000
G1 F123 X71.9993 Y51.1022 Z-0.1000 S1000
G1 F123 X72.3366 Y51.1924 Z-0.1000 S1000
G1 F123 X72.6846 Y51.2225 Z-0.1000 S1000
G1 F123 X79.6959 Y51.2225 Z-0.1000 S1000
G1 F123 X80.0438 Y51.1924 Z-0.1000 S1000
G1 F123 X80.3812 Y51.1022 Z-0.1000 S1000
G1 F123 X80.6976 Y50.9544 Z-0.1000 S1000
G1 F123 X80.9835 Y50.7539 Z-0.1000 S1000
G1 F123 X81.2304 Y50.5070 Z-0.1000 S1000
G1 F123 X81.4309 Y50.2211 Z-0.1000 S1000
G1 F123 X81.5787 Y49.9047 Z-0.1000 S1000
G1 F123 X81.6688 Y49.5673 Z-0.1000 S1000
G1 F123 X81.6990 Y49.2194 Z-0.1000 S1000
G1 F123 X81.6990 Y42.2081 Z-0.1000 S1000
G1 F123 X81.6990 Y42.2081 Z-0.1000 S1000
;---
G1 F123 X81.6688 Y41.8601 Z-0.1000 S1000
G1 F123 X81.5787 Y41.5228 Z-0.1000 S1000
G1 F123 X81.4309 Y41.2064 Z-0.1000 S1000
G1 F123 X81.2304 Y40.9205 Z-0.1000 S1000
G1 F123 X80.9835 Y40.6736 Z-0.1000 S1000
G1 F123 X80.6976 Y40.4730 Z-0.1000 S1000
G1 F123 X80.3812 Y40.3253 Z-0.1000 S1000
G1 F123 X80.0438 Y40.2351 Z-0.1000 S1000
G1 F123 X79.6959 Y40.2050 Z-0.1000 S1000
G1 F123 X72.6846 Y40.2050 Z-0.1000 S1000
G1 F123 X72.3366 Y40.2351 Z-0.1000 S1000
G1 F123 X71.9993 Y40.3253 Z-0.1000 S1000
G1 F123 X71.6829 Y40.4730 Z-0.1000 S1000
G1 F123 X71.3970 Y40.6736 Z-0.1000 S1000
G1 F123 X71.1501 Y40.9205 Z-0.1000 S1000
G1 F123 X70.9495 Y41.2064 Z-0.1000 S1000
G1 F123 X70.8018 Y41.5228 Z-0.1000 S1000
G1 F123 X70.7116 Y41.8601 Z-0.1000 S1000
G1 F123 X70.6815 Y42.2081 Z-0.1000 S1000
G1 F123 X70.6815 Y49.2194 Z-0.1000 S1000
G1 F123 X70.7116 Y49.5673 Z-0.1000 S1000
G1 F123 X70.8018 Y49.9047 Z-0.1000 S1000
G1 F123 X70.9495 Y50.2211 Z-0.1000 S1000
G1 F123 X71.1501 Y50.5070 Z-0.1000 S1000
G1 F123 X71.3970 Y50.7539 Z-0.1000 S1000
G1 F123 X71.6829 Y50.9544 Z-0.1000 S1000
G1 F123 X71.9993 Y51.1022 Z-0.1000 S1000
G1 F123 X72.3366 Y51.1924 Z-0.1000 S1000
G1 F123 X72.6846 Y51.2225 Z-0.1000 S1000
G1 F123 X79.6959 Y51.2225 Z-0.1000 S1000
G1 F123 X80.0438 Y51.1924 Z-0.1000 S1000
G1 F123 X80.3812 Y51.1022 Z-0.1000 S1000
G1 F123 X80.6976 Y50.9544 Z-0.1000 S1000
G1 F123 X80.9835 Y50.7539 Z-0.1000 S1000
G1 F123 X81.2304 Y50.5070 Z-0.1000 S1000
G1 F123 X81.4309 Y50.2211 Z-0.1000 S1000
G1 F123 X81.5787 Y49.9047 Z-0.1000 S1000
G1 F123 X81.6688 Y49.5673 Z-0.1000 S1000
G1 F123 X81.6990 Y49.2194 Z-0.1000 S1000
G1 F123 X81.6990 Y42.2081 Z-0.1000 S1000
G1 F123 X81.6990 Y42.2081 Z-0.1000 S1000
;---
G1 F123 X81.6688 Y41.8601 Z-0.1000 S1000
G1 F123 X81.5787 Y41.5228 Z-0.1000 S1000
G1 F123 X81.4309 Y41.2064 Z-0.1000 S1000
G1 F123 X81.2304 Y40.9205 Z-0.1000 S1000
G1 F123 X80.9835 Y40.6736 Z-0.1000 S1000
G1 F123 X80.6976 Y40.4730 Z-0.1000 S1000
G1 F123 X80.3812 Y40.3253 Z-0.1000 S1000
G1 F123 X80.0438 Y40.2351 Z-0.1000 S1000
G1 F123 X79.6959 Y40.2050 Z-0.1000 S1000
G1 F123 X72.6846 Y40.2050 Z-0.1000 S1000
G1 F123 X72.3366 Y40.2351 Z-0.1000 S1000
G1 F123 X71.9993 Y40.3253 Z-0.1000 S1000
G1 F123 X71.6829 Y40.4730 Z-0.1000 S1000
G1 F123 X71.3970 Y40.6736 Z-0.1000 S1000
G1 F123 X71.1501 Y40.9205 Z-0.1000 S1000
G1 F123 X70.9495 Y41.2064 Z-0.1000 S1000
G1 F123 X70.8018 Y41.5228 Z-0.1000 S1000
G1 F123 X70.7116 Y41.8601 Z-0.1000 S1000
G1 F123 X70.6815 Y42.2081 Z-0.1000 S1000
G1 F123 X70.6815 Y49.2194 Z-0.1000 S1000
G1 F123 X70.7116 Y49.5673 Z-0.1000 S1000
G1 F123 X70.8018 Y49.9047 Z-0.1000 S1000
G1 F123 X70.9495 Y50.2211 Z-0.1000 S1000
G1 F123 X71.1501 Y50.5070 Z-0.1000 S1000
G1 F123 X71.3970 Y50.7539 Z-0.1000 S1000
G1 F123 X71.6829 Y50.9544 Z-0.1000 S1000
G1 F123 X71.9993 Y51.1022 Z-0.1000 S1000
G1 F123 X72.3366 Y51.1924 Z-0.1000 S1000
G1 F123 X72.6846 Y51.2225 Z-0.1000 S1000
G1 F123 X79.6959 Y51.2225 Z-0.1000 S1000
G1 F123 X80.0438 Y51.1924 Z-0.1000 S1000
G1 F123 X80.3812 Y51.1022 Z-0.1000 S1000
G1 F123 X80.6976 Y50.9544 Z-0.1000 S1000
G1 F123 X80.9835 Y50.7539 Z-0.1000 S1000
G1 F123 X81.2304 Y50.5070 Z-0.1000 S1000
G1 F123 X81.4309 Y50.2211 Z-0.1000 S1000
G1 F123 X81.5787 Y49.9047 Z-0.1000 S1000
G1 F123 X81.6688 Y49.5673 Z-0.1000 S1000
G1 F123 X81.6990 Y49.2194 Z-0.1000 S1000
G1 F123 X81.6990 Y42.2081 Z-0.1000 S1000
G1 F123 X81.6990 Y42.2081 Z-0.1000 S1000
;---

G0 Z10; move to z-safe height
G0 X96.7227 Y42.2081

G0 Z0
G1 F300 Z-0.1000
G1 F123 X96.6926 Y41.8601 Z-0.1000 S1000
G1 F123 X96.6025 Y41.5228 Z-0.1000 S1000
G1 F123 X96.4547 Y41.2064 Z-0.1000 S1000
G1 F123 X96.2542 Y40.9205 Z-0.1000 S1000
G1 F123 X96.0072 Y40.6736 Z-0.1000 S1000
G1 F123 X95.7213 Y40.4730 Z-0.1000 S1000
G1 F123 X95.4049 Y40.3253 Z-0.1000 S1000
G1 F123 X95.0676 Y40.2351 Z-0.1000 S1000
G1 F123 X94.7197 Y40.2050 Z-0.1000 S1000
G1 F123 X87.7084 Y40.2050 Z-0.1000 S1000
G1 F123 X87.3604 Y40.2351 Z-0.1000 S1000
G1 F123 X87.0231 Y40.3253 Z-0.1000 S1000
G1 F123 X86.7067 Y40.4730 Z-0.1000 S1000
G1 F123 X86.4208 Y40.6736 Z-0.1000 S1000
G1 F123 X86.1739 Y40.9205 Z-0.1000 S1000
G1 F123 X85.9733 Y41.2064 Z-0.1000 S1000
G1 F123 X85.8256 Y41.5228 Z-0.1000 S1000
G1 F123 X85.7354 Y41.8601 Z-0.1000 S1000
G1 F123 X85.7053 Y42.2081 Z-0.1000 S1000
G1 F123 X85.7053 Y49.2194 Z-0.1000 S1000
G1 F123 X85.7354 Y49.5673 Z-0.1000 S1000
G1 F123 X85.8256 Y49.9047 Z-0.1000 S1000
G1 F123 X85.9733 Y50.2211 Z-0.1000 S1000
G1 F123 X86.1739 Y50.5070 Z-0.1000 S1000
G1 F123 X86.4208 Y50.7539 Z-0.1000 S1000
G1 F123 X86.7067 Y50.9544 Z-0.1000 S1000
G1 F123 X87.0231 Y51.1022 Z-0.1000 S1000
G1 F123 X87.3604 Y51.1924 Z-0.1000 S1000
G1 F123 X87.7084 Y51.2225 Z-0.1000 S1000
G1 F123 X94.7197 Y51.2225 Z-0.1000 S1000
G1 F123 X95.0676 Y51.1924 Z-0.1000 S1000
G1 F123 X95.4049 Y51.1022 Z-0.1000 S1000
G1 F123 X95.7213 Y50.9544 Z-0.1000 S1000
G1 F123 X96.0072 Y50.7539 Z-0.1000 S1000
G1 F123 X96.2542 Y50.5070 Z-0.1000 S1000
G1 F123 X96.4547 Y50.2211 Z-0.1000 S1000
G1 F123 X96.6025 Y49.9047 Z-0.1000 S1000
G1 F123 X96.6926 Y49.5673 Z-0.1000 S1000
G1 F123 X96.7227 Y49.2194 Z-0.1000 S1000
G1 F123 X96.7227 Y42.2081 Z-0.1000 S1000
G1 F123 X96.7227 Y42.2081 Z-0.1000 S1000
;---
G1 F123 X96.6926 Y41.8601 Z-0.1000 S1000
G1 F123 X96.6025 Y41.5228 Z-0.1000 S1000
G1 F123 X96.4547 Y41.2064 Z-0.1000 S1000
G1 F123 X96.2542 Y40.9205 Z-0.1000 S1000
G1 F123 X96.0072 Y40.6736 Z-0.1000 S1000
G1 F123 X95.7213 Y40.4730 Z-0.1000 S1000
G1 F123 X95.4049 Y40.3253 Z-0.1000 S1000
G1 F123 X95.0676 Y40.2351 Z-0.1000 S1000
G1 F123 X94.7197 Y40.2050 Z-0.1000 S1000
G1 F123 X87.7084 Y40.2050 Z-0.1000 S1000
