; GCODE Generated by cam.openbuilds.com on 2023-02-09 
G21 ; mm-mode
G54; Work Coordinates
G21; mm-mode
M3; Constant Power Laser On

; Pass 0
; Operation 0: Laser: Vector (no path offset)
; Laser Spot Diameter: 0.1

G0 Z10; move to z-safe height
G0 F1000 X106.2176 Y74.3921

G0 Z0
G1 F300 Z-0.1000
G1 F1000 X106.2176 Y74.3921 Z-0.1000 S1000
G1 F1000 X106.2592 Y74.7650 Z-0.1000 S1000
G1 F1000 X106.3830 Y75.1191 Z-0.1000 S1000
G1 F1000 X106.5829 Y75.4366 Z-0.1000 S1000
G1 F1000 X106.8482 Y75.7018 Z-0.1000 S1000
G1 F1000 X107.1657 Y75.9017 Z-0.1000 S1000
G1 F1000 X107.5197 Y76.0255 Z-0.1000 S1000
G1 F1000 X107.8926 Y76.0672 Z-0.1000 S1000
G1 F1000 X107.8926 Y76.0672 Z-0.1000 S1000
G1 F1000 X108.2654 Y76.0255 Z-0.1000 S1000
G1 F1000 X108.6195 Y75.9017 Z-0.1000 S1000
G1 F1000 X108.9370 Y75.7018 Z-0.1000 S1000
G1 F1000 X109.2023 Y75.4366 Z-0.1000 S1000
G1 F1000 X109.4021 Y75.1191 Z-0.1000 S1000
G1 F1000 X109.5260 Y74.7650 Z-0.1000 S1000
G1 F1000 X109.5676 Y74.3921 Z-0.1000 S1000
G1 F1000 X109.5676 Y74.3921 Z-0.1000 S1000
G1 F1000 X109.5260 Y74.0193 Z-0.1000 S1000
G1 F1000 X109.4021 Y73.6652 Z-0.1000 S1000
G1 F1000 X109.2022 Y73.3478 Z-0.1000 S1000
G1 F1000 X108.9369 Y73.0825 Z-0.1000 S1000
G1 F1000 X108.6195 Y72.8827 Z-0.1000 S1000
G1 F1000 X108.2654 Y72.7588 Z-0.1000 S1000
G1 F1000 X107.8926 Y72.7171 Z-0.1000 S1000
G1 F1000 X107.8926 Y72.7171 Z-0.1000 S1000
G1 F1000 X107.5198 Y72.7588 Z-0.1000 S1000
G1 F1000 X107.1657 Y72.8827 Z-0.1000 S1000
G1 F1000 X106.8482 Y73.0825 Z-0.1000 S1000
G1 F1000 X106.5830 Y73.3478 Z-0.1000 S1000
G1 F1000 X106.3831 Y73.6652 Z-0.1000 S1000
G1 F1000 X106.2592 Y74.0193 Z-0.1000 S1000
G1 F1000 X106.2176 Y74.3921 Z-0.1000 S1000
G1 F1000 X106.2176 Y74.3921 Z-0.1000 S1000

G0 Z10; move to z-safe height
G0 X8.0653 Y17.8907

G0 Z0
G1 F300 Z-0.1000
G1 F1000 X8.0653 Y17.8907 Z-0.1000 S1000
G1 F1000 X8.0236 Y18.2636 Z-0.1000 S1000
G1 F1000 X7.8997 Y18.6176 Z-0.1000 S1000
G1 F1000 X7.6999 Y18.9351 Z-0.1000 S1000
G1 F1000 X7.4346 Y19.2004 Z-0.1000 S1000
G1 F1000 X7.1172 Y19.4002 Z-0.1000 S1000
G1 F1000 X6.7631 Y19.5241 Z-0.1000 S1000
G1 F1000 X6.3903 Y19.5658 Z-0.1000 S1000
G1 F1000 X6.3903 Y19.5658 Z-0.1000 S1000
G1 F1000 X6.0174 Y19.5241 Z-0.1000 S1000
G1 F1000 X5.6634 Y19.4002 Z-0.1000 S1000
G1 F1000 X5.3459 Y19.2004 Z-0.1000 S1000
G1 F1000 X5.0806 Y18.9351 Z-0.1000 S1000
G1 F1000 X4.8808 Y18.6176 Z-0.1000 S1000
G1 F1000 X4.7569 Y18.2636 Z-0.1000 S1000
G1 F1000 X4.7152 Y17.8907 Z-0.1000 S1000
G1 F1000 X4.7152 Y17.8907 Z-0.1000 S1000
G1 F1000 X4.7569 Y17.5179 Z-0.1000 S1000
G1 F1000 X4.8807 Y17.1638 Z-0.1000 S1000
G1 F1000 X5.0806 Y16.8463 Z-0.1000 S1000
G1 F1000 X5.3459 Y16.5811 Z-0.1000 S1000
G1 F1000 X5.6633 Y16.3812 Z-0.1000 S1000
G1 F1000 X6.0174 Y16.2573 Z-0.1000 S1000
G1 F1000 X6.3903 Y16.2157 Z-0.1000 S1000
G1 F1000 X6.3903 Y16.2157 Z-0.1000 S1000
G1 F1000 X6.7631 Y16.2573 Z-0.1000 S1000
G1 F1000 X7.1172 Y16.3812 Z-0.1000 S1000
G1 F1000 X7.4347 Y16.5811 Z-0.1000 S1000
G1 F1000 X7.7000 Y16.8463 Z-0.1000 S1000
G1 F1000 X7.8998 Y17.1638 Z-0.1000 S1000
G1 F1000 X8.0237 Y17.5179 Z-0.1000 S1000
G1 F1000 X8.0653 Y17.8907 Z-0.1000 S1000
G1 F1000 X8.0653 Y17.8907 Z-0.1000 S1000

G0 Z10; move to z-safe height
G0 X68.7167 Y6.3903

G0 Z0
G1 F300 Z-0.1000
G1 F1000 X68.7167 Y6.3903 Z-0.1000 S1000
G1 F1000 X68.7583 Y6.7632 Z-0.1000 S1000
G1 F1000 X68.8822 Y7.1172 Z-0.1000 S1000
G1 F1000 X69.0821 Y7.4347 Z-0.1000 S1000
G1 F1000 X69.3474 Y7.7000 Z-0.1000 S1000
G1 F1000 X69.6648 Y7.8998 Z-0.1000 S1000
G1 F1000 X70.0189 Y8.0237 Z-0.1000 S1000
G1 F1000 X70.3917 Y8.0654 Z-0.1000 S1000
G1 F1000 X70.3917 Y8.0654 Z-0.1000 S1000
G1 F1000 X70.7646 Y8.0237 Z-0.1000 S1000
G1 F1000 X71.1186 Y7.8999 Z-0.1000 S1000
G1 F1000 X71.4361 Y7.7000 Z-0.1000 S1000
G1 F1000 X71.7014 Y7.4348 Z-0.1000 S1000
G1 F1000 X71.9012 Y7.1173 Z-0.1000 S1000
G1 F1000 X72.0251 Y6.7632 Z-0.1000 S1000
G1 F1000 X72.0667 Y6.3903 Z-0.1000 S1000
G1 F1000 X72.0667 Y6.3903 Z-0.1000 S1000
G1 F1000 X72.0251 Y6.0175 Z-0.1000 S1000
G1 F1000 X71.9012 Y5.6634 Z-0.1000 S1000
G1 F1000 X71.7014 Y5.3459 Z-0.1000 S1000
G1 F1000 X71.4361 Y5.0806 Z-0.1000 S1000
G1 F1000 X71.1186 Y4.8808 Z-0.1000 S1000
G1 F1000 X70.7646 Y4.7569 Z-0.1000 S1000
G1 F1000 X70.3917 Y4.7153 Z-0.1000 S1000
G1 F1000 X70.3917 Y4.7153 Z-0.1000 S1000
G1 F1000 X70.0189 Y4.7570 Z-0.1000 S1000
G1 F1000 X69.6648 Y4.8809 Z-0.1000 S1000
G1 F1000 X69.3474 Y5.0807 Z-0.1000 S1000
G1 F1000 X69.0821 Y5.3460 Z-0.1000 S1000
G1 F1000 X68.8822 Y5.6634 Z-0.1000 S1000
G1 F1000 X68.7583 Y6.0175 Z-0.1000 S1000
G1 F1000 X68.7167 Y6.3903 Z-0.1000 S1000
G1 F1000 X68.7167 Y6.3903 Z-0.1000 S1000

G0 Z10; move to z-safe height
G0 X132.7182 Y17.8907

G0 Z0
G1 F300 Z-0.1000
G1 F1000 X132.7182 Y17.8907 Z-0.1000 S1000
G1 F1000 X132.7598 Y18.2636 Z-0.1000 S1000
G1 F1000 X132.8837 Y18.6176 Z-0.1000 S1000
G1 F1000 X133.0836 Y18.9351 Z-0.1000 S1000
G1 F1000 X133.3489 Y19.2004 Z-0.1000 S1000
G1 F1000 X133.6663 Y19.4002 Z-0.1000 S1000
G1 F1000 X134.0204 Y19.5241 Z-0.1000 S1000
G1 F1000 X134.3932 Y19.5658 Z-0.1000 S1000
G1 F1000 X134.3932 Y19.5658 Z-0.1000 S1000
G1 F1000 X134.7660 Y19.5241 Z-0.1000 S1000
G1 F1000 X135.1201 Y19.4002 Z-0.1000 S1000
G1 F1000 X135.4376 Y19.2004 Z-0.1000 S1000
G1 F1000 X135.7028 Y18.9351 Z-0.1000 S1000
G1 F1000 X135.9027 Y18.6176 Z-0.1000 S1000
G1 F1000 X136.0266 Y18.2636 Z-0.1000 S1000
G1 F1000 X136.0682 Y17.8907 Z-0.1000 S1000
G1 F1000 X136.0682 Y17.8907 Z-0.1000 S1000
G1 F1000 X136.0266 Y17.5179 Z-0.1000 S1000
G1 F1000 X135.9027 Y17.1638 Z-0.1000 S1000
G1 F1000 X135.7029 Y16.8463 Z-0.1000 S1000
G1 F1000 X135.4376 Y16.5811 Z-0.1000 S1000
G1 F1000 X135.1201 Y16.3812 Z-0.1000 S1000
G1 F1000 X134.7660 Y16.2573 Z-0.1000 S1000
G1 F1000 X134.3932 Y16.2157 Z-0.1000 S1000
G1 F1000 X134.3932 Y16.2157 Z-0.1000 S1000
G1 F1000 X134.0204 Y16.2573 Z-0.1000 S1000
G1 F1000 X133.6663 Y16.3812 Z-0.1000 S1000
G1 F1000 X133.3488 Y16.5811 Z-0.1000 S1000
G1 F1000 X133.0835 Y16.8463 Z-0.1000 S1000
G1 F1000 X132.8837 Y17.1638 Z-0.1000 S1000
G1 F1000 X132.7598 Y17.5179 Z-0.1000 S1000
G1 F1000 X132.7182 Y17.8907 Z-0.1000 S1000
G1 F1000 X132.7182 Y17.8907 Z-0.1000 S1000

G0 Z10; move to z-safe height
G0 X34.5659 Y74.3921

G0 Z0
G1 F300 Z-0.1000
G1 F1000 X34.5659 Y74.3921 Z-0.1000 S1000
G1 F1000 X34.5243 Y74.7650 Z-0.1000 S1000
G1 F1000 X34.4005 Y75.1191 Z-0.1000 S1000
G1 F1000 X34.2006 Y75.4366 Z-0.1000 S1000
G1 F1000 X33.9354 Y75.7019 Z-0.1000 S1000
G1 F1000 X33.6179 Y75.9017 Z-0.1000 S1000
G1 F1000 X33.2637 Y76.0256 Z-0.1000 S1000
G1 F1000 X32.8909 Y76.0672 Z-0.1000 S1000
G1 F1000 X32.8909 Y76.0672 Z-0.1000 S1000
G1 F1000 X32.5180 Y76.0255 Z-0.1000 S1000
G1 F1000 X32.1640 Y75.9017 Z-0.1000 S1000
G1 F1000 X31.8465 Y75.7018 Z-0.1000 S1000
G1 F1000 X31.5812 Y75.4366 Z-0.1000 S1000
G1 F1000 X31.3814 Y75.1191 Z-0.1000 S1000
G1 F1000 X31.2575 Y74.7650 Z-0.1000 S1000
G1 F1000 X31.2159 Y74.3921 Z-0.1000 S1000
G1 F1000 X31.2159 Y74.3921 Z-0.1000 S1000
G1 F1000 X31.2575 Y74.0193 Z-0.1000 S1000
G1 F1000 X31.3814 Y73.6652 Z-0.1000 S1000
G1 F1000 X31.5813 Y73.3478 Z-0.1000 S1000
G1 F1000 X31.8465 Y73.0825 Z-0.1000 S1000
G1 F1000 X32.1640 Y72.8827 Z-0.1000 S1000
G1 F1000 X32.5181 Y72.7588 Z-0.1000 S1000
G1 F1000 X32.8909 Y72.7171 Z-0.1000 S1000
G1 F1000 X32.8909 Y72.7171 Z-0.1000 S1000
G1 F1000 X33.2637 Y72.7587 Z-0.1000 S1000
G1 F1000 X33.6178 Y72.8826 Z-0.1000 S1000
G1 F1000 X33.9353 Y73.0825 Z-0.1000 S1000
G1 F1000 X34.2006 Y73.3477 Z-0.1000 S1000
G1 F1000 X34.4004 Y73.6652 Z-0.1000 S1000
G1 F1000 X34.5243 Y74.0193 Z-0.1000 S1000
G1 F1000 X34.5659 Y74.3921 Z-0.1000 S1000
G1 F1000 X34.5659 Y74.3921 Z-0.1000 S1000

G0 Z10; move to z-safe height
G0 X134.3932 Y80.3925

G0 Z0
G1 F300 Z-0.1000
G1 F1000 X97.6485 Y80.3925 Z-0.1000 S1000
G1 F1000 X97.6485 Y80.3925 Z-0.1000 S1000
G1 F1000 X97.3058 Y80.3730 Z-0.1000 S1000
G1 F1000 X96.9676 Y80.3145 Z-0.1000 S1000
G1 F1000 X96.6384 Y80.2177 Z-0.1000 S1000
G1 F1000 X96.3224 Y80.0838 Z-0.1000 S1000
G1 F1000 X96.0238 Y79.9146 Z-0.1000 S1000
G1 F1000 X95.7464 Y79.7125 Z-0.1000 S1000
G1 F1000 X95.4938 Y79.4802 Z-0.1000 S1000
G1 F1000 X95.2694 Y79.2206 Z-0.1000 S1000
G1 F1000 X95.0761 Y78.9370 Z-0.1000 S1000
G1 F1000 X94.9165 Y78.6331 Z-0.1000 S1000
G1 F1000 X94.7929 Y78.3130 Z-0.1000 S1000
G1 F1000 X94.7066 Y77.9808 Z-0.1000 S1000
G1 F1000 X93.5498 Y72.1962 Z-0.1000 S1000
G1 F1000 X93.5498 Y72.1962 Z-0.1000 S1000
G1 F1000 X93.4267 Y71.8774 Z-0.1000 S1000
G1 F1000 X93.2032 Y71.6188 Z-0.1000 S1000
G1 F1000 X92.9058 Y71.4504 Z-0.1000 S1000
G1 F1000 X92.5691 Y71.3921 Z-0.1000 S1000
G1 F1000 X48.2144 Y71.3921 Z-0.1000 S1000
G1 F1000 X48.2144 Y71.3921 Z-0.1000 S1000
G1 F1000 X47.8776 Y71.4504 Z-0.1000 S1000
G1 F1000 X47.5802 Y71.6188 Z-0.1000 S1000
G1 F1000 X47.3568 Y71.8774 Z-0.1000 S1000
G1 F1000 X47.2336 Y72.1962 Z-0.1000 S1000
G1 F1000 X46.0768 Y77.9808 Z-0.1000 S1000
G1 F1000 X46.0768 Y77.9808 Z-0.1000 S1000
G1 F1000 X45.9906 Y78.3130 Z-0.1000 S1000
G1 F1000 X45.8669 Y78.6331 Z-0.1000 S1000
G1 F1000 X45.7074 Y78.9370 Z-0.1000 S1000
G1 F1000 X45.5141 Y79.2206 Z-0.1000 S1000
G1 F1000 X45.2896 Y79.4802 Z-0.1000 S1000
G1 F1000 X45.0370 Y79.7125 Z-0.1000 S1000
G1 F1000 X44.7596 Y79.9146 Z-0.1000 S1000
G1 F1000 X44.4610 Y80.0838 Z-0.1000 S1000
G1 F1000 X44.1451 Y80.2177 Z-0.1000 S1000
G1 F1000 X43.8158 Y80.3145 Z-0.1000 S1000
G1 F1000 X43.4776 Y80.3730 Z-0.1000 S1000
G1 F1000 X43.1350 Y80.3925 Z-0.1000 S1000
G1 F1000 X6.3902 Y80.3925 Z-0.1000 S1000
G1 F1000 X6.3902 Y80.3925 Z-0.1000 S1000
G1 F1000 X6.0413 Y80.3825 Z-0.1000 S1000
G1 F1000 X5.6935 Y80.3524 Z-0.1000 S1000
G1 F1000 X5.3480 Y80.3023 Z-0.1000 S1000
G1 F1000 X5.0061 Y80.2320 Z-0.1000 S1000
G1 F1000 X4.6689 Y80.1419 Z-0.1000 S1000
G1 F1000 X4.3375 Y80.0321 Z-0.1000 S1000
G1 F1000 X4.0131 Y79.9031 Z-0.1000 S1000
G1 F1000 X3.6969 Y79.7554 Z-0.1000 S1000
G1 F1000 X3.3898 Y79.5895 Z-0.1000 S1000
G1 F1000 X3.0928 Y79.4059 Z-0.1000 S1000
G1 F1000 X2.8071 Y79.2055 Z-0.1000 S1000
G1 F1000 X2.5334 Y78.9888 Z-0.1000 S1000
G1 F1000 X2.2727 Y78.7566 Z-0.1000 S1000
G1 F1000 X2.0259 Y78.5098 Z-0.1000 S1000
G1 F1000 X1.7937 Y78.2491 Z-0.1000 S1000
G1 F1000 X1.5770 Y77.9754 Z-0.1000 S1000
G1 F1000 X1.3766 Y77.6897 Z-0.1000 S1000
G1 F1000 X1.1930 Y77.3927 Z-0.1000 S1000
G1 F1000 X1.0271 Y77.0856 Z-0.1000 S1000
G1 F1000 X0.8794 Y76.7694 Z-0.1000 S1000
G1 F1000 X0.7504 Y76.4450 Z-0.1000 S1000
G1 F1000 X0.6406 Y76.1136 Z-0.1000 S1000
G1 F1000 X0.5505 Y75.7764 Z-0.1000 S1000
G1 F1000 X0.4802 Y75.4344 Z-0.1000 S1000
G1 F1000 X0.4301 Y75.0890 Z-0.1000 S1000
G1 F1000 X0.4000 Y74.7412 Z-0.1000 S1000
G1 F1000 X0.3901 Y74.3923 Z-0.1000 S1000
G1 F1000 X0.3901 Y6.3901 Z-0.1000 S1000
G1 F1000 X0.3901 Y6.3901 Z-0.1000 S1000
G1 F1000 X0.4000 Y6.0411 Z-0.1000 S1000
G1 F1000 X0.4301 Y5.6933 Z-0.1000 S1000
G1 F1000 X0.4802 Y5.3479 Z-0.1000 S1000
G1 F1000 X0.5505 Y5.0060 Z-0.1000 S1000
G1 F1000 X0.6406 Y4.6688 Z-0.1000 S1000
G1 F1000 X0.7504 Y4.3374 Z-0.1000 S1000
G1 F1000 X0.8794 Y4.0130 Z-0.1000 S1000
G1 F1000 X1.0271 Y3.6968 Z-0.1000 S1000
G1 F1000 X1.1930 Y3.3897 Z-0.1000 S1000
G1 F1000 X1.3766 Y3.0927 Z-0.1000 S1000
G1 F1000 X1.5770 Y2.8070 Z-0.1000 S1000
G1 F1000 X1.7937 Y2.5333 Z-0.1000 S1000
G1 F1000 X2.0259 Y2.2727 Z-0.1000 S1000
G1 F1000 X2.2727 Y2.0258 Z-0.1000 S1000
G1 F1000 X2.5334 Y1.7937 Z-0.1000 S1000
G1 F1000 X2.8071 Y1.5770 Z-0.1000 S1000
G1 F1000 X3.0929 Y1.3766 Z-0.1000 S1000
G1 F1000 X3.3898 Y1.1931 Z-0.1000 S1000
G1 F1000 X3.6969 Y1.0272 Z-0.1000 S1000
G1 F1000 X4.0132 Y0.8794 Z-0.1000 S1000
G1 F1000 X4.3376 Y0.7505 Z-0.1000 S1000
G1 F1000 X4.6689 Y0.6407 Z-0.1000 S1000
G1 F1000 X5.0061 Y0.5506 Z-0.1000 S1000
G1 F1000 X5.3481 Y0.4804 Z-0.1000 S1000
G1 F1000 X5.6935 Y0.4302 Z-0.1000 S1000
G1 F1000 X6.0413 Y0.4002 Z-0.1000 S1000
G1 F1000 X6.3902 Y0.3902 Z-0.1000 S1000
G1 F1000 X134.3932 Y0.3902 Z-0.1000 S1000
G1 F1000 X134.3932 Y0.3902 Z-0.1000 S1000
G1 F1000 X134.7422 Y0.4002 Z-0.1000 S1000
G1 F1000 X135.0899 Y0.4302 Z-0.1000 S1000
G1 F1000 X135.4354 Y0.4804 Z-0.1000 S1000
G1 F1000 X135.7773 Y0.5506 Z-0.1000 S1000
G1 F1000 X136.1145 Y0.6407 Z-0.1000 S1000
G1 F1000 X136.4459 Y0.7504 Z-0.1000 S1000
G1 F1000 X136.7703 Y0.8794 Z-0.1000 S1000
G1 F1000 X137.0866 Y1.0271 Z-0.1000 S1000
G1 F1000 X137.3937 Y1.1930 Z-0.1000 S1000
G1 F1000 X137.6906 Y1.3765 Z-0.1000 S1000
G1 F1000 X137.9764 Y1.5770 Z-0.1000 S1000
G1 F1000 X138.2501 Y1.7936 Z-0.1000 S1000
G1 F1000 X138.5108 Y2.0258 Z-0.1000 S1000
G1 F1000 X138.7576 Y2.2726 Z-0.1000 S1000
G1 F1000 X138.9898 Y2.5333 Z-0.1000 S1000
G1 F1000 X139.2065 Y2.8069 Z-0.1000 S1000
G1 F1000 X139.4069 Y3.0927 Z-0.1000 S1000
G1 F1000 X139.5905 Y3.3896 Z-0.1000 S1000
G1 F1000 X139.7564 Y3.6967 Z-0.1000 S1000
G1 F1000 X139.9041 Y4.0130 Z-0.1000 S1000
G1 F1000 X140.0331 Y4.3374 Z-0.1000 S1000
G1 F1000 X140.1428 Y4.6687 Z-0.1000 S1000
G1 F1000 X140.2330 Y5.0060 Z-0.1000 S1000
G1 F1000 X140.3032 Y5.3479 Z-0.1000 S1000
G1 F1000 X140.3534 Y5.6933 Z-0.1000 S1000
G1 F1000 X140.3834 Y6.0411 Z-0.1000 S1000
G1 F1000 X140.3934 Y6.3901 Z-0.1000 S1000
G1 F1000 X140.3934 Y74.3923 Z-0.1000 S1000
G1 F1000 X140.3934 Y74.3923 Z-0.1000 S1000
G1 F1000 X140.3834 Y74.7412 Z-0.1000 S1000
G1 F1000 X140.3534 Y75.0890 Z-0.1000 S1000
G1 F1000 X140.3032 Y75.4345 Z-0.1000 S1000
G1 F1000 X140.2330 Y75.7764 Z-0.1000 S1000
G1 F1000 X140.1428 Y76.1136 Z-0.1000 S1000
G1 F1000 X140.0331 Y76.4450 Z-0.1000 S1000
G1 F1000 X139.9041 Y76.7694 Z-0.1000 S1000
G1 F1000 X139.7564 Y77.0857 Z-0.1000 S1000
G1 F1000 X139.5905 Y77.3928 Z-0.1000 S1000
G1 F1000 X139.4069 Y77.6897 Z-0.1000 S1000
G1 F1000 X139.2065 Y77.9755 Z-0.1000 S1000
G1 F1000 X138.9898 Y78.2492 Z-0.1000 S1000
G1 F1000 X138.7576 Y78.5099 Z-0.1000 S1000
G1 F1000 X138.5108 Y78.7567 Z-0.1000 S1000
G1 F1000 X138.2501 Y78.9889 Z-0.1000 S1000
G1 F1000 X137.9764 Y79.2055 Z-0.1000 S1000
G1 F1000 X137.6907 Y79.4060 Z-0.1000 S1000
G1 F1000 X137.3937 Y79.5895 Z-0.1000 S1000
G1 F1000 X137.0866 Y79.7555 Z-0.1000 S1000
G1 F1000 X136.7703 Y79.9032 Z-0.1000 S1000
G1 F1000 X136.4459 Y80.0322 Z-0.1000 S1000
G1 F1000 X136.1146 Y80.1419 Z-0.1000 S1000
G1 F1000 X135.7773 Y80.2320 Z-0.1000 S1000
G1 F1000 X135.4354 Y80.3023 Z-0.1000 S1000
G1 F1000 X135.0899 Y80.3524 Z-0.1000 S1000
G1 F1000 X134.7422 Y80.3825 Z-0.1000 S1000
G1 F1000 X134.3932 Y80.3925 Z-0.1000 S1000
G1 F1000 X134.3932 Y80.3925 Z-0.1000 S1000
; retracting back to z-safe
G0 Z10

M5; Laser Off
