; GCODE Generated by cam.openbuilds.com on 2023-02-08 
G21 ; mm-mode
G54; Work Coordinates
G21; mm-mode
G90; Absolute Positioning
M3; Constant Power Laser On

; Pass 0
; Operation 0: Laser: Vector (no path offset)
; Laser Spot Diameter: 0.1

G0 Z10; move to z-safe height
G0 F1000 X105.8813 Y74.2445

G0 Z0
G1 F300 Z-0.1000
G1 F1000 X105.8813 Y74.2445 Z-0.1000 S1000
G1 F1000 X105.9230 Y74.6173 Z-0.1000 S1000
G1 F1000 X106.0468 Y74.9714 Z-0.1000 S1000
G1 F1000 X106.2467 Y75.2889 Z-0.1000 S1000
G1 F1000 X106.5119 Y75.5542 Z-0.1000 S1000
G1 F1000 X106.8294 Y75.7540 Z-0.1000 S1000
G1 F1000 X107.1835 Y75.8779 Z-0.1000 S1000
G1 F1000 X107.5564 Y75.9195 Z-0.1000 S1000
G1 F1000 X107.5564 Y75.9195 Z-0.1000 S1000
G1 F1000 X107.9292 Y75.8779 Z-0.1000 S1000
G1 F1000 X108.2833 Y75.7540 Z-0.1000 S1000
G1 F1000 X108.6008 Y75.5542 Z-0.1000 S1000
G1 F1000 X108.8660 Y75.2889 Z-0.1000 S1000
G1 F1000 X109.0659 Y74.9714 Z-0.1000 S1000
G1 F1000 X109.1898 Y74.6173 Z-0.1000 S1000
G1 F1000 X109.2314 Y74.2445 Z-0.1000 S1000
G1 F1000 X109.2314 Y74.2445 Z-0.1000 S1000
G1 F1000 X109.1897 Y73.8716 Z-0.1000 S1000
G1 F1000 X109.0658 Y73.5176 Z-0.1000 S1000
G1 F1000 X108.8660 Y73.2001 Z-0.1000 S1000
G1 F1000 X108.6007 Y72.9348 Z-0.1000 S1000
G1 F1000 X108.2832 Y72.7350 Z-0.1000 S1000
G1 F1000 X107.9292 Y72.6111 Z-0.1000 S1000
G1 F1000 X107.5564 Y72.5694 Z-0.1000 S1000
G1 F1000 X107.5564 Y72.5694 Z-0.1000 S1000
G1 F1000 X107.1835 Y72.6111 Z-0.1000 S1000
G1 F1000 X106.8295 Y72.7350 Z-0.1000 S1000
G1 F1000 X106.5120 Y72.9348 Z-0.1000 S1000
G1 F1000 X106.2467 Y73.2001 Z-0.1000 S1000
G1 F1000 X106.0469 Y73.5176 Z-0.1000 S1000
G1 F1000 X105.9230 Y73.8716 Z-0.1000 S1000
G1 F1000 X105.8813 Y74.2445 Z-0.1000 S1000
G1 F1000 X105.8813 Y74.2445 Z-0.1000 S1000

G0 Z10; move to z-safe height
G0 X7.7291 Y17.7431

G0 Z0
G1 F300 Z-0.1000
G1 F1000 X7.7291 Y17.7431 Z-0.1000 S1000
G1 F1000 X7.6874 Y18.1159 Z-0.1000 S1000
G1 F1000 X7.5635 Y18.4700 Z-0.1000 S1000
G1 F1000 X7.3637 Y18.7874 Z-0.1000 S1000
G1 F1000 X7.0984 Y19.0527 Z-0.1000 S1000
G1 F1000 X6.7809 Y19.2526 Z-0.1000 S1000
G1 F1000 X6.4269 Y19.3764 Z-0.1000 S1000
G1 F1000 X6.0540 Y19.4181 Z-0.1000 S1000
G1 F1000 X6.0540 Y19.4181 Z-0.1000 S1000
G1 F1000 X5.6812 Y19.3764 Z-0.1000 S1000
G1 F1000 X5.3271 Y19.2526 Z-0.1000 S1000
G1 F1000 X5.0097 Y19.0527 Z-0.1000 S1000
G1 F1000 X4.7444 Y18.7874 Z-0.1000 S1000
G1 F1000 X4.5446 Y18.4700 Z-0.1000 S1000
G1 F1000 X4.4207 Y18.1159 Z-0.1000 S1000
G1 F1000 X4.3790 Y17.7431 Z-0.1000 S1000
G1 F1000 X4.3790 Y17.7431 Z-0.1000 S1000
G1 F1000 X4.4206 Y17.3702 Z-0.1000 S1000
G1 F1000 X4.5445 Y17.0161 Z-0.1000 S1000
G1 F1000 X4.7443 Y16.6986 Z-0.1000 S1000
G1 F1000 X5.0096 Y16.4334 Z-0.1000 S1000
G1 F1000 X5.3271 Y16.2335 Z-0.1000 S1000
G1 F1000 X5.6812 Y16.1097 Z-0.1000 S1000
G1 F1000 X6.0540 Y16.0680 Z-0.1000 S1000
G1 F1000 X6.0540 Y16.0680 Z-0.1000 S1000
G1 F1000 X6.4269 Y16.1097 Z-0.1000 S1000
G1 F1000 X6.7810 Y16.2335 Z-0.1000 S1000
G1 F1000 X7.0984 Y16.4334 Z-0.1000 S1000
G1 F1000 X7.3637 Y16.6986 Z-0.1000 S1000
G1 F1000 X7.5636 Y17.0161 Z-0.1000 S1000
G1 F1000 X7.6874 Y17.3702 Z-0.1000 S1000
G1 F1000 X7.7291 Y17.7431 Z-0.1000 S1000
G1 F1000 X7.7291 Y17.7431 Z-0.1000 S1000

G0 Z10; move to z-safe height
G0 X68.3805 Y6.2427

G0 Z0
G1 F300 Z-0.1000
G1 F1000 X68.3805 Y6.2427 Z-0.1000 S1000
G1 F1000 X68.4221 Y6.6155 Z-0.1000 S1000
G1 F1000 X68.5460 Y6.9696 Z-0.1000 S1000
G1 F1000 X68.7459 Y7.2870 Z-0.1000 S1000
G1 F1000 X69.0111 Y7.5523 Z-0.1000 S1000
G1 F1000 X69.3286 Y7.7521 Z-0.1000 S1000
G1 F1000 X69.6827 Y7.8760 Z-0.1000 S1000
G1 F1000 X70.0555 Y7.9177 Z-0.1000 S1000
G1 F1000 X70.0555 Y7.9177 Z-0.1000 S1000
G1 F1000 X70.4283 Y7.8761 Z-0.1000 S1000
G1 F1000 X70.7824 Y7.7522 Z-0.1000 S1000
G1 F1000 X71.0999 Y7.5524 Z-0.1000 S1000
G1 F1000 X71.3652 Y7.2871 Z-0.1000 S1000
G1 F1000 X71.5650 Y6.9696 Z-0.1000 S1000
G1 F1000 X71.6889 Y6.6155 Z-0.1000 S1000
G1 F1000 X71.7305 Y6.2427 Z-0.1000 S1000
G1 F1000 X71.7305 Y6.2427 Z-0.1000 S1000
G1 F1000 X71.6889 Y5.8698 Z-0.1000 S1000
G1 F1000 X71.5650 Y5.5157 Z-0.1000 S1000
G1 F1000 X71.3652 Y5.1982 Z-0.1000 S1000
G1 F1000 X71.0999 Y4.9330 Z-0.1000 S1000
G1 F1000 X70.7824 Y4.7331 Z-0.1000 S1000
G1 F1000 X70.4283 Y4.6093 Z-0.1000 S1000
G1 F1000 X70.0555 Y4.5676 Z-0.1000 S1000
G1 F1000 X70.0555 Y4.5676 Z-0.1000 S1000
G1 F1000 X69.6827 Y4.6093 Z-0.1000 S1000
G1 F1000 X69.3286 Y4.7332 Z-0.1000 S1000
G1 F1000 X69.0111 Y4.9330 Z-0.1000 S1000
G1 F1000 X68.7459 Y5.1983 Z-0.1000 S1000
G1 F1000 X68.5460 Y5.5158 Z-0.1000 S1000
G1 F1000 X68.4221 Y5.8698 Z-0.1000 S1000
G1 F1000 X68.3805 Y6.2427 Z-0.1000 S1000
G1 F1000 X68.3805 Y6.2427 Z-0.1000 S1000

G0 Z10; move to z-safe height
G0 X132.3820 Y17.7431

G0 Z0
G1 F300 Z-0.1000
G1 F1000 X132.3820 Y17.7431 Z-0.1000 S1000
G1 F1000 X132.4236 Y18.1159 Z-0.1000 S1000
G1 F1000 X132.5475 Y18.4700 Z-0.1000 S1000
G1 F1000 X132.7474 Y18.7874 Z-0.1000 S1000
G1 F1000 X133.0126 Y19.0527 Z-0.1000 S1000
G1 F1000 X133.3301 Y19.2526 Z-0.1000 S1000
G1 F1000 X133.6842 Y19.3764 Z-0.1000 S1000
G1 F1000 X134.0570 Y19.4181 Z-0.1000 S1000
G1 F1000 X134.0570 Y19.4181 Z-0.1000 S1000
G1 F1000 X134.4298 Y19.3764 Z-0.1000 S1000
G1 F1000 X134.7839 Y19.2526 Z-0.1000 S1000
G1 F1000 X135.1013 Y19.0527 Z-0.1000 S1000
G1 F1000 X135.3666 Y18.7874 Z-0.1000 S1000
G1 F1000 X135.5665 Y18.4700 Z-0.1000 S1000
G1 F1000 X135.6904 Y18.1159 Z-0.1000 S1000
G1 F1000 X135.7320 Y17.7431 Z-0.1000 S1000
G1 F1000 X135.7320 Y17.7431 Z-0.1000 S1000
G1 F1000 X135.6904 Y17.3702 Z-0.1000 S1000
G1 F1000 X135.5665 Y17.0161 Z-0.1000 S1000
G1 F1000 X135.3667 Y16.6986 Z-0.1000 S1000
G1 F1000 X135.1014 Y16.4334 Z-0.1000 S1000
G1 F1000 X134.7839 Y16.2335 Z-0.1000 S1000
G1 F1000 X134.4298 Y16.1097 Z-0.1000 S1000
G1 F1000 X134.0570 Y16.0680 Z-0.1000 S1000
G1 F1000 X134.0570 Y16.0680 Z-0.1000 S1000
G1 F1000 X133.6841 Y16.1097 Z-0.1000 S1000
G1 F1000 X133.3300 Y16.2335 Z-0.1000 S1000
G1 F1000 X133.0126 Y16.4334 Z-0.1000 S1000
G1 F1000 X132.7473 Y16.6986 Z-0.1000 S1000
G1 F1000 X132.5474 Y17.0161 Z-0.1000 S1000
G1 F1000 X132.4236 Y17.3702 Z-0.1000 S1000
G1 F1000 X132.3820 Y17.7431 Z-0.1000 S1000
G1 F1000 X132.3820 Y17.7431 Z-0.1000 S1000

G0 Z10; move to z-safe height
G0 X34.2297 Y74.2445

G0 Z0
G1 F300 Z-0.1000
G1 F1000 X34.2297 Y74.2445 Z-0.1000 S1000
G1 F1000 X34.1881 Y74.6173 Z-0.1000 S1000
G1 F1000 X34.0642 Y74.9714 Z-0.1000 S1000
G1 F1000 X33.8644 Y75.2889 Z-0.1000 S1000
G1 F1000 X33.5991 Y75.5542 Z-0.1000 S1000
G1 F1000 X33.2816 Y75.7541 Z-0.1000 S1000
G1 F1000 X32.9275 Y75.8779 Z-0.1000 S1000
G1 F1000 X32.5547 Y75.9195 Z-0.1000 S1000
G1 F1000 X32.5547 Y75.9195 Z-0.1000 S1000
G1 F1000 X32.1818 Y75.8779 Z-0.1000 S1000
G1 F1000 X31.8277 Y75.7540 Z-0.1000 S1000
G1 F1000 X31.5102 Y75.5542 Z-0.1000 S1000
G1 F1000 X31.2450 Y75.2889 Z-0.1000 S1000
G1 F1000 X31.0451 Y74.9714 Z-0.1000 S1000
G1 F1000 X30.9213 Y74.6173 Z-0.1000 S1000
G1 F1000 X30.8796 Y74.2445 Z-0.1000 S1000
G1 F1000 X30.8796 Y74.2445 Z-0.1000 S1000
G1 F1000 X30.9213 Y73.8716 Z-0.1000 S1000
G1 F1000 X31.0452 Y73.5176 Z-0.1000 S1000
G1 F1000 X31.2450 Y73.2001 Z-0.1000 S1000
G1 F1000 X31.5103 Y72.9348 Z-0.1000 S1000
G1 F1000 X31.8278 Y72.7350 Z-0.1000 S1000
G1 F1000 X32.1818 Y72.6111 Z-0.1000 S1000
G1 F1000 X32.5547 Y72.5694 Z-0.1000 S1000
G1 F1000 X32.5547 Y72.5694 Z-0.1000 S1000
G1 F1000 X32.9275 Y72.6111 Z-0.1000 S1000
G1 F1000 X33.2816 Y72.7349 Z-0.1000 S1000
G1 F1000 X33.5991 Y72.9348 Z-0.1000 S1000
G1 F1000 X33.8643 Y73.2000 Z-0.1000 S1000
G1 F1000 X34.0642 Y73.5175 Z-0.1000 S1000
G1 F1000 X34.1880 Y73.8716 Z-0.1000 S1000
G1 F1000 X34.2297 Y74.2445 Z-0.1000 S1000
G1 F1000 X34.2297 Y74.2445 Z-0.1000 S1000

G0 Z10; move to z-safe height
G0 X38.0548 Y14.2429

G0 Z0
G1 F300 Z-0.1000
G1 F1000 X38.0248 Y13.8956 Z-0.1000 S1000
G1 F1000 X37.9347 Y13.5587 Z-0.1000 S1000
G1 F1000 X37.7872 Y13.2429 Z-0.1000 S1000
G1 F1000 X37.5869 Y12.9574 Z-0.1000 S1000
G1 F1000 X37.3404 Y12.7109 Z-0.1000 S1000
G1 F1000 X37.0550 Y12.5107 Z-0.1000 S1000
G1 F1000 X36.7391 Y12.3631 Z-0.1000 S1000
G1 F1000 X36.4023 Y12.2730 Z-0.1000 S1000
G1 F1000 X36.0549 Y12.2430 Z-0.1000 S1000
G1 F1000 X29.0546 Y12.2430 Z-0.1000 S1000
G1 F1000 X28.7072 Y12.2730 Z-0.1000 S1000
G1 F1000 X28.3704 Y12.3631 Z-0.1000 S1000
G1 F1000 X28.0545 Y12.5106 Z-0.1000 S1000
G1 F1000 X27.7690 Y12.7108 Z-0.1000 S1000
G1 F1000 X27.5225 Y12.9574 Z-0.1000 S1000
G1 F1000 X27.3222 Y13.2428 Z-0.1000 S1000
G1 F1000 X27.1747 Y13.5587 Z-0.1000 S1000
G1 F1000 X27.0847 Y13.8955 Z-0.1000 S1000
G1 F1000 X27.0546 Y14.2429 Z-0.1000 S1000
G1 F1000 X27.0546 Y21.2429 Z-0.1000 S1000
G1 F1000 X27.0847 Y21.5903 Z-0.1000 S1000
G1 F1000 X27.1747 Y21.9272 Z-0.1000 S1000
G1 F1000 X27.3222 Y22.2432 Z-0.1000 S1000
G1 F1000 X27.5224 Y22.5287 Z-0.1000 S1000
G1 F1000 X27.7689 Y22.7753 Z-0.1000 S1000
G1 F1000 X28.0544 Y22.9755 Z-0.1000 S1000
G1 F1000 X28.3703 Y23.1231 Z-0.1000 S1000
G1 F1000 X28.7072 Y23.2132 Z-0.1000 S1000
G1 F1000 X29.0546 Y23.2432 Z-0.1000 S1000
G1 F1000 X36.0549 Y23.2432 Z-0.1000 S1000
G1 F1000 X36.4023 Y23.2131 Z-0.1000 S1000
G1 F1000 X36.7391 Y23.1231 Z-0.1000 S1000
G1 F1000 X37.0550 Y22.9755 Z-0.1000 S1000
G1 F1000 X37.3405 Y22.7752 Z-0.1000 S1000
G1 F1000 X37.5870 Y22.5286 Z-0.1000 S1000
G1 F1000 X37.7872 Y22.2431 Z-0.1000 S1000
G1 F1000 X37.9347 Y21.9272 Z-0.1000 S1000
G1 F1000 X38.0248 Y21.5903 Z-0.1000 S1000
G1 F1000 X38.0548 Y21.2429 Z-0.1000 S1000
G1 F1000 X38.0548 Y14.2429 Z-0.1000 S1000
G1 F1000 X38.0548 Y14.2429 Z-0.1000 S1000

G0 Z10; move to z-safe height
G0 X38.0548 Y59.2441

G0 Z0
G1 F300 Z-0.1000
G1 F1000 X38.0248 Y58.8967 Z-0.1000 S1000
G1 F1000 X37.9347 Y58.5599 Z-0.1000 S1000
G1 F1000 X37.7872 Y58.2440 Z-0.1000 S1000
G1 F1000 X37.5869 Y57.9586 Z-0.1000 S1000
G1 F1000 X37.3404 Y57.7121 Z-0.1000 S1000
G1 F1000 X37.0550 Y57.5118 Z-0.1000 S1000
G1 F1000 X36.7391 Y57.3643 Z-0.1000 S1000
G1 F1000 X36.4023 Y57.2742 Z-0.1000 S1000
G1 F1000 X36.0549 Y57.2441 Z-0.1000 S1000
G1 F1000 X29.0546 Y57.2441 Z-0.1000 S1000
G1 F1000 X28.7072 Y57.2742 Z-0.1000 S1000
G1 F1000 X28.3704 Y57.3642 Z-0.1000 S1000
G1 F1000 X28.0545 Y57.5118 Z-0.1000 S1000
G1 F1000 X27.7690 Y57.7120 Z-0.1000 S1000
G1 F1000 X27.5225 Y57.9585 Z-0.1000 S1000
G1 F1000 X27.3222 Y58.2440 Z-0.1000 S1000
G1 F1000 X27.1747 Y58.5599 Z-0.1000 S1000
G1 F1000 X27.0847 Y58.8967 Z-0.1000 S1000
G1 F1000 X27.0546 Y59.2441 Z-0.1000 S1000
G1 F1000 X27.0546 Y66.2441 Z-0.1000 S1000
G1 F1000 X27.0847 Y66.5915 Z-0.1000 S1000
G1 F1000 X27.1747 Y66.9284 Z-0.1000 S1000
G1 F1000 X27.3222 Y67.2443 Z-0.1000 S1000
G1 F1000 X27.5224 Y67.5299 Z-0.1000 S1000
G1 F1000 X27.7689 Y67.7765 Z-0.1000 S1000
G1 F1000 X28.0544 Y67.9767 Z-0.1000 S1000
G1 F1000 X28.3703 Y68.1243 Z-0.1000 S1000
G1 F1000 X28.7072 Y68.2143 Z-0.1000 S1000
G1 F1000 X29.0546 Y68.2444 Z-0.1000 S1000
G1 F1000 X36.0549 Y68.2444 Z-0.1000 S1000
G1 F1000 X36.4023 Y68.2143 Z-0.1000 S1000
G1 F1000 X36.7391 Y68.1242 Z-0.1000 S1000
G1 F1000 X37.0550 Y67.9767 Z-0.1000 S1000
G1 F1000 X37.3405 Y67.7764 Z-0.1000 S1000
G1 F1000 X37.5870 Y67.5298 Z-0.1000 S1000
G1 F1000 X37.7872 Y67.2443 Z-0.1000 S1000
G1 F1000 X37.9347 Y66.9284 Z-0.1000 S1000
G1 F1000 X38.0248 Y66.5915 Z-0.1000 S1000
G1 F1000 X38.0548 Y66.2441 Z-0.1000 S1000
G1 F1000 X38.0548 Y59.2441 Z-0.1000 S1000
G1 F1000 X38.0548 Y59.2441 Z-0.1000 S1000

G0 Z10; move to z-safe height
G0 X38.0548 Y29.2433

G0 Z0
G1 F300 Z-0.1000
G1 F1000 X38.0248 Y28.8959 Z-0.1000 S1000
G1 F1000 X37.9347 Y28.5591 Z-0.1000 S1000
G1 F1000 X37.7872 Y28.2432 Z-0.1000 S1000
G1 F1000 X37.5869 Y27.9577 Z-0.1000 S1000
G1 F1000 X37.3404 Y27.7112 Z-0.1000 S1000
G1 F1000 X37.0550 Y27.5110 Z-0.1000 S1000
G1 F1000 X36.7391 Y27.3634 Z-0.1000 S1000
G1 F1000 X36.4023 Y27.2734 Z-0.1000 S1000
G1 F1000 X36.0549 Y27.2433 Z-0.1000 S1000
G1 F1000 X29.0546 Y27.2433 Z-0.1000 S1000
G1 F1000 X28.7072 Y27.2734 Z-0.1000 S1000
G1 F1000 X28.3704 Y27.3634 Z-0.1000 S1000
G1 F1000 X28.0545 Y27.5109 Z-0.1000 S1000
G1 F1000 X27.7690 Y27.7111 Z-0.1000 S1000
G1 F1000 X27.5225 Y27.9577 Z-0.1000 S1000
G1 F1000 X27.3222 Y28.2431 Z-0.1000 S1000
G1 F1000 X27.1747 Y28.5590 Z-0.1000 S1000
G1 F1000 X27.0847 Y28.8959 Z-0.1000 S1000
G1 F1000 X27.0546 Y29.2433 Z-0.1000 S1000
G1 F1000 X27.0546 Y36.2436 Z-0.1000 S1000
G1 F1000 X27.0847 Y36.5910 Z-0.1000 S1000
G1 F1000 X27.1747 Y36.9278 Z-0.1000 S1000
G1 F1000 X27.3222 Y37.2437 Z-0.1000 S1000
G1 F1000 X27.5225 Y37.5292 Z-0.1000 S1000
G1 F1000 X27.7690 Y37.7757 Z-0.1000 S1000
G1 F1000 X28.0545 Y37.9759 Z-0.1000 S1000
G1 F1000 X28.3704 Y38.1235 Z-0.1000 S1000
G1 F1000 X28.7072 Y38.2135 Z-0.1000 S1000
G1 F1000 X29.0546 Y38.2436 Z-0.1000 S1000
G1 F1000 X36.0549 Y38.2436 Z-0.1000 S1000
G1 F1000 X36.4023 Y38.2135 Z-0.1000 S1000
G1 F1000 X36.7391 Y38.1234 Z-0.1000 S1000
G1 F1000 X37.0550 Y37.9759 Z-0.1000 S1000
G1 F1000 X37.3404 Y37.7757 Z-0.1000 S1000
G1 F1000 X37.5869 Y37.5291 Z-0.1000 S1000
G1 F1000 X37.7872 Y37.2437 Z-0.1000 S1000
G1 F1000 X37.9347 Y36.9278 Z-0.1000 S1000
G1 F1000 X38.0248 Y36.5910 Z-0.1000 S1000
G1 F1000 X38.0548 Y36.2436 Z-0.1000 S1000
G1 F1000 X38.0548 Y29.2433 Z-0.1000 S1000
G1 F1000 X38.0548 Y29.2433 Z-0.1000 S1000

G0 Z10; move to z-safe height
G0 X38.0548 Y44.2436

G0 Z0
G1 F300 Z-0.1000
G1 F1000 X38.0248 Y43.8962 Z-0.1000 S1000
G1 F1000 X37.9347 Y43.5594 Z-0.1000 S1000
G1 F1000 X37.7872 Y43.2435 Z-0.1000 S1000
G1 F1000 X37.5869 Y42.9581 Z-0.1000 S1000
G1 F1000 X37.3404 Y42.7115 Z-0.1000 S1000
G1 F1000 X37.0550 Y42.5113 Z-0.1000 S1000
G1 F1000 X36.7391 Y42.3638 Z-0.1000 S1000
G1 F1000 X36.4023 Y42.2737 Z-0.1000 S1000
G1 F1000 X36.0549 Y42.2436 Z-0.1000 S1000
G1 F1000 X29.0546 Y42.2436 Z-0.1000 S1000
G1 F1000 X28.7072 Y42.2737 Z-0.1000 S1000
G1 F1000 X28.3704 Y42.3637 Z-0.1000 S1000
G1 F1000 X28.0545 Y42.5113 Z-0.1000 S1000
G1 F1000 X27.7690 Y42.7115 Z-0.1000 S1000
G1 F1000 X27.5225 Y42.9580 Z-0.1000 S1000
G1 F1000 X27.3222 Y43.2435 Z-0.1000 S1000
G1 F1000 X27.1747 Y43.5594 Z-0.1000 S1000
G1 F1000 X27.0847 Y43.8962 Z-0.1000 S1000
G1 F1000 X27.0546 Y44.2436 Z-0.1000 S1000
G1 F1000 X27.0546 Y51.2439 Z-0.1000 S1000
G1 F1000 X27.0847 Y51.5913 Z-0.1000 S1000
G1 F1000 X27.1747 Y51.9282 Z-0.1000 S1000
G1 F1000 X27.3222 Y52.2441 Z-0.1000 S1000
G1 F1000 X27.5225 Y52.5295 Z-0.1000 S1000
G1 F1000 X27.7690 Y52.7761 Z-0.1000 S1000
G1 F1000 X28.0545 Y52.9763 Z-0.1000 S1000
G1 F1000 X28.3704 Y53.1238 Z-0.1000 S1000
G1 F1000 X28.7072 Y53.2138 Z-0.1000 S1000
G1 F1000 X29.0546 Y53.2439 Z-0.1000 S1000
G1 F1000 X36.0549 Y53.2439 Z-0.1000 S1000
G1 F1000 X36.4023 Y53.2138 Z-0.1000 S1000
G1 F1000 X36.7391 Y53.1238 Z-0.1000 S1000
G1 F1000 X37.0550 Y52.9762 Z-0.1000 S1000
G1 F1000 X37.3404 Y52.7760 Z-0.1000 S1000
G1 F1000 X37.5869 Y52.5294 Z-0.1000 S1000
G1 F1000 X37.7872 Y52.2440 Z-0.1000 S1000
G1 F1000 X37.9347 Y51.9281 Z-0.1000 S1000
G1 F1000 X38.0248 Y51.5913 Z-0.1000 S1000
G1 F1000 X38.0548 Y51.2439 Z-0.1000 S1000
G1 F1000 X38.0548 Y44.2436 Z-0.1000 S1000
G1 F1000 X38.0548 Y44.2436 Z-0.1000 S1000

G0 Z10; move to z-safe height
G0 X98.0559 Y59.2441

G0 Z0
G1 F300 Z-0.1000
G1 F1000 X98.0259 Y58.8967 Z-0.1000 S1000
G1 F1000 X97.9359 Y58.5599 Z-0.1000 S1000
G1 F1000 X97.7883 Y58.2440 Z-0.1000 S1000
G1 F1000 X97.5881 Y57.9585 Z-0.1000 S1000
G1 F1000 X97.3416 Y57.7120 Z-0.1000 S1000
G1 F1000 X97.0561 Y57.5118 Z-0.1000 S1000
G1 F1000 X96.7402 Y57.3642 Z-0.1000 S1000
G1 F1000 X96.4034 Y57.2742 Z-0.1000 S1000
G1 F1000 X96.0560 Y57.2441 Z-0.1000 S1000
G1 F1000 X89.0557 Y57.2441 Z-0.1000 S1000
G1 F1000 X88.7083 Y57.2742 Z-0.1000 S1000
G1 F1000 X88.3715 Y57.3642 Z-0.1000 S1000
G1 F1000 X88.0556 Y57.5118 Z-0.1000 S1000
G1 F1000 X87.7701 Y57.7120 Z-0.1000 S1000
G1 F1000 X87.5236 Y57.9585 Z-0.1000 S1000
G1 F1000 X87.3234 Y58.2440 Z-0.1000 S1000
G1 F1000 X87.1758 Y58.5599 Z-0.1000 S1000
G1 F1000 X87.0858 Y58.8967 Z-0.1000 S1000
G1 F1000 X87.0557 Y59.2441 Z-0.1000 S1000
G1 F1000 X87.0557 Y66.2441 Z-0.1000 S1000
G1 F1000 X87.0858 Y66.5915 Z-0.1000 S1000
G1 F1000 X87.1758 Y66.9284 Z-0.1000 S1000
G1 F1000 X87.3233 Y67.2443 Z-0.1000 S1000
G1 F1000 X87.5235 Y67.5299 Z-0.1000 S1000
G1 F1000 X87.7700 Y67.7765 Z-0.1000 S1000
G1 F1000 X88.0555 Y67.9767 Z-0.1000 S1000
G1 F1000 X88.3714 Y68.1243 Z-0.1000 S1000
G1 F1000 X88.7083 Y68.2143 Z-0.1000 S1000
G1 F1000 X89.0557 Y68.2444 Z-0.1000 S1000
G1 F1000 X96.0560 Y68.2444 Z-0.1000 S1000
G1 F1000 X96.4034 Y68.2143 Z-0.1000 S1000
G1 F1000 X96.7403 Y68.1243 Z-0.1000 S1000
G1 F1000 X97.0562 Y67.9767 Z-0.1000 S1000
G1 F1000 X97.3417 Y67.7765 Z-0.1000 S1000
G1 F1000 X97.5882 Y67.5299 Z-0.1000 S1000
G1 F1000 X97.7884 Y67.2443 Z-0.1000 S1000
G1 F1000 X97.9359 Y66.9284 Z-0.1000 S1000
G1 F1000 X98.0259 Y66.5915 Z-0.1000 S1000
G1 F1000 X98.0559 Y66.2441 Z-0.1000 S1000
G1 F1000 X98.0559 Y59.2441 Z-0.1000 S1000
G1 F1000 X98.0559 Y59.2441 Z-0.1000 S1000

G0 Z10; move to z-safe height
G0 X53.0551 Y59.2441

G0 Z0
G1 F300 Z-0.1000
G1 F1000 X53.0251 Y58.8967 Z-0.1000 S1000
G1 F1000 X52.9350 Y58.5599 Z-0.1000 S1000
G1 F1000 X52.7875 Y58.2440 Z-0.1000 S1000
G1 F1000 X52.5873 Y57.9585 Z-0.1000 S1000
G1 F1000 X52.3408 Y57.7120 Z-0.1000 S1000
G1 F1000 X52.0553 Y57.5118 Z-0.1000 S1000
G1 F1000 X51.7394 Y57.3642 Z-0.1000 S1000
G1 F1000 X51.4026 Y57.2742 Z-0.1000 S1000
G1 F1000 X51.0552 Y57.2441 Z-0.1000 S1000
G1 F1000 X44.0549 Y57.2441 Z-0.1000 S1000
G1 F1000 X43.7075 Y57.2742 Z-0.1000 S1000
G1 F1000 X43.3707 Y57.3642 Z-0.1000 S1000
G1 F1000 X43.0548 Y57.5118 Z-0.1000 S1000
G1 F1000 X42.7693 Y57.7120 Z-0.1000 S1000
G1 F1000 X42.5228 Y57.9585 Z-0.1000 S1000
G1 F1000 X42.3225 Y58.2440 Z-0.1000 S1000
G1 F1000 X42.1750 Y58.5599 Z-0.1000 S1000
G1 F1000 X42.0850 Y58.8967 Z-0.1000 S1000
G1 F1000 X42.0549 Y59.2441 Z-0.1000 S1000
G1 F1000 X42.0549 Y66.2441 Z-0.1000 S1000
G1 F1000 X42.0850 Y66.5915 Z-0.1000 S1000
G1 F1000 X42.1750 Y66.9284 Z-0.1000 S1000
G1 F1000 X42.3225 Y67.2443 Z-0.1000 S1000
G1 F1000 X42.5227 Y67.5299 Z-0.1000 S1000
G1 F1000 X42.7692 Y67.7765 Z-0.1000 S1000
G1 F1000 X43.0547 Y67.9767 Z-0.1000 S1000
G1 F1000 X43.3706 Y68.1243 Z-0.1000 S1000
G1 F1000 X43.7075 Y68.2143 Z-0.1000 S1000
G1 F1000 X44.0549 Y68.2444 Z-0.1000 S1000
G1 F1000 X51.0552 Y68.2444 Z-0.1000 S1000
G1 F1000 X51.4026 Y68.2143 Z-0.1000 S1000
G1 F1000 X51.7395 Y68.1243 Z-0.1000 S1000
G1 F1000 X52.0554 Y67.9767 Z-0.1000 S1000
G1 F1000 X52.3409 Y67.7765 Z-0.1000 S1000
G1 F1000 X52.5874 Y67.5299 Z-0.1000 S1000
G1 F1000 X52.7876 Y67.2443 Z-0.1000 S1000
G1 F1000 X52.9351 Y66.9284 Z-0.1000 S1000
G1 F1000 X53.0251 Y66.5915 Z-0.1000 S1000
G1 F1000 X53.0551 Y66.2441 Z-0.1000 S1000
G1 F1000 X53.0551 Y59.2441 Z-0.1000 S1000
G1 F1000 X53.0551 Y59.2441 Z-0.1000 S1000

G0 Z10; move to z-safe height
G0 X68.0554 Y59.2441

G0 Z0
G1 F300 Z-0.1000
G1 F1000 X68.0253 Y58.8967 Z-0.1000 S1000
G1 F1000 X67.9353 Y58.5599 Z-0.1000 S1000
G1 F1000 X67.7878 Y58.2440 Z-0.1000 S1000
G1 F1000 X67.5876 Y57.9585 Z-0.1000 S1000
G1 F1000 X67.3410 Y57.7120 Z-0.1000 S1000
G1 F1000 X67.0556 Y57.5118 Z-0.1000 S1000
G1 F1000 X66.7397 Y57.3642 Z-0.1000 S1000
G1 F1000 X66.4028 Y57.2742 Z-0.1000 S1000
G1 F1000 X66.0555 Y57.2441 Z-0.1000 S1000
G1 F1000 X59.0551 Y57.2441 Z-0.1000 S1000
G1 F1000 X58.7078 Y57.2742 Z-0.1000 S1000
G1 F1000 X58.3709 Y57.3642 Z-0.1000 S1000
G1 F1000 X58.0550 Y57.5118 Z-0.1000 S1000
G1 F1000 X57.7696 Y57.7120 Z-0.1000 S1000
G1 F1000 X57.5230 Y57.9585 Z-0.1000 S1000
G1 F1000 X57.3228 Y58.2440 Z-0.1000 S1000
G1 F1000 X57.1753 Y58.5599 Z-0.1000 S1000
G1 F1000 X57.0853 Y58.8967 Z-0.1000 S1000
G1 F1000 X57.0552 Y59.2441 Z-0.1000 S1000
G1 F1000 X57.0552 Y66.2441 Z-0.1000 S1000
G1 F1000 X57.0852 Y66.5915 Z-0.1000 S1000
G1 F1000 X57.1752 Y66.9284 Z-0.1000 S1000
G1 F1000 X57.3228 Y67.2443 Z-0.1000 S1000
G1 F1000 X57.5229 Y67.5299 Z-0.1000 S1000
G1 F1000 X57.7695 Y67.7765 Z-0.1000 S1000
G1 F1000 X58.0549 Y67.9767 Z-0.1000 S1000
G1 F1000 X58.3709 Y68.1243 Z-0.1000 S1000
G1 F1000 X58.7077 Y68.2143 Z-0.1000 S1000
G1 F1000 X59.0551 Y68.2444 Z-0.1000 S1000
G1 F1000 X66.0555 Y68.2444 Z-0.1000 S1000
G1 F1000 X66.4029 Y68.2143 Z-0.1000 S1000
G1 F1000 X66.7397 Y68.1243 Z-0.1000 S1000
G1 F1000 X67.0557 Y67.9767 Z-0.1000 S1000
G1 F1000 X67.3411 Y67.7765 Z-0.1000 S1000
G1 F1000 X67.5877 Y67.5299 Z-0.1000 S1000
G1 F1000 X67.7879 Y67.2443 Z-0.1000 S1000
G1 F1000 X67.9354 Y66.9284 Z-0.1000 S1000
G1 F1000 X68.0254 Y66.5915 Z-0.1000 S1000
G1 F1000 X68.0554 Y66.2441 Z-0.1000 S1000
G1 F1000 X68.0554 Y59.2441 Z-0.1000 S1000
G1 F1000 X68.0554 Y59.2441 Z-0.1000 S1000

G0 Z10; move to z-safe height
G0 X53.0551 Y14.2429

G0 Z0
G1 F300 Z-0.1000
G1 F1000 X53.0251 Y13.8955 Z-0.1000 S1000
G1 F1000 X52.9350 Y13.5587 Z-0.1000 S1000
G1 F1000 X52.7875 Y13.2428 Z-0.1000 S1000
G1 F1000 X52.5873 Y12.9574 Z-0.1000 S1000
G1 F1000 X52.3408 Y12.7108 Z-0.1000 S1000
G1 F1000 X52.0553 Y12.5106 Z-0.1000 S1000
G1 F1000 X51.7394 Y12.3631 Z-0.1000 S1000
G1 F1000 X51.4026 Y12.2730 Z-0.1000 S1000
G1 F1000 X51.0552 Y12.2430 Z-0.1000 S1000
G1 F1000 X44.0549 Y12.2430 Z-0.1000 S1000
G1 F1000 X43.7075 Y12.2730 Z-0.1000 S1000
G1 F1000 X43.3707 Y12.3631 Z-0.1000 S1000
G1 F1000 X43.0548 Y12.5106 Z-0.1000 S1000
G1 F1000 X42.7693 Y12.7108 Z-0.1000 S1000
G1 F1000 X42.5228 Y12.9574 Z-0.1000 S1000
G1 F1000 X42.3225 Y13.2428 Z-0.1000 S1000
G1 F1000 X42.1750 Y13.5587 Z-0.1000 S1000
G1 F1000 X42.0850 Y13.8955 Z-0.1000 S1000
G1 F1000 X42.0549 Y14.2429 Z-0.1000 S1000
G1 F1000 X42.0549 Y21.2429 Z-0.1000 S1000
G1 F1000 X42.0850 Y21.5903 Z-0.1000 S1000
G1 F1000 X42.1750 Y21.9272 Z-0.1000 S1000
G1 F1000 X42.3225 Y22.2432 Z-0.1000 S1000
G1 F1000 X42.5227 Y22.5287 Z-0.1000 S1000
G1 F1000 X42.7692 Y22.7753 Z-0.1000 S1000
G1 F1000 X43.0547 Y22.9755 Z-0.1000 S1000
G1 F1000 X43.3706 Y23.1231 Z-0.1000 S1000
G1 F1000 X43.7075 Y23.2132 Z-0.1000 S1000
G1 F1000 X44.0549 Y23.2432 Z-0.1000 S1000
G1 F1000 X51.0552 Y23.2432 Z-0.1000 S1000
G1 F1000 X51.4026 Y23.2132 Z-0.1000 S1000
G1 F1000 X51.7395 Y23.1231 Z-0.1000 S1000
G1 F1000 X52.0554 Y22.9755 Z-0.1000 S1000
G1 F1000 X52.3409 Y22.7753 Z-0.1000 S1000
G1 F1000 X52.5874 Y22.5287 Z-0.1000 S1000
G1 F1000 X52.7876 Y22.2432 Z-0.1000 S1000
G1 F1000 X52.9351 Y21.9272 Z-0.1000 S1000
G1 F1000 X53.0251 Y21.5903 Z-0.1000 S1000
G1 F1000 X53.0551 Y21.2429 Z-0.1000 S1000
G1 F1000 X53.0551 Y14.2429 Z-0.1000 S1000
G1 F1000 X53.0551 Y14.2429 Z-0.1000 S1000

G0 Z10; move to z-safe height
G0 X83.0557 Y14.2429

G0 Z0
G1 F300 Z-0.1000
G1 F1000 X83.0256 Y13.8955 Z-0.1000 S1000
G1 F1000 X82.9356 Y13.5587 Z-0.1000 S1000
G1 F1000 X82.7881 Y13.2428 Z-0.1000 S1000
G1 F1000 X82.5878 Y12.9574 Z-0.1000 S1000
G1 F1000 X82.3413 Y12.7108 Z-0.1000 S1000
G1 F1000 X82.0558 Y12.5106 Z-0.1000 S1000
G1 F1000 X81.7399 Y12.3631 Z-0.1000 S1000
G1 F1000 X81.4031 Y12.2730 Z-0.1000 S1000
G1 F1000 X81.0557 Y12.2430 Z-0.1000 S1000
G1 F1000 X74.0554 Y12.2430 Z-0.1000 S1000
G1 F1000 X73.7080 Y12.2730 Z-0.1000 S1000
G1 F1000 X73.3712 Y12.3631 Z-0.1000 S1000
G1 F1000 X73.0553 Y12.5106 Z-0.1000 S1000
G1 F1000 X72.7698 Y12.7108 Z-0.1000 S1000
G1 F1000 X72.5233 Y12.9574 Z-0.1000 S1000
G1 F1000 X72.3231 Y13.2428 Z-0.1000 S1000
G1 F1000 X72.1756 Y13.5587 Z-0.1000 S1000
G1 F1000 X72.0855 Y13.8955 Z-0.1000 S1000
G1 F1000 X72.0555 Y14.2429 Z-0.1000 S1000
G1 F1000 X72.0555 Y21.2429 Z-0.1000 S1000
G1 F1000 X72.0855 Y21.5903 Z-0.1000 S1000
G1 F1000 X72.1755 Y21.9272 Z-0.1000 S1000
G1 F1000 X72.3230 Y22.2432 Z-0.1000 S1000
G1 F1000 X72.5232 Y22.5287 Z-0.1000 S1000
G1 F1000 X72.7698 Y22.7753 Z-0.1000 S1000
G1 F1000 X73.0552 Y22.9755 Z-0.1000 S1000
G1 F1000 X73.3711 Y23.1231 Z-0.1000 S1000
G1 F1000 X73.7080 Y23.2132 Z-0.1000 S1000
G1 F1000 X74.0554 Y23.2432 Z-0.1000 S1000
G1 F1000 X81.0557 Y23.2432 Z-0.1000 S1000
G1 F1000 X81.4031 Y23.2132 Z-0.1000 S1000
G1 F1000 X81.7400 Y23.1231 Z-0.1000 S1000
G1 F1000 X82.0559 Y22.9755 Z-0.1000 S1000
G1 F1000 X82.3414 Y22.7753 Z-0.1000 S1000
G1 F1000 X82.5879 Y22.5287 Z-0.1000 S1000
G1 F1000 X82.7881 Y22.2432 Z-0.1000 S1000
G1 F1000 X82.9356 Y21.9272 Z-0.1000 S1000
G1 F1000 X83.0256 Y21.5903 Z-0.1000 S1000
G1 F1000 X83.0557 Y21.2429 Z-0.1000 S1000
G1 F1000 X83.0557 Y14.2429 Z-0.1000 S1000
G1 F1000 X83.0557 Y14.2429 Z-0.1000 S1000

G0 Z10; move to z-safe height
G0 X98.0559 Y14.2429

G0 Z0
G1 F300 Z-0.1000
G1 F1000 X98.0259 Y13.8955 Z-0.1000 S1000
G1 F1000 X97.9359 Y13.5587 Z-0.1000 S1000
G1 F1000 X97.7883 Y13.2428 Z-0.1000 S1000
G1 F1000 X97.5881 Y12.9574 Z-0.1000 S1000
G1 F1000 X97.3416 Y12.7108 Z-0.1000 S1000
G1 F1000 X97.0561 Y12.5106 Z-0.1000 S1000
G1 F1000 X96.7402 Y12.3631 Z-0.1000 S1000
G1 F1000 X96.4034 Y12.2730 Z-0.1000 S1000
G1 F1000 X96.0560 Y12.2430 Z-0.1000 S1000
G1 F1000 X89.0557 Y12.2430 Z-0.1000 S1000
G1 F1000 X88.7083 Y12.2730 Z-0.1000 S1000
G1 F1000 X88.3715 Y12.3631 Z-0.1000 S1000
G1 F1000 X88.0556 Y12.5106 Z-0.1000 S1000
G1 F1000 X87.7701 Y12.7108 Z-0.1000 S1000
G1 F1000 X87.5236 Y12.9574 Z-0.1000 S1000
G1 F1000 X87.3234 Y13.2428 Z-0.1000 S1000
G1 F1000 X87.1758 Y13.5587 Z-0.1000 S1000
G1 F1000 X87.0858 Y13.8955 Z-0.1000 S1000
G1 F1000 X87.0557 Y14.2429 Z-0.1000 S1000
G1 F1000 X87.0557 Y21.2429 Z-0.1000 S1000
G1 F1000 X87.0858 Y21.5903 Z-0.1000 S1000
G1 F1000 X87.1758 Y21.9272 Z-0.1000 S1000
G1 F1000 X87.3233 Y22.2432 Z-0.1000 S1000
G1 F1000 X87.5235 Y22.5287 Z-0.1000 S1000
G1 F1000 X87.7700 Y22.7753 Z-0.1000 S1000
G1 F1000 X88.0555 Y22.9755 Z-0.1000 S1000
G1 F1000 X88.3714 Y23.1231 Z-0.1000 S1000
G1 F1000 X88.7083 Y23.2132 Z-0.1000 S1000
G1 F1000 X89.0557 Y23.2432 Z-0.1000 S1000
G1 F1000 X96.0560 Y23.2432 Z-0.1000 S1000
G1 F1000 X96.4034 Y23.2132 Z-0.1000 S1000
G1 F1000 X96.7403 Y23.1231 Z-0.1000 S1000
G1 F1000 X97.0562 Y22.9755 Z-0.1000 S1000
G1 F1000 X97.3417 Y22.7753 Z-0.1000 S1000
G1 F1000 X97.5882 Y22.5287 Z-0.1000 S1000
G1 F1000 X97.7884 Y22.2432 Z-0.1000 S1000
G1 F1000 X97.9359 Y21.9272 Z-0.1000 S1000
G1 F1000 X98.0259 Y21.5903 Z-0.1000 S1000
G1 F1000 X98.0559 Y21.2429 Z-0.1000 S1000
G1 F1000 X98.0559 Y14.2429 Z-0.1000 S1000
G1 F1000 X98.0559 Y14.2429 Z-0.1000 S1000

G0 Z10; move to z-safe height
G0 X68.0554 Y14.2429

G0 Z0
G1 F300 Z-0.1000
G1 F1000 X68.0253 Y13.8955 Z-0.1000 S1000
G1 F1000 X67.9353 Y13.5587 Z-0.1000 S1000
G1 F1000 X67.7878 Y13.2428 Z-0.1000 S1000
G1 F1000 X67.5876 Y12.9574 Z-0.1000 S1000
G1 F1000 X67.3410 Y12.7108 Z-0.1000 S1000
G1 F1000 X67.0556 Y12.5106 Z-0.1000 S1000
G1 F1000 X66.7397 Y12.3631 Z-0.1000 S1000
G1 F1000 X66.4028 Y12.2730 Z-0.1000 S1000
G1 F1000 X66.0555 Y12.2430 Z-0.1000 S1000
G1 F1000 X59.0551 Y12.2430 Z-0.1000 S1000
G1 F1000 X58.7078 Y12.2730 Z-0.1000 S1000
G1 F1000 X58.3709 Y12.3631 Z-0.1000 S1000
G1 F1000 X58.0550 Y12.5106 Z-0.1000 S1000
G1 F1000 X57.7696 Y12.7108 Z-0.1000 S1000
G1 F1000 X57.5230 Y12.9574 Z-0.1000 S1000
G1 F1000 X57.3228 Y13.2428 Z-0.1000 S1000
G1 F1000 X57.1753 Y13.5587 Z-0.1000 S1000
G1 F1000 X57.0853 Y13.8955 Z-0.1000 S1000
G1 F1000 X57.0552 Y14.2429 Z-0.1000 S1000
G1 F1000 X57.0552 Y21.2429 Z-0.1000 S1000
G1 F1000 X57.0852 Y21.5903 Z-0.1000 S1000
G1 F1000 X57.1752 Y21.9272 Z-0.1000 S1000
G1 F1000 X57.3228 Y22.2432 Z-0.1000 S1000
G1 F1000 X57.5229 Y22.5287 Z-0.1000 S1000
G1 F1000 X57.7695 Y22.7753 Z-0.1000 S1000
G1 F1000 X58.0549 Y22.9755 Z-0.1000 S1000
G1 F1000 X58.3709 Y23.1231 Z-0.1000 S1000
G1 F1000 X58.7077 Y23.2132 Z-0.1000 S1000
G1 F1000 X59.0551 Y23.2432 Z-0.1000 S1000
G1 F1000 X66.0555 Y23.2432 Z-0.1000 S1000
G1 F1000 X66.4029 Y23.2132 Z-0.1000 S1000
G1 F1000 X66.7397 Y23.1231 Z-0.1000 S1000
G1 F1000 X67.0557 Y22.9755 Z-0.1000 S1000
G1 F1000 X67.3411 Y22.7753 Z-0.1000 S1000
G1 F1000 X67.5877 Y22.5287 Z-0.1000 S1000
G1 F1000 X67.7879 Y22.2432 Z-0.1000 S1000
G1 F1000 X67.9354 Y21.9272 Z-0.1000 S1000
G1 F1000 X68.0254 Y21.5903 Z-0.1000 S1000
G1 F1000 X68.0554 Y21.2429 Z-0.1000 S1000
G1 F1000 X68.0554 Y14.2429 Z-0.1000 S1000
G1 F1000 X68.0554 Y14.2429 Z-0.1000 S1000

G0 Z10; move to z-safe height
G0 X23.0544 Y14.2429

G0 Z0
G1 F300 Z-0.1000
G1 F1000 X23.0243 Y13.8955 Z-0.1000 S1000
G1 F1000 X22.9343 Y13.5587 Z-0.1000 S1000
G1 F1000 X22.7868 Y13.2428 Z-0.1000 S1000
G1 F1000 X22.5866 Y12.9574 Z-0.1000 S1000
G1 F1000 X22.3400 Y12.7108 Z-0.1000 S1000
G1 F1000 X22.0546 Y12.5106 Z-0.1000 S1000
G1 F1000 X21.7387 Y12.3631 Z-0.1000 S1000
G1 F1000 X21.4018 Y12.2730 Z-0.1000 S1000
G1 F1000 X21.0544 Y12.2430 Z-0.1000 S1000
G1 F1000 X14.0541 Y12.2430 Z-0.1000 S1000
G1 F1000 X13.7067 Y12.2730 Z-0.1000 S1000
G1 F1000 X13.3699 Y12.3631 Z-0.1000 S1000
G1 F1000 X13.0540 Y12.5106 Z-0.1000 S1000
G1 F1000 X12.7686 Y12.7108 Z-0.1000 S1000
G1 F1000 X12.5220 Y12.9574 Z-0.1000 S1000
G1 F1000 X12.3218 Y13.2428 Z-0.1000 S1000
G1 F1000 X12.1743 Y13.5587 Z-0.1000 S1000
G1 F1000 X12.0842 Y13.8955 Z-0.1000 S1000
G1 F1000 X12.0542 Y14.2429 Z-0.1000 S1000
G1 F1000 X12.0542 Y21.2429 Z-0.1000 S1000
G1 F1000 X12.0842 Y21.5903 Z-0.1000 S1000
G1 F1000 X12.1742 Y21.9272 Z-0.1000 S1000
G1 F1000 X12.3217 Y22.2432 Z-0.1000 S1000
G1 F1000 X12.5219 Y22.5287 Z-0.1000 S1000
G1 F1000 X12.7685 Y22.7753 Z-0.1000 S1000
G1 F1000 X13.0539 Y22.9755 Z-0.1000 S1000
G1 F1000 X13.3698 Y23.1231 Z-0.1000 S1000
G1 F1000 X13.7067 Y23.2132 Z-0.1000 S1000
G1 F1000 X14.0541 Y23.2432 Z-0.1000 S1000
G1 F1000 X21.0544 Y23.2432 Z-0.1000 S1000
G1 F1000 X21.4019 Y23.2132 Z-0.1000 S1000
G1 F1000 X21.7387 Y23.1231 Z-0.1000 S1000
G1 F1000 X22.0546 Y22.9755 Z-0.1000 S1000
G1 F1000 X22.3401 Y22.7753 Z-0.1000 S1000
G1 F1000 X22.5866 Y22.5287 Z-0.1000 S1000
G1 F1000 X22.7868 Y22.2432 Z-0.1000 S1000
G1 F1000 X22.9343 Y21.9272 Z-0.1000 S1000
G1 F1000 X23.0243 Y21.5903 Z-0.1000 S1000
G1 F1000 X23.0544 Y21.2429 Z-0.1000 S1000
G1 F1000 X23.0544 Y14.2429 Z-0.1000 S1000
G1 F1000 X23.0544 Y14.2429 Z-0.1000 S1000

G0 Z10; move to z-safe height
G0 X23.0544 Y59.2441

G0 Z0
G1 F300 Z-0.1000
G1 F1000 X23.0243 Y58.8967 Z-0.1000 S1000
G1 F1000 X22.9343 Y58.5599 Z-0.1000 S1000
G1 F1000 X22.7868 Y58.2440 Z-0.1000 S1000
G1 F1000 X22.5866 Y57.9585 Z-0.1000 S1000
G1 F1000 X22.3400 Y57.7120 Z-0.1000 S1000
G1 F1000 X22.0546 Y57.5118 Z-0.1000 S1000
G1 F1000 X21.7387 Y57.3642 Z-0.1000 S1000
G1 F1000 X21.4018 Y57.2742 Z-0.1000 S1000
G1 F1000 X21.0544 Y57.2441 Z-0.1000 S1000
G1 F1000 X14.0541 Y57.2441 Z-0.1000 S1000
G1 F1000 X13.7067 Y57.2742 Z-0.1000 S1000
G1 F1000 X13.3699 Y57.3642 Z-0.1000 S1000
G1 F1000 X13.0540 Y57.5118 Z-0.1000 S1000
G1 F1000 X12.7686 Y57.7120 Z-0.1000 S1000
G1 F1000 X12.5220 Y57.9585 Z-0.1000 S1000
G1 F1000 X12.3218 Y58.2440 Z-0.1000 S1000
G1 F1000 X12.1743 Y58.5599 Z-0.1000 S1000
G1 F1000 X12.0842 Y58.8967 Z-0.1000 S1000
G1 F1000 X12.0542 Y59.2441 Z-0.1000 S1000
G1 F1000 X12.0542 Y66.2441 Z-0.1000 S1000
G1 F1000 X12.0842 Y66.5915 Z-0.1000 S1000
G1 F1000 X12.1742 Y66.9284 Z-0.1000 S1000
G1 F1000 X12.3217 Y67.2443 Z-0.1000 S1000
G1 F1000 X12.5219 Y67.5299 Z-0.1000 S1000
G1 F1000 X12.7685 Y67.7765 Z-0.1000 S1000
G1 F1000 X13.0539 Y67.9767 Z-0.1000 S1000
G1 F1000 X13.3698 Y68.1243 Z-0.1000 S1000
G1 F1000 X13.7067 Y68.2143 Z-0.1000 S1000
G1 F1000 X14.0541 Y68.2444 Z-0.1000 S1000
G1 F1000 X21.0544 Y68.2444 Z-0.1000 S1000
G1 F1000 X21.4019 Y68.2143 Z-0.1000 S1000
G1 F1000 X21.7387 Y68.1243 Z-0.1000 S1000
G1 F1000 X22.0546 Y67.9767 Z-0.1000 S1000
G1 F1000 X22.3401 Y67.7765 Z-0.1000 S1000
G1 F1000 X22.5866 Y67.5299 Z-0.1000 S1000
G1 F1000 X22.7868 Y67.2443 Z-0.1000 S1000
G1 F1000 X22.9343 Y66.9284 Z-0.1000 S1000
G1 F1000 X23.0243 Y66.5915 Z-0.1000 S1000
G1 F1000 X23.0544 Y66.2441 Z-0.1000 S1000
G1 F1000 X23.0544 Y59.2441 Z-0.1000 S1000
G1 F1000 X23.0544 Y59.2441 Z-0.1000 S1000

G0 Z10; move to z-safe height
G0 X83.0557 Y59.2441

G0 Z0
G1 F300 Z-0.1000
G1 F1000 X83.0256 Y58.8967 Z-0.1000 S1000
G1 F1000 X82.9356 Y58.5599 Z-0.1000 S1000
G1 F1000 X82.7881 Y58.2440 Z-0.1000 S1000
G1 F1000 X82.5878 Y57.9585 Z-0.1000 S1000
G1 F1000 X82.3413 Y57.7120 Z-0.1000 S1000
G1 F1000 X82.0558 Y57.5118 Z-0.1000 S1000
G1 F1000 X81.7399 Y57.3642 Z-0.1000 S1000
G1 F1000 X81.4031 Y57.2742 Z-0.1000 S1000
G1 F1000 X81.0557 Y57.2441 Z-0.1000 S1000
G1 F1000 X74.0554 Y57.2441 Z-0.1000 S1000
G1 F1000 X73.7080 Y57.2742 Z-0.1000 S1000
G1 F1000 X73.3712 Y57.3642 Z-0.1000 S1000
G1 F1000 X73.0553 Y57.5118 Z-0.1000 S1000
G1 F1000 X72.7698 Y57.7120 Z-0.1000 S1000
G1 F1000 X72.5233 Y57.9585 Z-0.1000 S1000
G1 F1000 X72.3231 Y58.2440 Z-0.1000 S1000
G1 F1000 X72.1756 Y58.5599 Z-0.1000 S1000
G1 F1000 X72.0855 Y58.8967 Z-0.1000 S1000
G1 F1000 X72.0555 Y59.2441 Z-0.1000 S1000
G1 F1000 X72.0555 Y66.2441 Z-0.1000 S1000
G1 F1000 X72.0855 Y66.5915 Z-0.1000 S1000
G1 F1000 X72.1755 Y66.9284 Z-0.1000 S1000
G1 F1000 X72.3230 Y67.2443 Z-0.1000 S1000
G1 F1000 X72.5232 Y67.5299 Z-0.1000 S1000
G1 F1000 X72.7698 Y67.7765 Z-0.1000 S1000
G1 F1000 X73.0552 Y67.9767 Z-0.1000 S1000
G1 F1000 X73.3711 Y68.1243 Z-0.1000 S1000
G1 F1000 X73.7080 Y68.2143 Z-0.1000 S1000
G1 F1000 X74.0554 Y68.2444 Z-0.1000 S1000
G1 F1000 X81.0557 Y68.2444 Z-0.1000 S1000
G1 F1000 X81.4031 Y68.2143 Z-0.1000 S1000
G1 F1000 X81.7400 Y68.1243 Z-0.1000 S1000
G1 F1000 X82.0559 Y67.9767 Z-0.1000 S1000
G1 F1000 X82.3414 Y67.7765 Z-0.1000 S1000
G1 F1000 X82.5879 Y67.5299 Z-0.1000 S1000
G1 F1000 X82.7881 Y67.2443 Z-0.1000 S1000
G1 F1000 X82.9356 Y66.9284 Z-0.1000 S1000
G1 F1000 X83.0256 Y66.5915 Z-0.1000 S1000
G1 F1000 X83.0557 Y66.2441 Z-0.1000 S1000
G1 F1000 X83.0557 Y59.2441 Z-0.1000 S1000
G1 F1000 X83.0557 Y59.2441 Z-0.1000 S1000

G0 Z10; move to z-safe height
G0 X53.0551 Y44.2436

G0 Z0
G1 F300 Z-0.1000
G1 F1000 X53.0251 Y43.8962 Z-0.1000 S1000
G1 F1000 X52.9350 Y43.5594 Z-0.1000 S1000
G1 F1000 X52.7875 Y43.2435 Z-0.1000 S1000
G1 F1000 X52.5873 Y42.9580 Z-0.1000 S1000
G1 F1000 X52.3408 Y42.7115 Z-0.1000 S1000
G1 F1000 X52.0553 Y42.5113 Z-0.1000 S1000
G1 F1000 X51.7394 Y42.3637 Z-0.1000 S1000
G1 F1000 X51.4026 Y42.2737 Z-0.1000 S1000
G1 F1000 X51.0552 Y42.2436 Z-0.1000 S1000
G1 F1000 X44.0549 Y42.2436 Z-0.1000 S1000
G1 F1000 X43.7075 Y42.2737 Z-0.1000 S1000
G1 F1000 X43.3707 Y42.3637 Z-0.1000 S1000
G1 F1000 X43.0548 Y42.5113 Z-0.1000 S1000
G1 F1000 X42.7693 Y42.7115 Z-0.1000 S1000
G1 F1000 X42.5228 Y42.9580 Z-0.1000 S1000
G1 F1000 X42.3225 Y43.2435 Z-0.1000 S1000
G1 F1000 X42.1750 Y43.5594 Z-0.1000 S1000
G1 F1000 X42.0850 Y43.8962 Z-0.1000 S1000
G1 F1000 X42.0549 Y44.2436 Z-0.1000 S1000
G1 F1000 X42.0549 Y51.2439 Z-0.1000 S1000
G1 F1000 X42.0850 Y51.5913 Z-0.1000 S1000
G1 F1000 X42.1750 Y51.9282 Z-0.1000 S1000
G1 F1000 X42.3225 Y52.2441 Z-0.1000 S1000
G1 F1000 X42.5228 Y52.5295 Z-0.1000 S1000
G1 F1000 X42.7693 Y52.7761 Z-0.1000 S1000
G1 F1000 X43.0548 Y52.9763 Z-0.1000 S1000
G1 F1000 X43.3707 Y53.1238 Z-0.1000 S1000
G1 F1000 X43.7075 Y53.2138 Z-0.1000 S1000
G1 F1000 X44.0549 Y53.2439 Z-0.1000 S1000
G1 F1000 X51.0552 Y53.2439 Z-0.1000 S1000
G1 F1000 X51.4026 Y53.2138 Z-0.1000 S1000
G1 F1000 X51.7394 Y53.1238 Z-0.1000 S1000
G1 F1000 X52.0553 Y52.9763 Z-0.1000 S1000
G1 F1000 X52.3408 Y52.7761 Z-0.1000 S1000
G1 F1000 X52.5873 Y52.5295 Z-0.1000 S1000
G1 F1000 X52.7875 Y52.2441 Z-0.1000 S1000
G1 F1000 X52.9350 Y51.9282 Z-0.1000 S1000
G1 F1000 X53.0251 Y51.5913 Z-0.1000 S1000
G1 F1000 X53.0551 Y51.2439 Z-0.1000 S1000
G1 F1000 X53.0551 Y44.2436 Z-0.1000 S1000
G1 F1000 X53.0551 Y44.2436 Z-0.1000 S1000

G0 Z10; move to z-safe height
G0 X83.0557 Y44.2436

G0 Z0
G1 F300 Z-0.1000
G1 F1000 X83.0256 Y43.8962 Z-0.1000 S1000
G1 F1000 X82.9356 Y43.5594 Z-0.1000 S1000
G1 F1000 X82.7881 Y43.2435 Z-0.1000 S1000
G1 F1000 X82.5878 Y42.9580 Z-0.1000 S1000
G1 F1000 X82.3413 Y42.7115 Z-0.1000 S1000
G1 F1000 X82.0558 Y42.5113 Z-0.1000 S1000
G1 F1000 X81.7399 Y42.3637 Z-0.1000 S1000
G1 F1000 X81.4031 Y42.2737 Z-0.1000 S1000
G1 F1000 X81.0557 Y42.2436 Z-0.1000 S1000
G1 F1000 X74.0554 Y42.2436 Z-0.1000 S1000
G1 F1000 X73.7080 Y42.2737 Z-0.1000 S1000
G1 F1000 X73.3712 Y42.3637 Z-0.1000 S1000
G1 F1000 X73.0553 Y42.5113 Z-0.1000 S1000
G1 F1000 X72.7698 Y42.7115 Z-0.1000 S1000
G1 F1000 X72.5233 Y42.9580 Z-0.1000 S1000
G1 F1000 X72.3231 Y43.2435 Z-0.1000 S1000
G1 F1000 X72.1756 Y43.5594 Z-0.1000 S1000
G1 F1000 X72.0855 Y43.8962 Z-0.1000 S1000
G1 F1000 X72.0555 Y44.2436 Z-0.1000 S1000
G1 F1000 X72.0555 Y51.2439 Z-0.1000 S1000
G1 F1000 X72.0855 Y51.5913 Z-0.1000 S1000
G1 F1000 X72.1756 Y51.9282 Z-0.1000 S1000
G1 F1000 X72.3231 Y52.2441 Z-0.1000 S1000
G1 F1000 X72.5233 Y52.5295 Z-0.1000 S1000
G1 F1000 X72.7698 Y52.7761 Z-0.1000 S1000
G1 F1000 X73.0553 Y52.9763 Z-0.1000 S1000
G1 F1000 X73.3712 Y53.1238 Z-0.1000 S1000
G1 F1000 X73.7080 Y53.2138 Z-0.1000 S1000
G1 F1000 X74.0554 Y53.2439 Z-0.1000 S1000
G1 F1000 X81.0557 Y53.2439 Z-0.1000 S1000
G1 F1000 X81.4031 Y53.2138 Z-0.1000 S1000
G1 F1000 X81.7399 Y53.1238 Z-0.1000 S1000
G1 F1000 X82.0558 Y52.9763 Z-0.1000 S1000
G1 F1000 X82.3413 Y52.7761 Z-0.1000 S1000
G1 F1000 X82.5878 Y52.5295 Z-0.1000 S1000
G1 F1000 X82.7881 Y52.2441 Z-0.1000 S1000
G1 F1000 X82.9356 Y51.9282 Z-0.1000 S1000
G1 F1000 X83.0256 Y51.5913 Z-0.1000 S1000
G1 F1000 X83.0557 Y51.2439 Z-0.1000 S1000
G1 F1000 X83.0557 Y44.2436 Z-0.1000 S1000
G1 F1000 X83.0557 Y44.2436 Z-0.1000 S1000

G0 Z10; move to z-safe height
G0 X68.0554 Y29.2433

G0 Z0
G1 F300 Z-0.1000
G1 F1000 X68.0253 Y28.8959 Z-0.1000 S1000
G1 F1000 X67.9353 Y28.5590 Z-0.1000 S1000
G1 F1000 X67.7878 Y28.2431 Z-0.1000 S1000
G1 F1000 X67.5876 Y27.9577 Z-0.1000 S1000
G1 F1000 X67.3410 Y27.7111 Z-0.1000 S1000
G1 F1000 X67.0556 Y27.5109 Z-0.1000 S1000
G1 F1000 X66.7397 Y27.3634 Z-0.1000 S1000
G1 F1000 X66.4028 Y27.2734 Z-0.1000 S1000
G1 F1000 X66.0555 Y27.2433 Z-0.1000 S1000
G1 F1000 X59.0551 Y27.2433 Z-0.1000 S1000
G1 F1000 X58.7078 Y27.2734 Z-0.1000 S1000
G1 F1000 X58.3709 Y27.3634 Z-0.1000 S1000
G1 F1000 X58.0550 Y27.5109 Z-0.1000 S1000
G1 F1000 X57.7696 Y27.7111 Z-0.1000 S1000
G1 F1000 X57.5230 Y27.9577 Z-0.1000 S1000
G1 F1000 X57.3228 Y28.2431 Z-0.1000 S1000
G1 F1000 X57.1753 Y28.5590 Z-0.1000 S1000
G1 F1000 X57.0853 Y28.8959 Z-0.1000 S1000
G1 F1000 X57.0552 Y29.2433 Z-0.1000 S1000
G1 F1000 X57.0552 Y36.2436 Z-0.1000 S1000
G1 F1000 X57.0853 Y36.5910 Z-0.1000 S1000
G1 F1000 X57.1753 Y36.9278 Z-0.1000 S1000
G1 F1000 X57.3228 Y37.2437 Z-0.1000 S1000
G1 F1000 X57.5230 Y37.5292 Z-0.1000 S1000
G1 F1000 X57.7696 Y37.7757 Z-0.1000 S1000
G1 F1000 X58.0550 Y37.9759 Z-0.1000 S1000
G1 F1000 X58.3709 Y38.1235 Z-0.1000 S1000
G1 F1000 X58.7078 Y38.2135 Z-0.1000 S1000
G1 F1000 X59.0551 Y38.2436 Z-0.1000 S1000
G1 F1000 X66.0555 Y38.2436 Z-0.1000 S1000
G1 F1000 X66.4028 Y38.2135 Z-0.1000 S1000
G1 F1000 X66.7397 Y38.1235 Z-0.1000 S1000
G1 F1000 X67.0556 Y37.9759 Z-0.1000 S1000
G1 F1000 X67.3410 Y37.7757 Z-0.1000 S1000
G1 F1000 X67.5876 Y37.5292 Z-0.1000 S1000
G1 F1000 X67.7878 Y37.2437 Z-0.1000 S1000
G1 F1000 X67.9353 Y36.9278 Z-0.1000 S1000
G1 F1000 X68.0253 Y36.5910 Z-0.1000 S1000
G1 F1000 X68.0554 Y36.2436 Z-0.1000 S1000
G1 F1000 X68.0554 Y29.2433 Z-0.1000 S1000
G1 F1000 X68.0554 Y29.2433 Z-0.1000 S1000

G0 Z10; move to z-safe height
G0 X23.0544 Y44.2436

G0 Z0
G1 F300 Z-0.1000
G1 F1000 X23.0243 Y43.8962 Z-0.1000 S1000
G1 F1000 X22.9343 Y43.5594 Z-0.1000 S1000
G1 F1000 X22.7868 Y43.2435 Z-0.1000 S1000
G1 F1000 X22.5866 Y42.9580 Z-0.1000 S1000
G1 F1000 X22.3400 Y42.7115 Z-0.1000 S1000
G1 F1000 X22.0546 Y42.5113 Z-0.1000 S1000
G1 F1000 X21.7387 Y42.3637 Z-0.1000 S1000
G1 F1000 X21.4018 Y42.2737 Z-0.1000 S1000
G1 F1000 X21.0544 Y42.2436 Z-0.1000 S1000
G1 F1000 X14.0541 Y42.2436 Z-0.1000 S1000
G1 F1000 X13.7067 Y42.2737 Z-0.1000 S1000
G1 F1000 X13.3699 Y42.3637 Z-0.1000 S1000
G1 F1000 X13.0540 Y42.5113 Z-0.1000 S1000
G1 F1000 X12.7686 Y42.7115 Z-0.1000 S1000
G1 F1000 X12.5220 Y42.9580 Z-0.1000 S1000
G1 F1000 X12.3218 Y43.2435 Z-0.1000 S1000
G1 F1000 X12.1743 Y43.5594 Z-0.1000 S1000
G1 F1000 X12.0842 Y43.8962 Z-0.1000 S1000
G1 F1000 X12.0542 Y44.2436 Z-0.1000 S1000
G1 F1000 X12.0542 Y51.2439 Z-0.1000 S1000
G1 F1000 X12.0842 Y51.5913 Z-0.1000 S1000
G1 F1000 X12.1743 Y51.9282 Z-0.1000 S1000
G1 F1000 X12.3218 Y52.2441 Z-0.1000 S1000
G1 F1000 X12.5220 Y52.5295 Z-0.1000 S1000
G1 F1000 X12.7686 Y52.7761 Z-0.1000 S1000
G1 F1000 X13.0540 Y52.9763 Z-0.1000 S1000
G1 F1000 X13.3699 Y53.1238 Z-0.1000 S1000
G1 F1000 X13.7067 Y53.2138 Z-0.1000 S1000
G1 F1000 X14.0541 Y53.2439 Z-0.1000 S1000
G1 F1000 X21.0544 Y53.2439 Z-0.1000 S1000
G1 F1000 X21.4018 Y53.2138 Z-0.1000 S1000
G1 F1000 X21.7387 Y53.1238 Z-0.1000 S1000
G1 F1000 X22.0546 Y52.9763 Z-0.1000 S1000
G1 F1000 X22.3400 Y52.7761 Z-0.1000 S1000
G1 F1000 X22.5866 Y52.5295 Z-0.1000 S1000
G1 F1000 X22.7868 Y52.2441 Z-0.1000 S1000
G1 F1000 X22.9343 Y51.9282 Z-0.1000 S1000
G1 F1000 X23.0243 Y51.5913 Z-0.1000 S1000
G1 F1000 X23.0544 Y51.2439 Z-0.1000 S1000
G1 F1000 X23.0544 Y44.2436 Z-0.1000 S1000
G1 F1000 X23.0544 Y44.2436 Z-0.1000 S1000

G0 Z10; move to z-safe height
G0 X83.0557 Y29.2433

G0 Z0
G1 F300 Z-0.1000
G1 F1000 X83.0256 Y28.8959 Z-0.1000 S1000
G1 F1000 X82.9356 Y28.5590 Z-0.1000 S1000
G1 F1000 X82.7881 Y28.2431 Z-0.1000 S1000
G1 F1000 X82.5878 Y27.9577 Z-0.1000 S1000
G1 F1000 X82.3413 Y27.7111 Z-0.1000 S1000
G1 F1000 X82.0558 Y27.5109 Z-0.1000 S1000
G1 F1000 X81.7399 Y27.3634 Z-0.1000 S1000
G1 F1000 X81.4031 Y27.2734 Z-0.1000 S1000
G1 F1000 X81.0557 Y27.2433 Z-0.1000 S1000
G1 F1000 X74.0554 Y27.2433 Z-0.1000 S1000
G1 F1000 X73.7080 Y27.2734 Z-0.1000 S1000
G1 F1000 X73.3712 Y27.3634 Z-0.1000 S1000
G1 F1000 X73.0553 Y27.5109 Z-0.1000 S1000
G1 F1000 X72.7698 Y27.7111 Z-0.1000 S1000
G1 F1000 X72.5233 Y27.9577 Z-0.1000 S1000
G1 F1000 X72.3231 Y28.2431 Z-0.1000 S1000
G1 F1000 X72.1756 Y28.5590 Z-0.1000 S1000
G1 F1000 X72.0855 Y28.8959 Z-0.1000 S1000
G1 F1000 X72.0555 Y29.2433 Z-0.1000 S1000
G1 F1000 X72.0555 Y36.2436 Z-0.1000 S1000
G1 F1000 X72.0855 Y36.5910 Z-0.1000 S1000
G1 F1000 X72.1756 Y36.9278 Z-0.1000 S1000
G1 F1000 X72.3231 Y37.2437 Z-0.1000 S1000
G1 F1000 X72.5233 Y37.5292 Z-0.1000 S1000
G1 F1000 X72.7698 Y37.7757 Z-0.1000 S1000
G1 F1000 X73.0553 Y37.9759 Z-0.1000 S1000
G1 F1000 X73.3712 Y38.1235 Z-0.1000 S1000
G1 F1000 X73.7080 Y38.2135 Z-0.1000 S1000
G1 F1000 X74.0554 Y38.2436 Z-0.1000 S1000
G1 F1000 X81.0557 Y38.2436 Z-0.1000 S1000
G1 F1000 X81.4031 Y38.2135 Z-0.1000 S1000
G1 F1000 X81.7399 Y38.1235 Z-0.1000 S1000
G1 F1000 X82.0558 Y37.9759 Z-0.1000 S1000
G1 F1000 X82.3413 Y37.7757 Z-0.1000 S1000
G1 F1000 X82.5878 Y37.5292 Z-0.1000 S1000
G1 F1000 X82.7881 Y37.2437 Z-0.1000 S1000
G1 F1000 X82.9356 Y36.9278 Z-0.1000 S1000
G1 F1000 X83.0256 Y36.5910 Z-0.1000 S1000
G1 F1000 X83.0557 Y36.2436 Z-0.1000 S1000
G1 F1000 X83.0557 Y29.2433 Z-0.1000 S1000
G1 F1000 X83.0557 Y29.2433 Z-0.1000 S1000

G0 Z10; move to z-safe height
G0 X53.0551 Y29.2433

G0 Z0
G1 F300 Z-0.1000
G1 F1000 X53.0251 Y28.8959 Z-0.1000 S1000
G1 F1000 X52.9350 Y28.5590 Z-0.1000 S1000
G1 F1000 X52.7875 Y28.2431 Z-0.1000 S1000
G1 F1000 X52.5873 Y27.9577 Z-0.1000 S1000
G1 F1000 X52.3408 Y27.7111 Z-0.1000 S1000
G1 F1000 X52.0553 Y27.5109 Z-0.1000 S1000
G1 F1000 X51.7394 Y27.3634 Z-0.1000 S1000
G1 F1000 X51.4026 Y27.2734 Z-0.1000 S1000
G1 F1000 X51.0552 Y27.2433 Z-0.1000 S1000
G1 F1000 X44.0549 Y27.2433 Z-0.1000 S1000
G1 F1000 X43.7075 Y27.2734 Z-0.1000 S1000
G1 F1000 X43.3707 Y27.3634 Z-0.1000 S1000
G1 F1000 X43.0548 Y27.5109 Z-0.1000 S1000
G1 F1000 X42.7693 Y27.7111 Z-0.1000 S1000
G1 F1000 X42.5228 Y27.9577 Z-0.1000 S1000
G1 F1000 X42.3225 Y28.2431 Z-0.1000 S1000
G1 F1000 X42.1750 Y28.5590 Z-0.1000 S1000
G1 F1000 X42.0850 Y28.8959 Z-0.1000 S1000
G1 F1000 X42.0549 Y29.2433 Z-0.1000 S1000
G1 F1000 X42.0549 Y36.2436 Z-0.1000 S1000
G1 F1000 X42.0850 Y36.5910 Z-0.1000 S1000
G1 F1000 X42.1750 Y36.9278 Z-0.1000 S1000
G1 F1000 X42.3225 Y37.2437 Z-0.1000 S1000
G1 F1000 X42.5228 Y37.5292 Z-0.1000 S1000
G1 F1000 X42.7693 Y37.7757 Z-0.1000 S1000
G1 F1000 X43.0548 Y37.9759 Z-0.1000 S1000
G1 F1000 X43.3707 Y38.1235 Z-0.1000 S1000
G1 F1000 X43.7075 Y38.2135 Z-0.1000 S1000
G1 F1000 X44.0549 Y38.2436 Z-0.1000 S1000
G1 F1000 X51.0552 Y38.2436 Z-0.1000 S1000
G1 F1000 X51.4026 Y38.2135 Z-0.1000 S1000
G1 F1000 X51.7394 Y38.1235 Z-0.1000 S1000
G1 F1000 X52.0553 Y37.9759 Z-0.1000 S1000
G1 F1000 X52.3408 Y37.7757 Z-0.1000 S1000
G1 F1000 X52.5873 Y37.5292 Z-0.1000 S1000
G1 F1000 X52.7875 Y37.2437 Z-0.1000 S1000
G1 F1000 X52.9350 Y36.9278 Z-0.1000 S1000
G1 F1000 X53.0251 Y36.5910 Z-0.1000 S1000
G1 F1000 X53.0551 Y36.2436 Z-0.1000 S1000
G1 F1000 X53.0551 Y29.2433 Z-0.1000 S1000
G1 F1000 X53.0551 Y29.2433 Z-0.1000 S1000

G0 Z10; move to z-safe height
G0 X68.0554 Y44.2436

G0 Z0
G1 F300 Z-0.1000
G1 F1000 X68.0253 Y43.8962 Z-0.1000 S1000
G1 F1000 X67.9353 Y43.5594 Z-0.1000 S1000
G1 F1000 X67.7878 Y43.2435 Z-0.1000 S1000
G1 F1000 X67.5876 Y42.9580 Z-0.1000 S1000
G1 F1000 X67.3410 Y42.7115 Z-0.1000 S1000
G1 F1000 X67.0556 Y42.5113 Z-0.1000 S1000
G1 F1000 X66.7397 Y42.3637 Z-0.1000 S1000
G1 F1000 X66.4028 Y42.2737 Z-0.1000 S1000
G1 F1000 X66.0555 Y42.2436 Z-0.1000 S1000
G1 F1000 X59.0551 Y42.2436 Z-0.1000 S1000
G1 F1000 X58.7078 Y42.2737 Z-0.1000 S1000
G1 F1000 X58.3709 Y42.3637 Z-0.1000 S1000
G1 F1000 X58.0550 Y42.5113 Z-0.1000 S1000
G1 F1000 X57.7696 Y42.7115 Z-0.1000 S1000
G1 F1000 X57.5230 Y42.9580 Z-0.1000 S1000
G1 F1000 X57.3228 Y43.2435 Z-0.1000 S1000
G1 F1000 X57.1753 Y43.5594 Z-0.1000 S1000
G1 F1000 X57.0853 Y43.8962 Z-0.1000 S1000
G1 F1000 X57.0552 Y44.2436 Z-0.1000 S1000
G1 F1000 X57.0552 Y51.2439 Z-0.1000 S1000
G1 F1000 X57.0853 Y51.5913 Z-0.1000 S1000
G1 F1000 X57.1753 Y51.9282 Z-0.1000 S1000
G1 F1000 X57.3228 Y52.2441 Z-0.1000 S1000
G1 F1000 X57.5230 Y52.5295 Z-0.1000 S1000
G1 F1000 X57.7696 Y52.7761 Z-0.1000 S1000
G1 F1000 X58.0550 Y52.9763 Z-0.1000 S1000
G1 F1000 X58.3709 Y53.1238 Z-0.1000 S1000
G1 F1000 X58.7078 Y53.2138 Z-0.1000 S1000
G1 F1000 X59.0551 Y53.2439 Z-0.1000 S1000
G1 F1000 X66.0555 Y53.2439 Z-0.1000 S1000
G1 F1000 X66.4028 Y53.2138 Z-0.1000 S1000
G1 F1000 X66.7397 Y53.1238 Z-0.1000 S1000
G1 F1000 X67.0556 Y52.9763 Z-0.1000 S1000
G1 F1000 X67.3410 Y52.7761 Z-0.1000 S1000
G1 F1000 X67.5876 Y52.5295 Z-0.1000 S1000
G1 F1000 X67.7878 Y52.2441 Z-0.1000 S1000
G1 F1000 X67.9353 Y51.9282 Z-0.1000 S1000
G1 F1000 X68.0253 Y51.5913 Z-0.1000 S1000
G1 F1000 X68.0554 Y51.2439 Z-0.1000 S1000
G1 F1000 X68.0554 Y44.2436 Z-0.1000 S1000
G1 F1000 X68.0554 Y44.2436 Z-0.1000 S1000

G0 Z10; move to z-safe height
G0 X98.0559 Y29.2433

G0 Z0
G1 F300 Z-0.1000
G1 F1000 X98.0259 Y28.8959 Z-0.1000 S1000
G1 F1000 X97.9359 Y28.5590 Z-0.1000 S1000
G1 F1000 X97.7883 Y28.2431 Z-0.1000 S1000
G1 F1000 X97.5881 Y27.9577 Z-0.1000 S1000
G1 F1000 X97.3416 Y27.7111 Z-0.1000 S1000
G1 F1000 X97.0561 Y27.5109 Z-0.1000 S1000
G1 F1000 X96.7402 Y27.3634 Z-0.1000 S1000
G1 F1000 X96.4034 Y27.2734 Z-0.1000 S1000
G1 F1000 X96.0560 Y27.2433 Z-0.1000 S1000
G1 F1000 X89.0557 Y27.2433 Z-0.1000 S1000
G1 F1000 X88.7083 Y27.2734 Z-0.1000 S1000
G1 F1000 X88.3715 Y27.3634 Z-0.1000 S1000
G1 F1000 X88.0556 Y27.5109 Z-0.1000 S1000
G1 F1000 X87.7701 Y27.7111 Z-0.1000 S1000
G1 F1000 X87.5236 Y27.9577 Z-0.1000 S1000
G1 F1000 X87.3234 Y28.2431 Z-0.1000 S1000
G1 F1000 X87.1758 Y28.5590 Z-0.1000 S1000
G1 F1000 X87.0858 Y28.8959 Z-0.1000 S1000
G1 F1000 X87.0557 Y29.2433 Z-0.1000 S1000
G1 F1000 X87.0557 Y36.2436 Z-0.1000 S1000
G1 F1000 X87.0858 Y36.5910 Z-0.1000 S1000
G1 F1000 X87.1758 Y36.9278 Z-0.1000 S1000
G1 F1000 X87.3234 Y37.2437 Z-0.1000 S1000
G1 F1000 X87.5236 Y37.5292 Z-0.1000 S1000
G1 F1000 X87.7701 Y37.7757 Z-0.1000 S1000
G1 F1000 X88.0556 Y37.9759 Z-0.1000 S1000
G1 F1000 X88.3715 Y38.1235 Z-0.1000 S1000
G1 F1000 X88.7083 Y38.2135 Z-0.1000 S1000
G1 F1000 X89.0557 Y38.2436 Z-0.1000 S1000
G1 F1000 X96.0560 Y38.2436 Z-0.1000 S1000
G1 F1000 X96.4034 Y38.2135 Z-0.1000 S1000
G1 F1000 X96.7402 Y38.1235 Z-0.1000 S1000
G1 F1000 X97.0561 Y37.9759 Z-0.1000 S1000
G1 F1000 X97.3416 Y37.7757 Z-0.1000 S1000
G1 F1000 X97.5881 Y37.5292 Z-0.1000 S1000
G1 F1000 X97.7883 Y37.2437 Z-0.1000 S1000
G1 F1000 X97.9359 Y36.9278 Z-0.1000 S1000
G1 F1000 X98.0259 Y36.5910 Z-0.1000 S1000
G1 F1000 X98.0559 Y36.2436 Z-0.1000 S1000
G1 F1000 X98.0559 Y29.2433 Z-0.1000 S1000
G1 F1000 X98.0559 Y29.2433 Z-0.1000 S1000

G0 Z10; move to z-safe height
G0 X23.0544 Y29.2433

G0 Z0
G1 F300 Z-0.1000
G1 F1000 X23.0243 Y28.8959 Z-0.1000 S1000
G1 F1000 X22.9343 Y28.5590 Z-0.1000 S1000
G1 F1000 X22.7868 Y28.2431 Z-0.1000 S1000
G1 F1000 X22.5866 Y27.9577 Z-0.1000 S1000
G1 F1000 X22.3400 Y27.7111 Z-0.1000 S1000
G1 F1000 X22.0546 Y27.5109 Z-0.1000 S1000
G1 F1000 X21.7387 Y27.3634 Z-0.1000 S1000
G1 F1000 X21.4018 Y27.2734 Z-0.1000 S1000
G1 F1000 X21.0544 Y27.2433 Z-0.1000 S1000
G1 F1000 X14.0541 Y27.2433 Z-0.1000 S1000
G1 F1000 X13.7067 Y27.2734 Z-0.1000 S1000
G1 F1000 X13.3699 Y27.3634 Z-0.1000 S1000
G1 F1000 X13.0540 Y27.5109 Z-0.1000 S1000
G1 F1000 X12.7686 Y27.7111 Z-0.1000 S1000
G1 F1000 X12.5220 Y27.9577 Z-0.1000 S1000
G1 F1000 X12.3218 Y28.2431 Z-0.1000 S1000
G1 F1000 X12.1743 Y28.5590 Z-0.1000 S1000
G1 F1000 X12.0842 Y28.8959 Z-0.1000 S1000
G1 F1000 X12.0542 Y29.2433 Z-0.1000 S1000
G1 F1000 X12.0542 Y36.2436 Z-0.1000 S1000
G1 F1000 X12.0842 Y36.5910 Z-0.1000 S1000
G1 F1000 X12.1743 Y36.9278 Z-0.1000 S1000
G1 F1000 X12.3218 Y37.2437 Z-0.1000 S1000
G1 F1000 X12.5220 Y37.5292 Z-0.1000 S1000
G1 F1000 X12.7686 Y37.7757 Z-0.1000 S1000
G1 F1000 X13.0540 Y37.9759 Z-0.1000 S1000
G1 F1000 X13.3699 Y38.1235 Z-0.1000 S1000
G1 F1000 X13.7067 Y38.2135 Z-0.1000 S1000
G1 F1000 X14.0541 Y38.2436 Z-0.1000 S1000
G1 F1000 X21.0544 Y38.2436 Z-0.1000 S1000
G1 F1000 X21.4018 Y38.2135 Z-0.1000 S1000
G1 F1000 X21.7387 Y38.1235 Z-0.1000 S1000
G1 F1000 X22.0546 Y37.9759 Z-0.1000 S1000
G1 F1000 X22.3400 Y37.7757 Z-0.1000 S1000
G1 F1000 X22.5866 Y37.5292 Z-0.1000 S1000
G1 F1000 X22.7868 Y37.2437 Z-0.1000 S1000
G1 F1000 X22.9343 Y36.9278 Z-0.1000 S1000
G1 F1000 X23.0243 Y36.5910 Z-0.1000 S1000
G1 F1000 X23.0544 Y36.2436 Z-0.1000 S1000
G1 F1000 X23.0544 Y29.2433 Z-0.1000 S1000
G1 F1000 X23.0544 Y29.2433 Z-0.1000 S1000

G0 Z10; move to z-safe height
G0 X98.0559 Y44.2436

G0 Z0
G1 F300 Z-0.1000
G1 F1000 X98.0259 Y43.8962 Z-0.1000 S1000
G1 F1000 X97.9359 Y43.5594 Z-0.1000 S1000
G1 F1000 X97.7883 Y43.2435 Z-0.1000 S1000
G1 F1000 X97.5881 Y42.9580 Z-0.1000 S1000
G1 F1000 X97.3416 Y42.7115 Z-0.1000 S1000
G1 F1000 X97.0561 Y42.5113 Z-0.1000 S1000
G1 F1000 X96.7402 Y42.3637 Z-0.1000 S1000
G1 F1000 X96.4034 Y42.2737 Z-0.1000 S1000
G1 F1000 X96.0560 Y42.2436 Z-0.1000 S1000
G1 F1000 X89.0557 Y42.2436 Z-0.1000 S1000
G1 F1000 X88.7083 Y42.2737 Z-0.1000 S1000
G1 F1000 X88.3715 Y42.3637 Z-0.1000 S1000
G1 F1000 X88.0556 Y42.5113 Z-0.1000 S1000
G1 F1000 X87.7701 Y42.7115 Z-0.1000 S1000
G1 F1000 X87.5236 Y42.9580 Z-0.1000 S1000
G1 F1000 X87.3234 Y43.2435 Z-0.1000 S1000
G1 F1000 X87.1758 Y43.5594 Z-0.1000 S1000
G1 F1000 X87.0858 Y43.8962 Z-0.1000 S1000
G1 F1000 X87.0557 Y44.2436 Z-0.1000 S1000
G1 F1000 X87.0557 Y51.2439 Z-0.1000 S1000
G1 F1000 X87.0858 Y51.5913 Z-0.1000 S1000
G1 F1000 X87.1758 Y51.9282 Z-0.1000 S1000
G1 F1000 X87.3234 Y52.2441 Z-0.1000 S1000
G1 F1000 X87.5236 Y52.5295 Z-0.1000 S1000
G1 F1000 X87.7701 Y52.7761 Z-0.1000 S1000
G1 F1000 X88.0556 Y52.9763 Z-0.1000 S1000
G1 F1000 X88.3715 Y53.1238 Z-0.1000 S1000
G1 F1000 X88.7083 Y53.2138 Z-0.1000 S1000
G1 F1000 X89.0557 Y53.2439 Z-0.1000 S1000
G1 F1000 X96.0560 Y53.2439 Z-0.1000 S1000
G1 F1000 X96.4034 Y53.2138 Z-0.1000 S1000
G1 F1000 X96.7402 Y53.1238 Z-0.1000 S1000
G1 F1000 X97.0561 Y52.9763 Z-0.1000 S1000
G1 F1000 X97.3416 Y52.7761 Z-0.1000 S1000
G1 F1000 X97.5881 Y52.5295 Z-0.1000 S1000
G1 F1000 X97.7883 Y52.2441 Z-0.1000 S1000
G1 F1000 X97.9359 Y51.9282 Z-0.1000 S1000
G1 F1000 X98.0259 Y51.5913 Z-0.1000 S1000
G1 F1000 X98.0559 Y51.2439 Z-0.1000 S1000
G1 F1000 X98.0559 Y44.2436 Z-0.1000 S1000
G1 F1000 X98.0559 Y44.2436 Z-0.1000 S1000

G0 Z10; move to z-safe height
G0 X113.0566 Y59.2441

G0 Z0
G1 F300 Z-0.1000
G1 F1000 X113.0265 Y58.8967 Z-0.1000 S1000
G1 F1000 X112.9365 Y58.5598 Z-0.1000 S1000
G1 F1000 X112.7889 Y58.2439 Z-0.1000 S1000
G1 F1000 X112.5886 Y57.9585 Z-0.1000 S1000
G1 F1000 X112.3420 Y57.7120 Z-0.1000 S1000
G1 F1000 X112.0565 Y57.5118 Z-0.1000 S1000
G1 F1000 X111.7406 Y57.3642 Z-0.1000 S1000
G1 F1000 X111.4037 Y57.2742 Z-0.1000 S1000
G1 F1000 X111.0563 Y57.2441 Z-0.1000 S1000
G1 F1000 X104.0560 Y57.2441 Z-0.1000 S1000
G1 F1000 X103.7086 Y57.2742 Z-0.1000 S1000
G1 F1000 X103.3718 Y57.3642 Z-0.1000 S1000
G1 F1000 X103.0559 Y57.5118 Z-0.1000 S1000
G1 F1000 X102.7704 Y57.7120 Z-0.1000 S1000
G1 F1000 X102.5239 Y57.9585 Z-0.1000 S1000
G1 F1000 X102.3237 Y58.2440 Z-0.1000 S1000
G1 F1000 X102.1761 Y58.5599 Z-0.1000 S1000
G1 F1000 X102.0861 Y58.8967 Z-0.1000 S1000
G1 F1000 X102.0560 Y59.2441 Z-0.1000 S1000
G1 F1000 X102.0560 Y66.2441 Z-0.1000 S1000
G1 F1000 X102.0861 Y66.5915 Z-0.1000 S1000
G1 F1000 X102.1761 Y66.9284 Z-0.1000 S1000
G1 F1000 X102.3236 Y67.2443 Z-0.1000 S1000
G1 F1000 X102.5238 Y67.5299 Z-0.1000 S1000
G1 F1000 X102.7703 Y67.7765 Z-0.1000 S1000
G1 F1000 X103.0558 Y67.9767 Z-0.1000 S1000
G1 F1000 X103.3717 Y68.1243 Z-0.1000 S1000
G1 F1000 X103.7086 Y68.2143 Z-0.1000 S1000
G1 F1000 X104.0560 Y68.2444 Z-0.1000 S1000
G1 F1000 X111.0563 Y68.2444 Z-0.1000 S1000
G1 F1000 X111.4037 Y68.2143 Z-0.1000 S1000
G1 F1000 X111.7406 Y68.1243 Z-0.1000 S1000
G1 F1000 X112.0566 Y67.9767 Z-0.1000 S1000
G1 F1000 X112.3421 Y67.7765 Z-0.1000 S1000
G1 F1000 X112.5887 Y67.5299 Z-0.1000 S1000
G1 F1000 X112.7889 Y67.2444 Z-0.1000 S1000
G1 F1000 X112.9365 Y66.9284 Z-0.1000 S1000
G1 F1000 X113.0265 Y66.5915 Z-0.1000 S1000
G1 F1000 X113.0566 Y66.2441 Z-0.1000 S1000
G1 F1000 X113.0566 Y59.2441 Z-0.1000 S1000
G1 F1000 X113.0566 Y59.2441 Z-0.1000 S1000

G0 Z10; move to z-safe height
G0 X113.0566 Y14.2429

G0 Z0
G1 F300 Z-0.1000
G1 F1000 X113.0265 Y13.8955 Z-0.1000 S1000
G1 F1000 X112.9365 Y13.5587 Z-0.1000 S1000
G1 F1000 X112.7889 Y13.2428 Z-0.1000 S1000
G1 F1000 X112.5886 Y12.9573 Z-0.1000 S1000
G1 F1000 X112.3420 Y12.7108 Z-0.1000 S1000
G1 F1000 X112.0565 Y12.5106 Z-0.1000 S1000
G1 F1000 X111.7406 Y12.3631 Z-0.1000 S1000
G1 F1000 X111.4037 Y12.2730 Z-0.1000 S1000
G1 F1000 X111.0563 Y12.2430 Z-0.1000 S1000
G1 F1000 X104.0560 Y12.2430 Z-0.1000 S1000
G1 F1000 X103.7086 Y12.2730 Z-0.1000 S1000
G1 F1000 X103.3718 Y12.3631 Z-0.1000 S1000
G1 F1000 X103.0559 Y12.5106 Z-0.1000 S1000
G1 F1000 X102.7704 Y12.7108 Z-0.1000 S1000
G1 F1000 X102.5239 Y12.9574 Z-0.1000 S1000
G1 F1000 X102.3237 Y13.2428 Z-0.1000 S1000
G1 F1000 X102.1761 Y13.5587 Z-0.1000 S1000
G1 F1000 X102.0861 Y13.8955 Z-0.1000 S1000
G1 F1000 X102.0560 Y14.2429 Z-0.1000 S1000
G1 F1000 X102.0560 Y21.2429 Z-0.1000 S1000
G1 F1000 X102.0861 Y21.5903 Z-0.1000 S1000
G1 F1000 X102.1761 Y21.9272 Z-0.1000 S1000
G1 F1000 X102.3236 Y22.2432 Z-0.1000 S1000
G1 F1000 X102.5238 Y22.5287 Z-0.1000 S1000
G1 F1000 X102.7703 Y22.7753 Z-0.1000 S1000
G1 F1000 X103.0558 Y22.9755 Z-0.1000 S1000
G1 F1000 X103.3717 Y23.1231 Z-0.1000 S1000
G1 F1000 X103.7086 Y23.2132 Z-0.1000 S1000
G1 F1000 X104.0560 Y23.2432 Z-0.1000 S1000
G1 F1000 X111.0563 Y23.2432 Z-0.1000 S1000
G1 F1000 X111.4037 Y23.2132 Z-0.1000 S1000
G1 F1000 X111.7406 Y23.1231 Z-0.1000 S1000
G1 F1000 X112.0566 Y22.9755 Z-0.1000 S1000
G1 F1000 X112.3421 Y22.7753 Z-0.1000 S1000
G1 F1000 X112.5887 Y22.5287 Z-0.1000 S1000
G1 F1000 X112.7889 Y22.2432 Z-0.1000 S1000
G1 F1000 X112.9365 Y21.9273 Z-0.1000 S1000
G1 F1000 X113.0265 Y21.5904 Z-0.1000 S1000
G1 F1000 X113.0566 Y21.2429 Z-0.1000 S1000
G1 F1000 X113.0566 Y14.2429 Z-0.1000 S1000
G1 F1000 X113.0566 Y14.2429 Z-0.1000 S1000

G0 Z10; move to z-safe height
G0 X128.0569 Y59.2441

G0 Z0
G1 F300 Z-0.1000
G1 F1000 X128.0268 Y58.8967 Z-0.1000 S1000
G1 F1000 X127.9368 Y58.5598 Z-0.1000 S1000
G1 F1000 X127.7892 Y58.2439 Z-0.1000 S1000
G1 F1000 X127.5889 Y57.9584 Z-0.1000 S1000
G1 F1000 X127.3423 Y57.7119 Z-0.1000 S1000
G1 F1000 X127.0568 Y57.5117 Z-0.1000 S1000
G1 F1000 X126.7409 Y57.3642 Z-0.1000 S1000
G1 F1000 X126.4040 Y57.2742 Z-0.1000 S1000
G1 F1000 X126.0566 Y57.2441 Z-0.1000 S1000
G1 F1000 X119.0566 Y57.2441 Z-0.1000 S1000
G1 F1000 X118.7092 Y57.2742 Z-0.1000 S1000
G1 F1000 X118.3723 Y57.3642 Z-0.1000 S1000
G1 F1000 X118.0564 Y57.5117 Z-0.1000 S1000
G1 F1000 X117.7709 Y57.7119 Z-0.1000 S1000
G1 F1000 X117.5243 Y57.9584 Z-0.1000 S1000
G1 F1000 X117.3240 Y58.2439 Z-0.1000 S1000
G1 F1000 X117.1764 Y58.5598 Z-0.1000 S1000
G1 F1000 X117.0864 Y58.8967 Z-0.1000 S1000
G1 F1000 X117.0563 Y59.2441 Z-0.1000 S1000
G1 F1000 X117.0563 Y66.2441 Z-0.1000 S1000
G1 F1000 X117.0864 Y66.5916 Z-0.1000 S1000
G1 F1000 X117.1764 Y66.9285 Z-0.1000 S1000
G1 F1000 X117.3239 Y67.2444 Z-0.1000 S1000
G1 F1000 X117.5242 Y67.5300 Z-0.1000 S1000
G1 F1000 X117.7708 Y67.7765 Z-0.1000 S1000
G1 F1000 X118.0563 Y67.9768 Z-0.1000 S1000
G1 F1000 X118.3723 Y68.1243 Z-0.1000 S1000
G1 F1000 X118.7092 Y68.2143 Z-0.1000 S1000
G1 F1000 X119.0566 Y68.2444 Z-0.1000 S1000
G1 F1000 X126.0566 Y68.2444 Z-0.1000 S1000
G1 F1000 X126.4040 Y68.2143 Z-0.1000 S1000
G1 F1000 X126.7409 Y68.1243 Z-0.1000 S1000
G1 F1000 X127.0569 Y67.9768 Z-0.1000 S1000
G1 F1000 X127.3424 Y67.7765 Z-0.1000 S1000
G1 F1000 X127.5890 Y67.5300 Z-0.1000 S1000
G1 F1000 X127.7893 Y67.2444 Z-0.1000 S1000
G1 F1000 X127.9368 Y66.9285 Z-0.1000 S1000
G1 F1000 X128.0268 Y66.5916 Z-0.1000 S1000
G1 F1000 X128.0569 Y66.2441 Z-0.1000 S1000
G1 F1000 X128.0569 Y59.2441 Z-0.1000 S1000
G1 F1000 X128.0569 Y59.2441 Z-0.1000 S1000

G0 Z10; move to z-safe height
G0 X128.0569 Y14.2429

G0 Z0
G1 F300 Z-0.1000
G1 F1000 X128.0268 Y13.8955 Z-0.1000 S1000
G1 F1000 X127.9368 Y13.5586 Z-0.1000 S1000
G1 F1000 X127.7892 Y13.2427 Z-0.1000 S1000
G1 F1000 X127.5889 Y12.9573 Z-0.1000 S1000
G1 F1000 X127.3423 Y12.7107 Z-0.1000 S1000
G1 F1000 X127.0568 Y12.5105 Z-0.1000 S1000
G1 F1000 X126.7409 Y12.3630 Z-0.1000 S1000
G1 F1000 X126.4040 Y12.2730 Z-0.1000 S1000
G1 F1000 X126.0566 Y12.2430 Z-0.1000 S1000
G1 F1000 X119.0566 Y12.2430 Z-0.1000 S1000
G1 F1000 X118.7092 Y12.2730 Z-0.1000 S1000
G1 F1000 X118.3723 Y12.3630 Z-0.1000 S1000
G1 F1000 X118.0564 Y12.5105 Z-0.1000 S1000
G1 F1000 X117.7709 Y12.7107 Z-0.1000 S1000
G1 F1000 X117.5243 Y12.9573 Z-0.1000 S1000
G1 F1000 X117.3240 Y13.2427 Z-0.1000 S1000
G1 F1000 X117.1764 Y13.5586 Z-0.1000 S1000
G1 F1000 X117.0864 Y13.8955 Z-0.1000 S1000
G1 F1000 X117.0563 Y14.2429 Z-0.1000 S1000
G1 F1000 X117.0563 Y21.2429 Z-0.1000 S1000
G1 F1000 X117.0864 Y21.5904 Z-0.1000 S1000
G1 F1000 X117.1764 Y21.9273 Z-0.1000 S1000
G1 F1000 X117.3239 Y22.2433 Z-0.1000 S1000
G1 F1000 X117.5242 Y22.5288 Z-0.1000 S1000
G1 F1000 X117.7708 Y22.7754 Z-0.1000 S1000
G1 F1000 X118.0563 Y22.9756 Z-0.1000 S1000
G1 F1000 X118.3723 Y23.1231 Z-0.1000 S1000
G1 F1000 X118.7092 Y23.2132 Z-0.1000 S1000
G1 F1000 X119.0566 Y23.2432 Z-0.1000 S1000
G1 F1000 X126.0566 Y23.2432 Z-0.1000 S1000
G1 F1000 X126.4040 Y23.2132 Z-0.1000 S1000
G1 F1000 X126.7409 Y23.1231 Z-0.1000 S1000
G1 F1000 X127.0569 Y22.9756 Z-0.1000 S1000
G1 F1000 X127.3424 Y22.7754 Z-0.1000 S1000
G1 F1000 X127.5890 Y22.5288 Z-0.1000 S1000
G1 F1000 X127.7893 Y22.2433 Z-0.1000 S1000
G1 F1000 X127.9368 Y21.9273 Z-0.1000 S1000
G1 F1000 X128.0268 Y21.5904 Z-0.1000 S1000
G1 F1000 X128.0569 Y21.2429 Z-0.1000 S1000
G1 F1000 X128.0569 Y14.2429 Z-0.1000 S1000
G1 F1000 X128.0569 Y14.2429 Z-0.1000 S1000

G0 Z10; move to z-safe height
G0 X113.0566 Y44.2436

G0 Z0
G1 F300 Z-0.1000
G1 F1000 X113.0265 Y43.8962 Z-0.1000 S1000
G1 F1000 X112.9365 Y43.5593 Z-0.1000 S1000
G1 F1000 X112.7889 Y43.2434 Z-0.1000 S1000
G1 F1000 X112.5886 Y42.9580 Z-0.1000 S1000
G1 F1000 X112.3420 Y42.7115 Z-0.1000 S1000
G1 F1000 X112.0565 Y42.5113 Z-0.1000 S1000
G1 F1000 X111.7406 Y42.3637 Z-0.1000 S1000
G1 F1000 X111.4037 Y42.2737 Z-0.1000 S1000
G1 F1000 X111.0563 Y42.2436 Z-0.1000 S1000
G1 F1000 X104.0560 Y42.2436 Z-0.1000 S1000
G1 F1000 X103.7086 Y42.2737 Z-0.1000 S1000
G1 F1000 X103.3718 Y42.3637 Z-0.1000 S1000
G1 F1000 X103.0559 Y42.5113 Z-0.1000 S1000
G1 F1000 X102.7704 Y42.7115 Z-0.1000 S1000
G1 F1000 X102.5239 Y42.9580 Z-0.1000 S1000
G1 F1000 X102.3237 Y43.2435 Z-0.1000 S1000
G1 F1000 X102.1761 Y43.5594 Z-0.1000 S1000
G1 F1000 X102.0861 Y43.8962 Z-0.1000 S1000
G1 F1000 X102.0560 Y44.2436 Z-0.1000 S1000
G1 F1000 X102.0560 Y51.2439 Z-0.1000 S1000
G1 F1000 X102.0861 Y51.5913 Z-0.1000 S1000
G1 F1000 X102.1761 Y51.9282 Z-0.1000 S1000
G1 F1000 X102.3237 Y52.2441 Z-0.1000 S1000
G1 F1000 X102.5239 Y52.5295 Z-0.1000 S1000
G1 F1000 X102.7704 Y52.7761 Z-0.1000 S1000
G1 F1000 X103.0559 Y52.9763 Z-0.1000 S1000
G1 F1000 X103.3718 Y53.1238 Z-0.1000 S1000
G1 F1000 X103.7086 Y53.2138 Z-0.1000 S1000
G1 F1000 X104.0560 Y53.2439 Z-0.1000 S1000
G1 F1000 X111.0563 Y53.2439 Z-0.1000 S1000
G1 F1000 X111.4037 Y53.2138 Z-0.1000 S1000
G1 F1000 X111.7406 Y53.1238 Z-0.1000 S1000
G1 F1000 X112.0565 Y52.9763 Z-0.1000 S1000
G1 F1000 X112.3420 Y52.7761 Z-0.1000 S1000
G1 F1000 X112.5886 Y52.5295 Z-0.1000 S1000
G1 F1000 X112.7889 Y52.2441 Z-0.1000 S1000
G1 F1000 X112.9365 Y51.9282 Z-0.1000 S1000
G1 F1000 X113.0265 Y51.5913 Z-0.1000 S1000
G1 F1000 X113.0566 Y51.2439 Z-0.1000 S1000
G1 F1000 X113.0566 Y44.2436 Z-0.1000 S1000
G1 F1000 X113.0566 Y44.2436 Z-0.1000 S1000

G0 Z10; move to z-safe height
G0 X113.0566 Y29.2433

G0 Z0
G1 F300 Z-0.1000
G1 F1000 X113.0265 Y28.8959 Z-0.1000 S1000
G1 F1000 X112.9365 Y28.5590 Z-0.1000 S1000
G1 F1000 X112.7889 Y28.2431 Z-0.1000 S1000
G1 F1000 X112.5886 Y27.9577 Z-0.1000 S1000
G1 F1000 X112.3420 Y27.7111 Z-0.1000 S1000
G1 F1000 X112.0565 Y27.5109 Z-0.1000 S1000
G1 F1000 X111.7406 Y27.3634 Z-0.1000 S1000
G1 F1000 X111.4037 Y27.2734 Z-0.1000 S1000
G1 F1000 X111.0563 Y27.2433 Z-0.1000 S1000
G1 F1000 X104.0560 Y27.2433 Z-0.1000 S1000
G1 F1000 X103.7086 Y27.2734 Z-0.1000 S1000
G1 F1000 X103.3718 Y27.3634 Z-0.1000 S1000
G1 F1000 X103.0559 Y27.5109 Z-0.1000 S1000
G1 F1000 X102.7704 Y27.7111 Z-0.1000 S1000
G1 F1000 X102.5239 Y27.9577 Z-0.1000 S1000
G1 F1000 X102.3237 Y28.2431 Z-0.1000 S1000
G1 F1000 X102.1761 Y28.5590 Z-0.1000 S1000
G1 F1000 X102.0861 Y28.8959 Z-0.1000 S1000
G1 F1000 X102.0560 Y29.2433 Z-0.1000 S1000
G1 F1000 X102.0560 Y36.2436 Z-0.1000 S1000
G1 F1000 X102.0861 Y36.5910 Z-0.1000 S1000
G1 F1000 X102.1761 Y36.9278 Z-0.1000 S1000
G1 F1000 X102.3237 Y37.2437 Z-0.1000 S1000
G1 F1000 X102.5239 Y37.5292 Z-0.1000 S1000
G1 F1000 X102.7704 Y37.7757 Z-0.1000 S1000
G1 F1000 X103.0559 Y37.9759 Z-0.1000 S1000
G1 F1000 X103.3718 Y38.1235 Z-0.1000 S1000
G1 F1000 X103.7086 Y38.2135 Z-0.1000 S1000
G1 F1000 X104.0560 Y38.2436 Z-0.1000 S1000
G1 F1000 X111.0563 Y38.2436 Z-0.1000 S1000
G1 F1000 X111.4037 Y38.2135 Z-0.1000 S1000
G1 F1000 X111.7406 Y38.1235 Z-0.1000 S1000
G1 F1000 X112.0565 Y37.9759 Z-0.1000 S1000
G1 F1000 X112.3420 Y37.7757 Z-0.1000 S1000
G1 F1000 X112.5886 Y37.5292 Z-0.1000 S1000
G1 F1000 X112.7889 Y37.2438 Z-0.1000 S1000
G1 F1000 X112.9365 Y36.9279 Z-0.1000 S1000
G1 F1000 X113.0265 Y36.5910 Z-0.1000 S1000
G1 F1000 X113.0566 Y36.2436 Z-0.1000 S1000
G1 F1000 X113.0566 Y29.2433 Z-0.1000 S1000
G1 F1000 X113.0566 Y29.2433 Z-0.1000 S1000

G0 Z10; move to z-safe height
G0 X128.0569 Y44.2436

G0 Z0
G1 F300 Z-0.1000
G1 F1000 X128.0268 Y43.8962 Z-0.1000 S1000
G1 F1000 X127.9368 Y43.5593 Z-0.1000 S1000
G1 F1000 X127.7892 Y43.2434 Z-0.1000 S1000
G1 F1000 X127.5889 Y42.9579 Z-0.1000 S1000
G1 F1000 X127.3423 Y42.7114 Z-0.1000 S1000
G1 F1000 X127.0568 Y42.5112 Z-0.1000 S1000
G1 F1000 X126.7409 Y42.3637 Z-0.1000 S1000
G1 F1000 X126.4040 Y42.2737 Z-0.1000 S1000
G1 F1000 X126.0566 Y42.2436 Z-0.1000 S1000
G1 F1000 X119.0566 Y42.2436 Z-0.1000 S1000
G1 F1000 X118.7092 Y42.2737 Z-0.1000 S1000
G1 F1000 X118.3723 Y42.3637 Z-0.1000 S1000
G1 F1000 X118.0564 Y42.5112 Z-0.1000 S1000
G1 F1000 X117.7709 Y42.7114 Z-0.1000 S1000
G1 F1000 X117.5243 Y42.9579 Z-0.1000 S1000
G1 F1000 X117.3240 Y43.2434 Z-0.1000 S1000
G1 F1000 X117.1764 Y43.5593 Z-0.1000 S1000
G1 F1000 X117.0864 Y43.8962 Z-0.1000 S1000
G1 F1000 X117.0563 Y44.2436 Z-0.1000 S1000
G1 F1000 X117.0563 Y51.2439 Z-0.1000 S1000
G1 F1000 X117.0864 Y51.5914 Z-0.1000 S1000
G1 F1000 X117.1764 Y51.9282 Z-0.1000 S1000
G1 F1000 X117.3240 Y52.2441 Z-0.1000 S1000
G1 F1000 X117.5243 Y52.5296 Z-0.1000 S1000
G1 F1000 X117.7709 Y52.7761 Z-0.1000 S1000
G1 F1000 X118.0564 Y52.9763 Z-0.1000 S1000
G1 F1000 X118.3723 Y53.1238 Z-0.1000 S1000
G1 F1000 X118.7092 Y53.2138 Z-0.1000 S1000
G1 F1000 X119.0566 Y53.2439 Z-0.1000 S1000
G1 F1000 X126.0566 Y53.2439 Z-0.1000 S1000
G1 F1000 X126.4040 Y53.2138 Z-0.1000 S1000
G1 F1000 X126.7409 Y53.1238 Z-0.1000 S1000
G1 F1000 X127.0568 Y52.9763 Z-0.1000 S1000
G1 F1000 X127.3423 Y52.7761 Z-0.1000 S1000
G1 F1000 X127.5889 Y52.5296 Z-0.1000 S1000
G1 F1000 X127.7892 Y52.2441 Z-0.1000 S1000
G1 F1000 X127.9368 Y51.9282 Z-0.1000 S1000
G1 F1000 X128.0268 Y51.5914 Z-0.1000 S1000
G1 F1000 X128.0569 Y51.2439 Z-0.1000 S1000
G1 F1000 X128.0569 Y44.2436 Z-0.1000 S1000
G1 F1000 X128.0569 Y44.2436 Z-0.1000 S1000

G0 Z10; move to z-safe height
G0 X128.0569 Y29.2433

G0 Z0
G1 F300 Z-0.1000
G1 F1000 X128.0268 Y28.8958 Z-0.1000 S1000
G1 F1000 X127.9368 Y28.5590 Z-0.1000 S1000
G1 F1000 X127.7892 Y28.2431 Z-0.1000 S1000
G1 F1000 X127.5889 Y27.9576 Z-0.1000 S1000
G1 F1000 X127.3423 Y27.7111 Z-0.1000 S1000
G1 F1000 X127.0568 Y27.5109 Z-0.1000 S1000
G1 F1000 X126.7409 Y27.3634 Z-0.1000 S1000
G1 F1000 X126.4040 Y27.2734 Z-0.1000 S1000
G1 F1000 X126.0566 Y27.2433 Z-0.1000 S1000
G1 F1000 X119.0566 Y27.2433 Z-0.1000 S1000
G1 F1000 X118.7092 Y27.2734 Z-0.1000 S1000
G1 F1000 X118.3723 Y27.3634 Z-0.1000 S1000
G1 F1000 X118.0564 Y27.5109 Z-0.1000 S1000
G1 F1000 X117.7709 Y27.7111 Z-0.1000 S1000
G1 F1000 X117.5243 Y27.9576 Z-0.1000 S1000
G1 F1000 X117.3240 Y28.2431 Z-0.1000 S1000
G1 F1000 X117.1764 Y28.5590 Z-0.1000 S1000
G1 F1000 X117.0864 Y28.8958 Z-0.1000 S1000
G1 F1000 X117.0563 Y29.2433 Z-0.1000 S1000
G1 F1000 X117.0563 Y36.2436 Z-0.1000 S1000
G1 F1000 X117.0864 Y36.5910 Z-0.1000 S1000
G1 F1000 X117.1764 Y36.9279 Z-0.1000 S1000
G1 F1000 X117.3240 Y37.2438 Z-0.1000 S1000
G1 F1000 X117.5243 Y37.5293 Z-0.1000 S1000
G1 F1000 X117.7709 Y37.7758 Z-0.1000 S1000
G1 F1000 X118.0564 Y37.9760 Z-0.1000 S1000
G1 F1000 X118.3723 Y38.1235 Z-0.1000 S1000
G1 F1000 X118.7092 Y38.2135 Z-0.1000 S1000
G1 F1000 X119.0566 Y38.2436 Z-0.1000 S1000
G1 F1000 X126.0566 Y38.2436 Z-0.1000 S1000
G1 F1000 X126.4040 Y38.2135 Z-0.1000 S1000
G1 F1000 X126.7409 Y38.1235 Z-0.1000 S1000
G1 F1000 X127.0568 Y37.9760 Z-0.1000 S1000
G1 F1000 X127.3423 Y37.7758 Z-0.1000 S1000
G1 F1000 X127.5889 Y37.5293 Z-0.1000 S1000
G1 F1000 X127.7892 Y37.2438 Z-0.1000 S1000
G1 F1000 X127.9368 Y36.9279 Z-0.1000 S1000
G1 F1000 X128.0268 Y36.5910 Z-0.1000 S1000
G1 F1000 X128.0569 Y36.2436 Z-0.1000 S1000
G1 F1000 X128.0569 Y29.2433 Z-0.1000 S1000
G1 F1000 X128.0569 Y29.2433 Z-0.1000 S1000

G0 Z10; move to z-safe height
G0 X134.0570 Y80.2448

G0 Z0
G1 F300 Z-0.1000
G1 F1000 X97.3122 Y80.2448 Z-0.1000 S1000
G1 F1000 X97.3122 Y80.2448 Z-0.1000 S1000
G1 F1000 X96.9696 Y80.2253 Z-0.1000 S1000
G1 F1000 X96.6314 Y80.1669 Z-0.1000 S1000
G1 F1000 X96.3022 Y80.0700 Z-0.1000 S1000
G1 F1000 X95.9862 Y79.9361 Z-0.1000 S1000
G1 F1000 X95.6876 Y79.7669 Z-0.1000 S1000
G1 F1000 X95.4102 Y79.5648 Z-0.1000 S1000
G1 F1000 X95.1576 Y79.3325 Z-0.1000 S1000
G1 F1000 X94.9331 Y79.0729 Z-0.1000 S1000
G1 F1000 X94.7398 Y78.7893 Z-0.1000 S1000
G1 F1000 X94.5803 Y78.4855 Z-0.1000 S1000
G1 F1000 X94.4567 Y78.1653 Z-0.1000 S1000
G1 F1000 X94.3704 Y77.8331 Z-0.1000 S1000
G1 F1000 X93.2136 Y72.0485 Z-0.1000 S1000
G1 F1000 X93.2136 Y72.0485 Z-0.1000 S1000
G1 F1000 X93.0904 Y71.7297 Z-0.1000 S1000
G1 F1000 X92.8670 Y71.4711 Z-0.1000 S1000
G1 F1000 X92.5696 Y71.3027 Z-0.1000 S1000
G1 F1000 X92.2328 Y71.2445 Z-0.1000 S1000
G1 F1000 X47.8781 Y71.2445 Z-0.1000 S1000
G1 F1000 X47.8781 Y71.2445 Z-0.1000 S1000
G1 F1000 X47.5414 Y71.3027 Z-0.1000 S1000
G1 F1000 X47.2440 Y71.4711 Z-0.1000 S1000
G1 F1000 X47.0205 Y71.7297 Z-0.1000 S1000
G1 F1000 X46.8974 Y72.0485 Z-0.1000 S1000
G1 F1000 X45.7406 Y77.8331 Z-0.1000 S1000
G1 F1000 X45.7406 Y77.8331 Z-0.1000 S1000
G1 F1000 X45.6543 Y78.1653 Z-0.1000 S1000
G1 F1000 X45.5307 Y78.4855 Z-0.1000 S1000
G1 F1000 X45.3711 Y78.7893 Z-0.1000 S1000
G1 F1000 X45.1778 Y79.0729 Z-0.1000 S1000
G1 F1000 X44.9534 Y79.3325 Z-0.1000 S1000
G1 F1000 X44.7008 Y79.5648 Z-0.1000 S1000
G1 F1000 X44.4234 Y79.7669 Z-0.1000 S1000
G1 F1000 X44.1248 Y79.9361 Z-0.1000 S1000
G1 F1000 X43.8088 Y80.0700 Z-0.1000 S1000
G1 F1000 X43.4796 Y80.1669 Z-0.1000 S1000
G1 F1000 X43.1414 Y80.2253 Z-0.1000 S1000
G1 F1000 X42.7987 Y80.2448 Z-0.1000 S1000
G1 F1000 X6.0540 Y80.2448 Z-0.1000 S1000
G1 F1000 X6.0540 Y80.2448 Z-0.1000 S1000
G1 F1000 X5.7050 Y80.2348 Z-0.1000 S1000
G1 F1000 X5.3573 Y80.2048 Z-0.1000 S1000
G1 F1000 X5.0118 Y80.1546 Z-0.1000 S1000
G1 F1000 X4.6699 Y80.0843 Z-0.1000 S1000
G1 F1000 X4.3327 Y79.9942 Z-0.1000 S1000
G1 F1000 X4.0013 Y79.8844 Z-0.1000 S1000
G1 F1000 X3.6769 Y79.7555 Z-0.1000 S1000
G1 F1000 X3.3606 Y79.6077 Z-0.1000 S1000
G1 F1000 X3.0535 Y79.4418 Z-0.1000 S1000
G1 F1000 X2.7566 Y79.2583 Z-0.1000 S1000
G1 F1000 X2.4708 Y79.0578 Z-0.1000 S1000
G1 F1000 X2.1972 Y78.8411 Z-0.1000 S1000
G1 F1000 X1.9365 Y78.6090 Z-0.1000 S1000
G1 F1000 X1.6896 Y78.3621 Z-0.1000 S1000
G1 F1000 X1.4575 Y78.1014 Z-0.1000 S1000
G1 F1000 X1.2408 Y77.8278 Z-0.1000 S1000
G1 F1000 X1.0403 Y77.5420 Z-0.1000 S1000
G1 F1000 X0.8568 Y77.2450 Z-0.1000 S1000
G1 F1000 X0.6909 Y76.9379 Z-0.1000 S1000
G1 F1000 X0.5431 Y76.6217 Z-0.1000 S1000
G1 F1000 X0.4142 Y76.2973 Z-0.1000 S1000
G1 F1000 X0.3044 Y75.9659 Z-0.1000 S1000
G1 F1000 X0.2143 Y75.6287 Z-0.1000 S1000
G1 F1000 X0.1440 Y75.2868 Z-0.1000 S1000
G1 F1000 X0.0938 Y74.9413 Z-0.1000 S1000
G1 F1000 X0.0638 Y74.5935 Z-0.1000 S1000
G1 F1000 X0.0538 Y74.2446 Z-0.1000 S1000
G1 F1000 X0.0538 Y6.2424 Z-0.1000 S1000
G1 F1000 X0.0538 Y6.2424 Z-0.1000 S1000
G1 F1000 X0.0638 Y5.8934 Z-0.1000 S1000
G1 F1000 X0.0938 Y5.5457 Z-0.1000 S1000
G1 F1000 X0.1440 Y5.2002 Z-0.1000 S1000
G1 F1000 X0.2143 Y4.8583 Z-0.1000 S1000
G1 F1000 X0.3044 Y4.5211 Z-0.1000 S1000
G1 F1000 X0.4142 Y4.1897 Z-0.1000 S1000
G1 F1000 X0.5431 Y3.8653 Z-0.1000 S1000
G1 F1000 X0.6909 Y3.5491 Z-0.1000 S1000
G1 F1000 X0.8568 Y3.2420 Z-0.1000 S1000
G1 F1000 X1.0403 Y2.9451 Z-0.1000 S1000
G1 F1000 X1.2408 Y2.6593 Z-0.1000 S1000
G1 F1000 X1.4575 Y2.3856 Z-0.1000 S1000
G1 F1000 X1.6897 Y2.1250 Z-0.1000 S1000
G1 F1000 X1.9365 Y1.8782 Z-0.1000 S1000
G1 F1000 X2.1972 Y1.6460 Z-0.1000 S1000
G1 F1000 X2.4709 Y1.4294 Z-0.1000 S1000
G1 F1000 X2.7566 Y1.2289 Z-0.1000 S1000
G1 F1000 X3.0536 Y1.0454 Z-0.1000 S1000
G1 F1000 X3.3607 Y0.8795 Z-0.1000 S1000
G1 F1000 X3.6770 Y0.7318 Z-0.1000 S1000
G1 F1000 X4.0013 Y0.6028 Z-0.1000 S1000
G1 F1000 X4.3327 Y0.4931 Z-0.1000 S1000
G1 F1000 X4.6699 Y0.4029 Z-0.1000 S1000
G1 F1000 X5.0118 Y0.3327 Z-0.1000 S1000
G1 F1000 X5.3573 Y0.2825 Z-0.1000 S1000
G1 F1000 X5.7050 Y0.2525 Z-0.1000 S1000
G1 F1000 X6.0540 Y0.2425 Z-0.1000 S1000
G1 F1000 X134.0570 Y0.2425 Z-0.1000 S1000
G1 F1000 X134.0570 Y0.2425 Z-0.1000 S1000
G1 F1000 X134.4059 Y0.2525 Z-0.1000 S1000
G1 F1000 X134.7537 Y0.2825 Z-0.1000 S1000
G1 F1000 X135.0992 Y0.3327 Z-0.1000 S1000
G1 F1000 X135.4411 Y0.4029 Z-0.1000 S1000
G1 F1000 X135.7783 Y0.4930 Z-0.1000 S1000
G1 F1000 X136.1097 Y0.6028 Z-0.1000 S1000
G1 F1000 X136.4341 Y0.7317 Z-0.1000 S1000
G1 F1000 X136.7503 Y0.8794 Z-0.1000 S1000
G1 F1000 X137.0574 Y1.0453 Z-0.1000 S1000
G1 F1000 X137.3544 Y1.2288 Z-0.1000 S1000
G1 F1000 X137.6402 Y1.4293 Z-0.1000 S1000
G1 F1000 X137.9139 Y1.6460 Z-0.1000 S1000
G1 F1000 X138.1745 Y1.8781 Z-0.1000 S1000
G1 F1000 X138.4214 Y2.1249 Z-0.1000 S1000
G1 F1000 X138.6535 Y2.3856 Z-0.1000 S1000
G1 F1000 X138.8702 Y2.6593 Z-0.1000 S1000
G1 F1000 X139.0707 Y2.9450 Z-0.1000 S1000
G1 F1000 X139.2542 Y3.2419 Z-0.1000 S1000
G1 F1000 X139.4202 Y3.5491 Z-0.1000 S1000
G1 F1000 X139.5679 Y3.8653 Z-0.1000 S1000
G1 F1000 X139.6969 Y4.1897 Z-0.1000 S1000
G1 F1000 X139.8066 Y4.5211 Z-0.1000 S1000
G1 F1000 X139.8967 Y4.8583 Z-0.1000 S1000
G1 F1000 X139.9670 Y5.2002 Z-0.1000 S1000
G1 F1000 X140.0171 Y5.5457 Z-0.1000 S1000
G1 F1000 X140.0472 Y5.8934 Z-0.1000 S1000
G1 F1000 X140.0572 Y6.2424 Z-0.1000 S1000
G1 F1000 X140.0572 Y74.2446 Z-0.1000 S1000
G1 F1000 X140.0572 Y74.2446 Z-0.1000 S1000
G1 F1000 X140.0472 Y74.5936 Z-0.1000 S1000
G1 F1000 X140.0171 Y74.9413 Z-0.1000 S1000
G1 F1000 X139.9670 Y75.2868 Z-0.1000 S1000
G1 F1000 X139.8967 Y75.6287 Z-0.1000 S1000
G1 F1000 X139.8066 Y75.9659 Z-0.1000 S1000
G1 F1000 X139.6969 Y76.2973 Z-0.1000 S1000
G1 F1000 X139.5679 Y76.6217 Z-0.1000 S1000
G1 F1000 X139.4202 Y76.9380 Z-0.1000 S1000
G1 F1000 X139.2542 Y77.2451 Z-0.1000 S1000
G1 F1000 X139.0707 Y77.5420 Z-0.1000 S1000
G1 F1000 X138.8702 Y77.8278 Z-0.1000 S1000
G1 F1000 X138.6536 Y78.1015 Z-0.1000 S1000
G1 F1000 X138.4214 Y78.3622 Z-0.1000 S1000
G1 F1000 X138.1746 Y78.6090 Z-0.1000 S1000
G1 F1000 X137.9139 Y78.8412 Z-0.1000 S1000
G1 F1000 X137.6402 Y79.0579 Z-0.1000 S1000
G1 F1000 X137.3544 Y79.2583 Z-0.1000 S1000
G1 F1000 X137.0575 Y79.4419 Z-0.1000 S1000
G1 F1000 X136.7504 Y79.6078 Z-0.1000 S1000
G1 F1000 X136.4341 Y79.7555 Z-0.1000 S1000
G1 F1000 X136.1097 Y79.8845 Z-0.1000 S1000
G1 F1000 X135.7783 Y79.9942 Z-0.1000 S1000
G1 F1000 X135.4411 Y80.0844 Z-0.1000 S1000
G1 F1000 X135.0992 Y80.1546 Z-0.1000 S1000
G1 F1000 X134.7537 Y80.2048 Z-0.1000 S1000
G1 F1000 X134.4060 Y80.2348 Z-0.1000 S1000
G1 F1000 X134.0570 Y80.2448 Z-0.1000 S1000
G1 F1000 X134.0570 Y80.2448 Z-0.1000 S1000
; retracting back to z-safe
G0 Z10

M5; Laser Off
