; GCODE Generated by cam.openbuilds.com on 2023-02-09 
G21 ; mm-mode
G54; Work Coordinates
G21; mm-mode
M3; Constant Power Laser On

; Pass 0
; Operation 0: Laser: Vector (no path offset)
; Laser Spot Diameter: 0.1

G0 Z10; move to z-safe height
G0 F1000 X23.0717 Y58.7540

G0 Z0
G1 F300 Z-0.1000
G1 F400 X23.0416 Y58.4066 Z-0.1000 S1000
G1 F400 X22.9516 Y58.0697 Z-0.1000 S1000
G1 F400 X22.8041 Y57.7538 Z-0.1000 S1000
G1 F400 X22.6039 Y57.4684 Z-0.1000 S1000
G1 F400 X22.3573 Y57.2218 Z-0.1000 S1000
G1 F400 X22.0719 Y57.0216 Z-0.1000 S1000
G1 F400 X21.7560 Y56.8741 Z-0.1000 S1000
G1 F400 X21.4191 Y56.7841 Z-0.1000 S1000
G1 F400 X21.0718 Y56.7540 Z-0.1000 S1000
G1 F400 X14.0714 Y56.7540 Z-0.1000 S1000
G1 F400 X13.7241 Y56.7841 Z-0.1000 S1000
G1 F400 X13.3872 Y56.8741 Z-0.1000 S1000
G1 F400 X13.0713 Y57.0216 Z-0.1000 S1000
G1 F400 X12.7859 Y57.2218 Z-0.1000 S1000
G1 F400 X12.5393 Y57.4684 Z-0.1000 S1000
G1 F400 X12.3391 Y57.7538 Z-0.1000 S1000
G1 F400 X12.1916 Y58.0697 Z-0.1000 S1000
G1 F400 X12.1016 Y58.4066 Z-0.1000 S1000
G1 F400 X12.0715 Y58.7540 Z-0.1000 S1000
G1 F400 X12.0715 Y65.7540 Z-0.1000 S1000
G1 F400 X12.1015 Y66.1014 Z-0.1000 S1000
G1 F400 X12.1915 Y66.4382 Z-0.1000 S1000
G1 F400 X12.3390 Y66.7542 Z-0.1000 S1000
G1 F400 X12.5392 Y67.0397 Z-0.1000 S1000
G1 F400 X12.7858 Y67.2863 Z-0.1000 S1000
G1 F400 X13.0712 Y67.4866 Z-0.1000 S1000
G1 F400 X13.3872 Y67.6341 Z-0.1000 S1000
G1 F400 X13.7240 Y67.7242 Z-0.1000 S1000
G1 F400 X14.0714 Y67.7543 Z-0.1000 S1000
G1 F400 X21.0718 Y67.7543 Z-0.1000 S1000
G1 F400 X21.4192 Y67.7242 Z-0.1000 S1000
G1 F400 X21.7560 Y67.6341 Z-0.1000 S1000
G1 F400 X22.0720 Y67.4866 Z-0.1000 S1000
G1 F400 X22.3574 Y67.2863 Z-0.1000 S1000
G1 F400 X22.6040 Y67.0397 Z-0.1000 S1000
G1 F400 X22.8041 Y66.7542 Z-0.1000 S1000
G1 F400 X22.9516 Y66.4382 Z-0.1000 S1000
G1 F400 X23.0417 Y66.1014 Z-0.1000 S1000
G1 F400 X23.0717 Y65.7540 Z-0.1000 S1000
G1 F400 X23.0717 Y58.7540 Z-0.1000 S1000
G1 F400 X23.0717 Y58.7540 Z-0.1000 S1000
; retracting back to z-safe
G0 Z10
; Pass 1
; Operation 0: Laser: Vector (no path offset)
; Laser Spot Diameter: 0.1

G0 Z10; move to z-safe height
G0 F1000 X23.0717 Y58.7540

G0 Z0
G1 F300 Z-0.1000
G1 F400 X23.0416 Y58.4066 Z-0.1000 S1000
G1 F400 X22.9516 Y58.0697 Z-0.1000 S1000
G1 F400 X22.8041 Y57.7538 Z-0.1000 S1000
G1 F400 X22.6039 Y57.4684 Z-0.1000 S1000
G1 F400 X22.3573 Y57.2218 Z-0.1000 S1000
G1 F400 X22.0719 Y57.0216 Z-0.1000 S1000
G1 F400 X21.7560 Y56.8741 Z-0.1000 S1000
G1 F400 X21.4191 Y56.7841 Z-0.1000 S1000
G1 F400 X21.0718 Y56.7540 Z-0.1000 S1000
G1 F400 X14.0714 Y56.7540 Z-0.1000 S1000
G1 F400 X13.7241 Y56.7841 Z-0.1000 S1000
G1 F400 X13.3872 Y56.8741 Z-0.1000 S1000
G1 F400 X13.0713 Y57.0216 Z-0.1000 S1000
G1 F400 X12.7859 Y57.2218 Z-0.1000 S1000
G1 F400 X12.5393 Y57.4684 Z-0.1000 S1000
G1 F400 X12.3391 Y57.7538 Z-0.1000 S1000
G1 F400 X12.1916 Y58.0697 Z-0.1000 S1000
G1 F400 X12.1016 Y58.4066 Z-0.1000 S1000
G1 F400 X12.0715 Y58.7540 Z-0.1000 S1000
G1 F400 X12.0715 Y65.7540 Z-0.1000 S1000
G1 F400 X12.1015 Y66.1014 Z-0.1000 S1000
G1 F400 X12.1915 Y66.4382 Z-0.1000 S1000
G1 F400 X12.3390 Y66.7542 Z-0.1000 S1000
G1 F400 X12.5392 Y67.0397 Z-0.1000 S1000
G1 F400 X12.7858 Y67.2863 Z-0.1000 S1000
G1 F400 X13.0712 Y67.4866 Z-0.1000 S1000
G1 F400 X13.3872 Y67.6341 Z-0.1000 S1000
G1 F400 X13.7240 Y67.7242 Z-0.1000 S1000
G1 F400 X14.0714 Y67.7543 Z-0.1000 S1000
G1 F400 X21.0718 Y67.7543 Z-0.1000 S1000
G1 F400 X21.4192 Y67.7242 Z-0.1000 S1000
G1 F400 X21.7560 Y67.6341 Z-0.1000 S1000
G1 F400 X22.0720 Y67.4866 Z-0.1000 S1000
G1 F400 X22.3574 Y67.2863 Z-0.1000 S1000
G1 F400 X22.6040 Y67.0397 Z-0.1000 S1000
G1 F400 X22.8041 Y66.7542 Z-0.1000 S1000
G1 F400 X22.9516 Y66.4382 Z-0.1000 S1000
G1 F400 X23.0417 Y66.1014 Z-0.1000 S1000
G1 F400 X23.0717 Y65.7540 Z-0.1000 S1000
G1 F400 X23.0717 Y58.7540 Z-0.1000 S1000
G1 F400 X23.0717 Y58.7540 Z-0.1000 S1000
; retracting back to z-safe
G0 Z10
; Pass 2
; Operation 0: Laser: Vector (no path offset)
; Laser Spot Diameter: 0.1

G0 Z10; move to z-safe height
G0 F1000 X23.0717 Y58.7540

G0 Z0
G1 F300 Z-0.1000
G1 F400 X23.0416 Y58.4066 Z-0.1000 S1000
G1 F400 X22.9516 Y58.0697 Z-0.1000 S1000
G1 F400 X22.8041 Y57.7538 Z-0.1000 S1000
G1 F400 X22.6039 Y57.4684 Z-0.1000 S1000
G1 F400 X22.3573 Y57.2218 Z-0.1000 S1000
G1 F400 X22.0719 Y57.0216 Z-0.1000 S1000
G1 F400 X21.7560 Y56.8741 Z-0.1000 S1000
G1 F400 X21.4191 Y56.7841 Z-0.1000 S1000
G1 F400 X21.0718 Y56.7540 Z-0.1000 S1000
G1 F400 X14.0714 Y56.7540 Z-0.1000 S1000
G1 F400 X13.7241 Y56.7841 Z-0.1000 S1000
G1 F400 X13.3872 Y56.8741 Z-0.1000 S1000
G1 F400 X13.0713 Y57.0216 Z-0.1000 S1000
G1 F400 X12.7859 Y57.2218 Z-0.1000 S1000
G1 F400 X12.5393 Y57.4684 Z-0.1000 S1000
G1 F400 X12.3391 Y57.7538 Z-0.1000 S1000
G1 F400 X12.1916 Y58.0697 Z-0.1000 S1000
G1 F400 X12.1016 Y58.4066 Z-0.1000 S1000
G1 F400 X12.0715 Y58.7540 Z-0.1000 S1000
G1 F400 X12.0715 Y65.7540 Z-0.1000 S1000
G1 F400 X12.1015 Y66.1014 Z-0.1000 S1000
G1 F400 X12.1915 Y66.4382 Z-0.1000 S1000
G1 F400 X12.3390 Y66.7542 Z-0.1000 S1000
G1 F400 X12.5392 Y67.0397 Z-0.1000 S1000
G1 F400 X12.7858 Y67.2863 Z-0.1000 S1000
G1 F400 X13.0712 Y67.4866 Z-0.1000 S1000
G1 F400 X13.3872 Y67.6341 Z-0.1000 S1000
G1 F400 X13.7240 Y67.7242 Z-0.1000 S1000
G1 F400 X14.0714 Y67.7543 Z-0.1000 S1000
G1 F400 X21.0718 Y67.7543 Z-0.1000 S1000
G1 F400 X21.4192 Y67.7242 Z-0.1000 S1000
G1 F400 X21.7560 Y67.6341 Z-0.1000 S1000
G1 F400 X22.0720 Y67.4866 Z-0.1000 S1000
G1 F400 X22.3574 Y67.2863 Z-0.1000 S1000
G1 F400 X22.6040 Y67.0397 Z-0.1000 S1000
G1 F400 X22.8041 Y66.7542 Z-0.1000 S1000
G1 F400 X22.9516 Y66.4382 Z-0.1000 S1000
G1 F400 X23.0417 Y66.1014 Z-0.1000 S1000
G1 F400 X23.0717 Y65.7540 Z-0.1000 S1000
G1 F400 X23.0717 Y58.7540 Z-0.1000 S1000
G1 F400 X23.0717 Y58.7540 Z-0.1000 S1000
; retracting back to z-safe
G0 Z10
; Pass 3
; Operation 0: Laser: Vector (no path offset)
; Laser Spot Diameter: 0.1

G0 Z10; move to z-safe height
G0 F1000 X23.0717 Y58.7540

G0 Z0
G1 F300 Z-0.1000
G1 F400 X23.0416 Y58.4066 Z-0.1000 S1000
G1 F400 X22.9516 Y58.0697 Z-0.1000 S1000
G1 F400 X22.8041 Y57.7538 Z-0.1000 S1000
G1 F400 X22.6039 Y57.4684 Z-0.1000 S1000
G1 F400 X22.3573 Y57.2218 Z-0.1000 S1000
G1 F400 X22.0719 Y57.0216 Z-0.1000 S1000
G1 F400 X21.7560 Y56.8741 Z-0.1000 S1000
G1 F400 X21.4191 Y56.7841 Z-0.1000 S1000
G1 F400 X21.0718 Y56.7540 Z-0.1000 S1000
G1 F400 X14.0714 Y56.7540 Z-0.1000 S1000
G1 F400 X13.7241 Y56.7841 Z-0.1000 S1000
G1 F400 X13.3872 Y56.8741 Z-0.1000 S1000
G1 F400 X13.0713 Y57.0216 Z-0.1000 S1000
G1 F400 X12.7859 Y57.2218 Z-0.1000 S1000
G1 F400 X12.5393 Y57.4684 Z-0.1000 S1000
G1 F400 X12.3391 Y57.7538 Z-0.1000 S1000
G1 F400 X12.1916 Y58.0697 Z-0.1000 S1000
G1 F400 X12.1016 Y58.4066 Z-0.1000 S1000
G1 F400 X12.0715 Y58.7540 Z-0.1000 S1000
G1 F400 X12.0715 Y65.7540 Z-0.1000 S1000
G1 F400 X12.1015 Y66.1014 Z-0.1000 S1000
G1 F400 X12.1915 Y66.4382 Z-0.1000 S1000
G1 F400 X12.3390 Y66.7542 Z-0.1000 S1000
G1 F400 X12.5392 Y67.0397 Z-0.1000 S1000
G1 F400 X12.7858 Y67.2863 Z-0.1000 S1000
G1 F400 X13.0712 Y67.4866 Z-0.1000 S1000
G1 F400 X13.3872 Y67.6341 Z-0.1000 S1000
G1 F400 X13.7240 Y67.7242 Z-0.1000 S1000
G1 F400 X14.0714 Y67.7543 Z-0.1000 S1000
G1 F400 X21.0718 Y67.7543 Z-0.1000 S1000
G1 F400 X21.4192 Y67.7242 Z-0.1000 S1000
G1 F400 X21.7560 Y67.6341 Z-0.1000 S1000
G1 F400 X22.0720 Y67.4866 Z-0.1000 S1000
G1 F400 X22.3574 Y67.2863 Z-0.1000 S1000
G1 F400 X22.6040 Y67.0397 Z-0.1000 S1000
G1 F400 X22.8041 Y66.7542 Z-0.1000 S1000
G1 F400 X22.9516 Y66.4382 Z-0.1000 S1000
G1 F400 X23.0417 Y66.1014 Z-0.1000 S1000
G1 F400 X23.0717 Y65.7540 Z-0.1000 S1000
G1 F400 X23.0717 Y58.7540 Z-0.1000 S1000
G1 F400 X23.0717 Y58.7540 Z-0.1000 S1000
; retracting back to z-safe
G0 Z10
; Pass 4
; Operation 0: Laser: Vector (no path offset)
; Laser Spot Diameter: 0.1

G0 Z10; move to z-safe height
G0 F1000 X23.0717 Y58.7540

G0 Z0
G1 F300 Z-0.1000
G1 F400 X23.0416 Y58.4066 Z-0.1000 S1000
G1 F400 X22.9516 Y58.0697 Z-0.1000 S1000
G1 F400 X22.8041 Y57.7538 Z-0.1000 S1000
G1 F400 X22.6039 Y57.4684 Z-0.1000 S1000
G1 F400 X22.3573 Y57.2218 Z-0.1000 S1000
G1 F400 X22.0719 Y57.0216 Z-0.1000 S1000
G1 F400 X21.7560 Y56.8741 Z-0.1000 S1000
G1 F400 X21.4191 Y56.7841 Z-0.1000 S1000
G1 F400 X21.0718 Y56.7540 Z-0.1000 S1000
G1 F400 X14.0714 Y56.7540 Z-0.1000 S1000
G1 F400 X13.7241 Y56.7841 Z-0.1000 S1000
G1 F400 X13.3872 Y56.8741 Z-0.1000 S1000
G1 F400 X13.0713 Y57.0216 Z-0.1000 S1000
G1 F400 X12.7859 Y57.2218 Z-0.1000 S1000
G1 F400 X12.5393 Y57.4684 Z-0.1000 S1000
G1 F400 X12.3391 Y57.7538 Z-0.1000 S1000
G1 F400 X12.1916 Y58.0697 Z-0.1000 S1000
G1 F400 X12.1016 Y58.4066 Z-0.1000 S1000
G1 F400 X12.0715 Y58.7540 Z-0.1000 S1000
G1 F400 X12.0715 Y65.7540 Z-0.1000 S1000
G1 F400 X12.1015 Y66.1014 Z-0.1000 S1000
G1 F400 X12.1915 Y66.4382 Z-0.1000 S1000
G1 F400 X12.3390 Y66.7542 Z-0.1000 S1000
G1 F400 X12.5392 Y67.0397 Z-0.1000 S1000
G1 F400 X12.7858 Y67.2863 Z-0.1000 S1000
G1 F400 X13.0712 Y67.4866 Z-0.1000 S1000
G1 F400 X13.3872 Y67.6341 Z-0.1000 S1000
G1 F400 X13.7240 Y67.7242 Z-0.1000 S1000
G1 F400 X14.0714 Y67.7543 Z-0.1000 S1000
G1 F400 X21.0718 Y67.7543 Z-0.1000 S1000
G1 F400 X21.4192 Y67.7242 Z-0.1000 S1000
G1 F400 X21.7560 Y67.6341 Z-0.1000 S1000
G1 F400 X22.0720 Y67.4866 Z-0.1000 S1000
G1 F400 X22.3574 Y67.2863 Z-0.1000 S1000
G1 F400 X22.6040 Y67.0397 Z-0.1000 S1000
G1 F400 X22.8041 Y66.7542 Z-0.1000 S1000
G1 F400 X22.9516 Y66.4382 Z-0.1000 S1000
G1 F400 X23.0417 Y66.1014 Z-0.1000 S1000
G1 F400 X23.0717 Y65.7540 Z-0.1000 S1000
G1 F400 X23.0717 Y58.7540 Z-0.1000 S1000
G1 F400 X23.0717 Y58.7540 Z-0.1000 S1000
; retracting back to z-safe
G0 Z10
; Pass 5
; Operation 0: Laser: Vector (no path offset)
; Laser Spot Diameter: 0.1

G0 Z10; move to z-safe height
G0 F1000 X23.0717 Y58.7540

G0 Z0
G1 F300 Z-0.1000
G1 F400 X23.0416 Y58.4066 Z-0.1000 S1000
G1 F400 X22.9516 Y58.0697 Z-0.1000 S1000
G1 F400 X22.8041 Y57.7538 Z-0.1000 S1000
G1 F400 X22.6039 Y57.4684 Z-0.1000 S1000
G1 F400 X22.3573 Y57.2218 Z-0.1000 S1000
G1 F400 X22.0719 Y57.0216 Z-0.1000 S1000
G1 F400 X21.7560 Y56.8741 Z-0.1000 S1000
G1 F400 X21.4191 Y56.7841 Z-0.1000 S1000
G1 F400 X21.0718 Y56.7540 Z-0.1000 S1000
G1 F400 X14.0714 Y56.7540 Z-0.1000 S1000
G1 F400 X13.7241 Y56.7841 Z-0.1000 S1000
G1 F400 X13.3872 Y56.8741 Z-0.1000 S1000
G1 F400 X13.0713 Y57.0216 Z-0.1000 S1000
G1 F400 X12.7859 Y57.2218 Z-0.1000 S1000
G1 F400 X12.5393 Y57.4684 Z-0.1000 S1000
G1 F400 X12.3391 Y57.7538 Z-0.1000 S1000
G1 F400 X12.1916 Y58.0697 Z-0.1000 S1000
G1 F400 X12.1016 Y58.4066 Z-0.1000 S1000
G1 F400 X12.0715 Y58.7540 Z-0.1000 S1000
G1 F400 X12.0715 Y65.7540 Z-0.1000 S1000
G1 F400 X12.1015 Y66.1014 Z-0.1000 S1000
G1 F400 X12.1915 Y66.4382 Z-0.1000 S1000
G1 F400 X12.3390 Y66.7542 Z-0.1000 S1000
G1 F400 X12.5392 Y67.0397 Z-0.1000 S1000
G1 F400 X12.7858 Y67.2863 Z-0.1000 S1000
G1 F400 X13.0712 Y67.4866 Z-0.1000 S1000
G1 F400 X13.3872 Y67.6341 Z-0.1000 S1000
G1 F400 X13.7240 Y67.7242 Z-0.1000 S1000
G1 F400 X14.0714 Y67.7543 Z-0.1000 S1000
G1 F400 X21.0718 Y67.7543 Z-0.1000 S1000
G1 F400 X21.4192 Y67.7242 Z-0.1000 S1000
G1 F400 X21.7560 Y67.6341 Z-0.1000 S1000
G1 F400 X22.0720 Y67.4866 Z-0.1000 S1000
G1 F400 X22.3574 Y67.2863 Z-0.1000 S1000
G1 F400 X22.6040 Y67.0397 Z-0.1000 S1000
G1 F400 X22.8041 Y66.7542 Z-0.1000 S1000
G1 F400 X22.9516 Y66.4382 Z-0.1000 S1000
G1 F400 X23.0417 Y66.1014 Z-0.1000 S1000
G1 F400 X23.0717 Y65.7540 Z-0.1000 S1000
G1 F400 X23.0717 Y58.7540 Z-0.1000 S1000
G1 F400 X23.0717 Y58.7540 Z-0.1000 S1000
; retracting back to z-safe
G0 Z10
; Pass 0
; Operation 1: Laser: Vector (no path offset)
; Laser Spot Diameter: 0.1

G0 Z10; move to z-safe height
G0 F1000 X38.0721 Y58.7540

G0 Z0
G1 F300 Z-0.1000
G1 F400 X38.0421 Y58.4066 Z-0.1000 S1000
G1 F400 X37.9520 Y58.0698 Z-0.1000 S1000
G1 F400 X37.8045 Y57.7539 Z-0.1000 S1000
G1 F400 X37.6042 Y57.4684 Z-0.1000 S1000
G1 F400 X37.3577 Y57.2219 Z-0.1000 S1000
G1 F400 X37.0723 Y57.0217 Z-0.1000 S1000
G1 F400 X36.7564 Y56.8741 Z-0.1000 S1000
G1 F400 X36.4196 Y56.7841 Z-0.1000 S1000
G1 F400 X36.0722 Y56.7540 Z-0.1000 S1000
G1 F400 X29.0719 Y56.7540 Z-0.1000 S1000
G1 F400 X28.7245 Y56.7841 Z-0.1000 S1000
G1 F400 X28.3877 Y56.8741 Z-0.1000 S1000
G1 F400 X28.0718 Y57.0216 Z-0.1000 S1000
G1 F400 X27.7863 Y57.2218 Z-0.1000 S1000
G1 F400 X27.5398 Y57.4684 Z-0.1000 S1000
G1 F400 X27.3396 Y57.7538 Z-0.1000 S1000
G1 F400 X27.1920 Y58.0697 Z-0.1000 S1000
G1 F400 X27.1020 Y58.4066 Z-0.1000 S1000
G1 F400 X27.0719 Y58.7540 Z-0.1000 S1000
G1 F400 X27.0719 Y65.7540 Z-0.1000 S1000
G1 F400 X27.1020 Y66.1014 Z-0.1000 S1000
G1 F400 X27.1920 Y66.4382 Z-0.1000 S1000
G1 F400 X27.3395 Y66.7542 Z-0.1000 S1000
G1 F400 X27.5397 Y67.0397 Z-0.1000 S1000
G1 F400 X27.7862 Y67.2863 Z-0.1000 S1000
G1 F400 X28.0717 Y67.4866 Z-0.1000 S1000
G1 F400 X28.3876 Y67.6341 Z-0.1000 S1000
G1 F400 X28.7245 Y67.7242 Z-0.1000 S1000
G1 F400 X29.0719 Y67.7543 Z-0.1000 S1000
G1 F400 X36.0722 Y67.7543 Z-0.1000 S1000
G1 F400 X36.4196 Y67.7242 Z-0.1000 S1000
G1 F400 X36.7565 Y67.6341 Z-0.1000 S1000
G1 F400 X37.0724 Y67.4865 Z-0.1000 S1000
G1 F400 X37.3578 Y67.2862 Z-0.1000 S1000
G1 F400 X37.6043 Y67.0396 Z-0.1000 S1000
G1 F400 X37.8045 Y66.7542 Z-0.1000 S1000
G1 F400 X37.9521 Y66.4382 Z-0.1000 S1000
G1 F400 X38.0421 Y66.1014 Z-0.1000 S1000
G1 F400 X38.0721 Y65.7540 Z-0.1000 S1000
G1 F400 X38.0721 Y58.7540 Z-0.1000 S1000
G1 F400 X38.0721 Y58.7540 Z-0.1000 S1000
; retracting back to z-safe
G0 Z10
; Pass 1
; Operation 1: Laser: Vector (no path offset)
; Laser Spot Diameter: 0.1

G0 Z10; move to z-safe height
G0 F1000 X38.0721 Y58.7540

G0 Z0
G1 F300 Z-0.1000
G1 F400 X38.0421 Y58.4066 Z-0.1000 S1000
G1 F400 X37.9520 Y58.0698 Z-0.1000 S1000
G1 F400 X37.8045 Y57.7539 Z-0.1000 S1000
G1 F400 X37.6042 Y57.4684 Z-0.1000 S1000
G1 F400 X37.3577 Y57.2219 Z-0.1000 S1000
G1 F400 X37.0723 Y57.0217 Z-0.1000 S1000
G1 F400 X36.7564 Y56.8741 Z-0.1000 S1000
G1 F400 X36.4196 Y56.7841 Z-0.1000 S1000
G1 F400 X36.0722 Y56.7540 Z-0.1000 S1000
G1 F400 X29.0719 Y56.7540 Z-0.1000 S1000
G1 F400 X28.7245 Y56.7841 Z-0.1000 S1000
G1 F400 X28.3877 Y56.8741 Z-0.1000 S1000
G1 F400 X28.0718 Y57.0216 Z-0.1000 S1000
G1 F400 X27.7863 Y57.2218 Z-0.1000 S1000
G1 F400 X27.5398 Y57.4684 Z-0.1000 S1000
G1 F400 X27.3396 Y57.7538 Z-0.1000 S1000
G1 F400 X27.1920 Y58.0697 Z-0.1000 S1000
G1 F400 X27.1020 Y58.4066 Z-0.1000 S1000
G1 F400 X27.0719 Y58.7540 Z-0.1000 S1000
G1 F400 X27.0719 Y65.7540 Z-0.1000 S1000
G1 F400 X27.1020 Y66.1014 Z-0.1000 S1000
G1 F400 X27.1920 Y66.4382 Z-0.1000 S1000
G1 F400 X27.3395 Y66.7542 Z-0.1000 S1000
G1 F400 X27.5397 Y67.0397 Z-0.1000 S1000
G1 F400 X27.7862 Y67.2863 Z-0.1000 S1000
G1 F400 X28.0717 Y67.4866 Z-0.1000 S1000
G1 F400 X28.3876 Y67.6341 Z-0.1000 S1000
G1 F400 X28.7245 Y67.7242 Z-0.1000 S1000
G1 F400 X29.0719 Y67.7543 Z-0.1000 S1000
G1 F400 X36.0722 Y67.7543 Z-0.1000 S1000
G1 F400 X36.4196 Y67.7242 Z-0.1000 S1000
G1 F400 X36.7565 Y67.6341 Z-0.1000 S1000
G1 F400 X37.0724 Y67.4865 Z-0.1000 S1000
G1 F400 X37.3578 Y67.2862 Z-0.1000 S1000
G1 F400 X37.6043 Y67.0396 Z-0.1000 S1000
G1 F400 X37.8045 Y66.7542 Z-0.1000 S1000
G1 F400 X37.9521 Y66.4382 Z-0.1000 S1000
G1 F400 X38.0421 Y66.1014 Z-0.1000 S1000
G1 F400 X38.0721 Y65.7540 Z-0.1000 S1000
G1 F400 X38.0721 Y58.7540 Z-0.1000 S1000
G1 F400 X38.0721 Y58.7540 Z-0.1000 S1000
; retracting back to z-safe
G0 Z10
; Pass 2
; Operation 1: Laser: Vector (no path offset)
; Laser Spot Diameter: 0.1

G0 Z10; move to z-safe height
G0 F1000 X38.0721 Y58.7540

G0 Z0
G1 F300 Z-0.1000
G1 F400 X38.0421 Y58.4066 Z-0.1000 S1000
G1 F400 X37.9520 Y58.0698 Z-0.1000 S1000
G1 F400 X37.8045 Y57.7539 Z-0.1000 S1000
G1 F400 X37.6042 Y57.4684 Z-0.1000 S1000
G1 F400 X37.3577 Y57.2219 Z-0.1000 S1000
G1 F400 X37.0723 Y57.0217 Z-0.1000 S1000
G1 F400 X36.7564 Y56.8741 Z-0.1000 S1000
G1 F400 X36.4196 Y56.7841 Z-0.1000 S1000
G1 F400 X36.0722 Y56.7540 Z-0.1000 S1000
G1 F400 X29.0719 Y56.7540 Z-0.1000 S1000
G1 F400 X28.7245 Y56.7841 Z-0.1000 S1000
G1 F400 X28.3877 Y56.8741 Z-0.1000 S1000
G1 F400 X28.0718 Y57.0216 Z-0.1000 S1000
G1 F400 X27.7863 Y57.2218 Z-0.1000 S1000
G1 F400 X27.5398 Y57.4684 Z-0.1000 S1000
G1 F400 X27.3396 Y57.7538 Z-0.1000 S1000
G1 F400 X27.1920 Y58.0697 Z-0.1000 S1000
G1 F400 X27.1020 Y58.4066 Z-0.1000 S1000
G1 F400 X27.0719 Y58.7540 Z-0.1000 S1000
G1 F400 X27.0719 Y65.7540 Z-0.1000 S1000
G1 F400 X27.1020 Y66.1014 Z-0.1000 S1000
G1 F400 X27.1920 Y66.4382 Z-0.1000 S1000
G1 F400 X27.3395 Y66.7542 Z-0.1000 S1000
G1 F400 X27.5397 Y67.0397 Z-0.1000 S1000
G1 F400 X27.7862 Y67.2863 Z-0.1000 S1000
G1 F400 X28.0717 Y67.4866 Z-0.1000 S1000
G1 F400 X28.3876 Y67.6341 Z-0.1000 S1000
G1 F400 X28.7245 Y67.7242 Z-0.1000 S1000
G1 F400 X29.0719 Y67.7543 Z-0.1000 S1000
G1 F400 X36.0722 Y67.7543 Z-0.1000 S1000
G1 F400 X36.4196 Y67.7242 Z-0.1000 S1000
G1 F400 X36.7565 Y67.6341 Z-0.1000 S1000
G1 F400 X37.0724 Y67.4865 Z-0.1000 S1000
G1 F400 X37.3578 Y67.2862 Z-0.1000 S1000
G1 F400 X37.6043 Y67.0396 Z-0.1000 S1000
G1 F400 X37.8045 Y66.7542 Z-0.1000 S1000
G1 F400 X37.9521 Y66.4382 Z-0.1000 S1000
G1 F400 X38.0421 Y66.1014 Z-0.1000 S1000
G1 F400 X38.0721 Y65.7540 Z-0.1000 S1000
G1 F400 X38.0721 Y58.7540 Z-0.1000 S1000
G1 F400 X38.0721 Y58.7540 Z-0.1000 S1000
; retracting back to z-safe
G0 Z10
; Pass 3
; Operation 1: Laser: Vector (no path offset)
; Laser Spot Diameter: 0.1

G0 Z10; move to z-safe height
G0 F1000 X38.0721 Y58.7540

G0 Z0
G1 F300 Z-0.1000
G1 F400 X38.0421 Y58.4066 Z-0.1000 S1000
G1 F400 X37.9520 Y58.0698 Z-0.1000 S1000
G1 F400 X37.8045 Y57.7539 Z-0.1000 S1000
G1 F400 X37.6042 Y57.4684 Z-0.1000 S1000
G1 F400 X37.3577 Y57.2219 Z-0.1000 S1000
G1 F400 X37.0723 Y57.0217 Z-0.1000 S1000
G1 F400 X36.7564 Y56.8741 Z-0.1000 S1000
G1 F400 X36.4196 Y56.7841 Z-0.1000 S1000
G1 F400 X36.0722 Y56.7540 Z-0.1000 S1000
G1 F400 X29.0719 Y56.7540 Z-0.1000 S1000
G1 F400 X28.7245 Y56.7841 Z-0.1000 S1000
G1 F400 X28.3877 Y56.8741 Z-0.1000 S1000
G1 F400 X28.0718 Y57.0216 Z-0.1000 S1000
G1 F400 X27.7863 Y57.2218 Z-0.1000 S1000
G1 F400 X27.5398 Y57.4684 Z-0.1000 S1000
G1 F400 X27.3396 Y57.7538 Z-0.1000 S1000
G1 F400 X27.1920 Y58.0697 Z-0.1000 S1000
G1 F400 X27.1020 Y58.4066 Z-0.1000 S1000
G1 F400 X27.0719 Y58.7540 Z-0.1000 S1000
G1 F400 X27.0719 Y65.7540 Z-0.1000 S1000
G1 F400 X27.1020 Y66.1014 Z-0.1000 S1000
G1 F400 X27.1920 Y66.4382 Z-0.1000 S1000
G1 F400 X27.3395 Y66.7542 Z-0.1000 S1000
G1 F400 X27.5397 Y67.0397 Z-0.1000 S1000
G1 F400 X27.7862 Y67.2863 Z-0.1000 S1000
G1 F400 X28.0717 Y67.4866 Z-0.1000 S1000
G1 F400 X28.3876 Y67.6341 Z-0.1000 S1000
G1 F400 X28.7245 Y67.7242 Z-0.1000 S1000
G1 F400 X29.0719 Y67.7543 Z-0.1000 S1000
G1 F400 X36.0722 Y67.7543 Z-0.1000 S1000
G1 F400 X36.4196 Y67.7242 Z-0.1000 S1000
G1 F400 X36.7565 Y67.6341 Z-0.1000 S1000
G1 F400 X37.0724 Y67.4865 Z-0.1000 S1000
G1 F400 X37.3578 Y67.2862 Z-0.1000 S1000
G1 F400 X37.6043 Y67.0396 Z-0.1000 S1000
G1 F400 X37.8045 Y66.7542 Z-0.1000 S1000
G1 F400 X37.9521 Y66.4382 Z-0.1000 S1000
G1 F400 X38.0421 Y66.1014 Z-0.1000 S1000
G1 F400 X38.0721 Y65.7540 Z-0.1000 S1000
G1 F400 X38.0721 Y58.7540 Z-0.1000 S1000
G1 F400 X38.0721 Y58.7540 Z-0.1000 S1000
; retracting back to z-safe
G0 Z10
; Pass 4
; Operation 1: Laser: Vector (no path offset)
; Laser Spot Diameter: 0.1

G0 Z10; move to z-safe height
G0 F1000 X38.0721 Y58.7540

G0 Z0
G1 F300 Z-0.1000
G1 F400 X38.0421 Y58.4066 Z-0.1000 S1000
G1 F400 X37.9520 Y58.0698 Z-0.1000 S1000
G1 F400 X37.8045 Y57.7539 Z-0.1000 S1000
G1 F400 X37.6042 Y57.4684 Z-0.1000 S1000
G1 F400 X37.3577 Y57.2219 Z-0.1000 S1000
G1 F400 X37.0723 Y57.0217 Z-0.1000 S1000
G1 F400 X36.7564 Y56.8741 Z-0.1000 S1000
G1 F400 X36.4196 Y56.7841 Z-0.1000 S1000
G1 F400 X36.0722 Y56.7540 Z-0.1000 S1000
G1 F400 X29.0719 Y56.7540 Z-0.1000 S1000
G1 F400 X28.7245 Y56.7841 Z-0.1000 S1000
G1 F400 X28.3877 Y56.8741 Z-0.1000 S1000
G1 F400 X28.0718 Y57.0216 Z-0.1000 S1000
G1 F400 X27.7863 Y57.2218 Z-0.1000 S1000
G1 F400 X27.5398 Y57.4684 Z-0.1000 S1000
G1 F400 X27.3396 Y57.7538 Z-0.1000 S1000
G1 F400 X27.1920 Y58.0697 Z-0.1000 S1000
G1 F400 X27.1020 Y58.4066 Z-0.1000 S1000
G1 F400 X27.0719 Y58.7540 Z-0.1000 S1000
G1 F400 X27.0719 Y65.7540 Z-0.1000 S1000
G1 F400 X27.1020 Y66.1014 Z-0.1000 S1000
G1 F400 X27.1920 Y66.4382 Z-0.1000 S1000
G1 F400 X27.3395 Y66.7542 Z-0.1000 S1000
G1 F400 X27.5397 Y67.0397 Z-0.1000 S1000
G1 F400 X27.7862 Y67.2863 Z-0.1000 S1000
G1 F400 X28.0717 Y67.4866 Z-0.1000 S1000
G1 F400 X28.3876 Y67.6341 Z-0.1000 S1000
G1 F400 X28.7245 Y67.7242 Z-0.1000 S1000
G1 F400 X29.0719 Y67.7543 Z-0.1000 S1000
G1 F400 X36.0722 Y67.7543 Z-0.1000 S1000
G1 F400 X36.4196 Y67.7242 Z-0.1000 S1000
G1 F400 X36.7565 Y67.6341 Z-0.1000 S1000
G1 F400 X37.0724 Y67.4865 Z-0.1000 S1000
G1 F400 X37.3578 Y67.2862 Z-0.1000 S1000
G1 F400 X37.6043 Y67.0396 Z-0.1000 S1000
G1 F400 X37.8045 Y66.7542 Z-0.1000 S1000
G1 F400 X37.9521 Y66.4382 Z-0.1000 S1000
G1 F400 X38.0421 Y66.1014 Z-0.1000 S1000
G1 F400 X38.0721 Y65.7540 Z-0.1000 S1000
G1 F400 X38.0721 Y58.7540 Z-0.1000 S1000
G1 F400 X38.0721 Y58.7540 Z-0.1000 S1000
; retracting back to z-safe
G0 Z10
; Pass 5
; Operation 1: Laser: Vector (no path offset)
; Laser Spot Diameter: 0.1

G0 Z10; move to z-safe height
G0 F1000 X38.0721 Y58.7540

G0 Z0
G1 F300 Z-0.1000
G1 F400 X38.0421 Y58.4066 Z-0.1000 S1000
G1 F400 X37.9520 Y58.0698 Z-0.1000 S1000
G1 F400 X37.8045 Y57.7539 Z-0.1000 S1000
G1 F400 X37.6042 Y57.4684 Z-0.1000 S1000
G1 F400 X37.3577 Y57.2219 Z-0.1000 S1000
G1 F400 X37.0723 Y57.0217 Z-0.1000 S1000
G1 F400 X36.7564 Y56.8741 Z-0.1000 S1000
G1 F400 X36.4196 Y56.7841 Z-0.1000 S1000
G1 F400 X36.0722 Y56.7540 Z-0.1000 S1000
G1 F400 X29.0719 Y56.7540 Z-0.1000 S1000
G1 F400 X28.7245 Y56.7841 Z-0.1000 S1000
G1 F400 X28.3877 Y56.8741 Z-0.1000 S1000
G1 F400 X28.0718 Y57.0216 Z-0.1000 S1000
G1 F400 X27.7863 Y57.2218 Z-0.1000 S1000
G1 F400 X27.5398 Y57.4684 Z-0.1000 S1000
G1 F400 X27.3396 Y57.7538 Z-0.1000 S1000
G1 F400 X27.1920 Y58.0697 Z-0.1000 S1000
G1 F400 X27.1020 Y58.4066 Z-0.1000 S1000
G1 F400 X27.0719 Y58.7540 Z-0.1000 S1000
G1 F400 X27.0719 Y65.7540 Z-0.1000 S1000
G1 F400 X27.1020 Y66.1014 Z-0.1000 S1000
G1 F400 X27.1920 Y66.4382 Z-0.1000 S1000
G1 F400 X27.3395 Y66.7542 Z-0.1000 S1000
G1 F400 X27.5397 Y67.0397 Z-0.1000 S1000
G1 F400 X27.7862 Y67.2863 Z-0.1000 S1000
G1 F400 X28.0717 Y67.4866 Z-0.1000 S1000
G1 F400 X28.3876 Y67.6341 Z-0.1000 S1000
G1 F400 X28.7245 Y67.7242 Z-0.1000 S1000
G1 F400 X29.0719 Y67.7543 Z-0.1000 S1000
G1 F400 X36.0722 Y67.7543 Z-0.1000 S1000
G1 F400 X36.4196 Y67.7242 Z-0.1000 S1000
G1 F400 X36.7565 Y67.6341 Z-0.1000 S1000
G1 F400 X37.0724 Y67.4865 Z-0.1000 S1000
G1 F400 X37.3578 Y67.2862 Z-0.1000 S1000
G1 F400 X37.6043 Y67.0396 Z-0.1000 S1000
G1 F400 X37.8045 Y66.7542 Z-0.1000 S1000
G1 F400 X37.9521 Y66.4382 Z-0.1000 S1000
G1 F400 X38.0421 Y66.1014 Z-0.1000 S1000
G1 F400 X38.0721 Y65.7540 Z-0.1000 S1000
G1 F400 X38.0721 Y58.7540 Z-0.1000 S1000
G1 F400 X38.0721 Y58.7540 Z-0.1000 S1000
; retracting back to z-safe
G0 Z10
; Pass 0
; Operation 2: Laser: Vector (no path offset)
; Laser Spot Diameter: 0.1

G0 Z10; move to z-safe height
G0 F1000 X53.0725 Y58.7540

G0 Z0
G1 F300 Z-0.1000
G1 F400 X53.0424 Y58.4066 Z-0.1000 S1000
G1 F400 X52.9524 Y58.0697 Z-0.1000 S1000
G1 F400 X52.8048 Y57.7538 Z-0.1000 S1000
G1 F400 X52.6046 Y57.4684 Z-0.1000 S1000
G1 F400 X52.3581 Y57.2218 Z-0.1000 S1000
G1 F400 X52.0726 Y57.0216 Z-0.1000 S1000
G1 F400 X51.7567 Y56.8741 Z-0.1000 S1000
G1 F400 X51.4199 Y56.7841 Z-0.1000 S1000
G1 F400 X51.0725 Y56.7540 Z-0.1000 S1000
G1 F400 X44.0722 Y56.7540 Z-0.1000 S1000
G1 F400 X43.7248 Y56.7841 Z-0.1000 S1000
G1 F400 X43.3880 Y56.8741 Z-0.1000 S1000
G1 F400 X43.0721 Y57.0216 Z-0.1000 S1000
G1 F400 X42.7866 Y57.2218 Z-0.1000 S1000
G1 F400 X42.5401 Y57.4684 Z-0.1000 S1000
G1 F400 X42.3399 Y57.7538 Z-0.1000 S1000
G1 F400 X42.1923 Y58.0697 Z-0.1000 S1000
G1 F400 X42.1023 Y58.4066 Z-0.1000 S1000
G1 F400 X42.0722 Y58.7540 Z-0.1000 S1000
G1 F400 X42.0722 Y65.7540 Z-0.1000 S1000
G1 F400 X42.1023 Y66.1014 Z-0.1000 S1000
G1 F400 X42.1923 Y66.4382 Z-0.1000 S1000
G1 F400 X42.3398 Y66.7542 Z-0.1000 S1000
G1 F400 X42.5400 Y67.0397 Z-0.1000 S1000
G1 F400 X42.7865 Y67.2863 Z-0.1000 S1000
G1 F400 X43.0720 Y67.4866 Z-0.1000 S1000
G1 F400 X43.3879 Y67.6341 Z-0.1000 S1000
G1 F400 X43.7248 Y67.7242 Z-0.1000 S1000
G1 F400 X44.0722 Y67.7543 Z-0.1000 S1000
G1 F400 X51.0725 Y67.7543 Z-0.1000 S1000
G1 F400 X51.4199 Y67.7242 Z-0.1000 S1000
G1 F400 X51.7568 Y67.6341 Z-0.1000 S1000
G1 F400 X52.0727 Y67.4866 Z-0.1000 S1000
G1 F400 X52.3582 Y67.2863 Z-0.1000 S1000
G1 F400 X52.6047 Y67.0397 Z-0.1000 S1000
G1 F400 X52.8049 Y66.7542 Z-0.1000 S1000
G1 F400 X52.9524 Y66.4382 Z-0.1000 S1000
G1 F400 X53.0424 Y66.1014 Z-0.1000 S1000
G1 F400 X53.0725 Y65.7540 Z-0.1000 S1000
G1 F400 X53.0725 Y58.7540 Z-0.1000 S1000
G1 F400 X53.0725 Y58.7540 Z-0.1000 S1000
; retracting back to z-safe
G0 Z10
; Pass 1
; Operation 2: Laser: Vector (no path offset)
; Laser Spot Diameter: 0.1

G0 Z10; move to z-safe height
G0 F1000 X53.0725 Y58.7540

G0 Z0
G1 F300 Z-0.1000
G1 F400 X53.0424 Y58.4066 Z-0.1000 S1000
G1 F400 X52.9524 Y58.0697 Z-0.1000 S1000
G1 F400 X52.8048 Y57.7538 Z-0.1000 S1000
G1 F400 X52.6046 Y57.4684 Z-0.1000 S1000
G1 F400 X52.3581 Y57.2218 Z-0.1000 S1000
G1 F400 X52.0726 Y57.0216 Z-0.1000 S1000
G1 F400 X51.7567 Y56.8741 Z-0.1000 S1000
G1 F400 X51.4199 Y56.7841 Z-0.1000 S1000
G1 F400 X51.0725 Y56.7540 Z-0.1000 S1000
G1 F400 X44.0722 Y56.7540 Z-0.1000 S1000
G1 F400 X43.7248 Y56.7841 Z-0.1000 S1000
G1 F400 X43.3880 Y56.8741 Z-0.1000 S1000
G1 F400 X43.0721 Y57.0216 Z-0.1000 S1000
G1 F400 X42.7866 Y57.2218 Z-0.1000 S1000
G1 F400 X42.5401 Y57.4684 Z-0.1000 S1000
G1 F400 X42.3399 Y57.7538 Z-0.1000 S1000
G1 F400 X42.1923 Y58.0697 Z-0.1000 S1000
G1 F400 X42.1023 Y58.4066 Z-0.1000 S1000
G1 F400 X42.0722 Y58.7540 Z-0.1000 S1000
G1 F400 X42.0722 Y65.7540 Z-0.1000 S1000
G1 F400 X42.1023 Y66.1014 Z-0.1000 S1000
G1 F400 X42.1923 Y66.4382 Z-0.1000 S1000
G1 F400 X42.3398 Y66.7542 Z-0.1000 S1000
G1 F400 X42.5400 Y67.0397 Z-0.1000 S1000
G1 F400 X42.7865 Y67.2863 Z-0.1000 S1000
G1 F400 X43.0720 Y67.4866 Z-0.1000 S1000
G1 F400 X43.3879 Y67.6341 Z-0.1000 S1000
G1 F400 X43.7248 Y67.7242 Z-0.1000 S1000
G1 F400 X44.0722 Y67.7543 Z-0.1000 S1000
G1 F400 X51.0725 Y67.7543 Z-0.1000 S1000
G1 F400 X51.4199 Y67.7242 Z-0.1000 S1000
G1 F400 X51.7568 Y67.6341 Z-0.1000 S1000
G1 F400 X52.0727 Y67.4866 Z-0.1000 S1000
G1 F400 X52.3582 Y67.2863 Z-0.1000 S1000
G1 F400 X52.6047 Y67.0397 Z-0.1000 S1000
G1 F400 X52.8049 Y66.7542 Z-0.1000 S1000
G1 F400 X52.9524 Y66.4382 Z-0.1000 S1000
G1 F400 X53.0424 Y66.1014 Z-0.1000 S1000
G1 F400 X53.0725 Y65.7540 Z-0.1000 S1000
G1 F400 X53.0725 Y58.7540 Z-0.1000 S1000
G1 F400 X53.0725 Y58.7540 Z-0.1000 S1000
; retracting back to z-safe
G0 Z10
; Pass 2
; Operation 2: Laser: Vector (no path offset)
; Laser Spot Diameter: 0.1

G0 Z10; move to z-safe height
G0 F1000 X53.0725 Y58.7540

G0 Z0
G1 F300 Z-0.1000
G1 F400 X53.0424 Y58.4066 Z-0.1000 S1000
G1 F400 X52.9524 Y58.0697 Z-0.1000 S1000
G1 F400 X52.8048 Y57.7538 Z-0.1000 S1000
G1 F400 X52.6046 Y57.4684 Z-0.1000 S1000
G1 F400 X52.3581 Y57.2218 Z-0.1000 S1000
G1 F400 X52.0726 Y57.0216 Z-0.1000 S1000
G1 F400 X51.7567 Y56.8741 Z-0.1000 S1000
G1 F400 X51.4199 Y56.7841 Z-0.1000 S1000
G1 F400 X51.0725 Y56.7540 Z-0.1000 S1000
G1 F400 X44.0722 Y56.7540 Z-0.1000 S1000
G1 F400 X43.7248 Y56.7841 Z-0.1000 S1000
G1 F400 X43.3880 Y56.8741 Z-0.1000 S1000
G1 F400 X43.0721 Y57.0216 Z-0.1000 S1000
G1 F400 X42.7866 Y57.2218 Z-0.1000 S1000
G1 F400 X42.5401 Y57.4684 Z-0.1000 S1000
G1 F400 X42.3399 Y57.7538 Z-0.1000 S1000
G1 F400 X42.1923 Y58.0697 Z-0.1000 S1000
G1 F400 X42.1023 Y58.4066 Z-0.1000 S1000
G1 F400 X42.0722 Y58.7540 Z-0.1000 S1000
G1 F400 X42.0722 Y65.7540 Z-0.1000 S1000
G1 F400 X42.1023 Y66.1014 Z-0.1000 S1000
G1 F400 X42.1923 Y66.4382 Z-0.1000 S1000
G1 F400 X42.3398 Y66.7542 Z-0.1000 S1000
G1 F400 X42.5400 Y67.0397 Z-0.1000 S1000
G1 F400 X42.7865 Y67.2863 Z-0.1000 S1000
G1 F400 X43.0720 Y67.4866 Z-0.1000 S1000
G1 F400 X43.3879 Y67.6341 Z-0.1000 S1000
G1 F400 X43.7248 Y67.7242 Z-0.1000 S1000
G1 F400 X44.0722 Y67.7543 Z-0.1000 S1000
G1 F400 X51.0725 Y67.7543 Z-0.1000 S1000
G1 F400 X51.4199 Y67.7242 Z-0.1000 S1000
G1 F400 X51.7568 Y67.6341 Z-0.1000 S1000
G1 F400 X52.0727 Y67.4866 Z-0.1000 S1000
G1 F400 X52.3582 Y67.2863 Z-0.1000 S1000
G1 F400 X52.6047 Y67.0397 Z-0.1000 S1000
G1 F400 X52.8049 Y66.7542 Z-0.1000 S1000
G1 F400 X52.9524 Y66.4382 Z-0.1000 S1000
G1 F400 X53.0424 Y66.1014 Z-0.1000 S1000
G1 F400 X53.0725 Y65.7540 Z-0.1000 S1000
G1 F400 X53.0725 Y58.7540 Z-0.1000 S1000
G1 F400 X53.0725 Y58.7540 Z-0.1000 S1000
; retracting back to z-safe
G0 Z10
; Pass 3
; Operation 2: Laser: Vector (no path offset)
; Laser Spot Diameter: 0.1

G0 Z10; move to z-safe height
G0 F1000 X53.0725 Y58.7540

G0 Z0
G1 F300 Z-0.1000
G1 F400 X53.0424 Y58.4066 Z-0.1000 S1000
G1 F400 X52.9524 Y58.0697 Z-0.1000 S1000
G1 F400 X52.8048 Y57.7538 Z-0.1000 S1000
G1 F400 X52.6046 Y57.4684 Z-0.1000 S1000
G1 F400 X52.3581 Y57.2218 Z-0.1000 S1000
G1 F400 X52.0726 Y57.0216 Z-0.1000 S1000
G1 F400 X51.7567 Y56.8741 Z-0.1000 S1000
G1 F400 X51.4199 Y56.7841 Z-0.1000 S1000
G1 F400 X51.0725 Y56.7540 Z-0.1000 S1000
G1 F400 X44.0722 Y56.7540 Z-0.1000 S1000
G1 F400 X43.7248 Y56.7841 Z-0.1000 S1000
G1 F400 X43.3880 Y56.8741 Z-0.1000 S1000
G1 F400 X43.0721 Y57.0216 Z-0.1000 S1000
G1 F400 X42.7866 Y57.2218 Z-0.1000 S1000
G1 F400 X42.5401 Y57.4684 Z-0.1000 S1000
G1 F400 X42.3399 Y57.7538 Z-0.1000 S1000
G1 F400 X42.1923 Y58.0697 Z-0.1000 S1000
G1 F400 X42.1023 Y58.4066 Z-0.1000 S1000
G1 F400 X42.0722 Y58.7540 Z-0.1000 S1000
G1 F400 X42.0722 Y65.7540 Z-0.1000 S1000
G1 F400 X42.1023 Y66.1014 Z-0.1000 S1000
G1 F400 X42.1923 Y66.4382 Z-0.1000 S1000
G1 F400 X42.3398 Y66.7542 Z-0.1000 S1000
G1 F400 X42.5400 Y67.0397 Z-0.1000 S1000
G1 F400 X42.7865 Y67.2863 Z-0.1000 S1000
G1 F400 X43.0720 Y67.4866 Z-0.1000 S1000
G1 F400 X43.3879 Y67.6341 Z-0.1000 S1000
G1 F400 X43.7248 Y67.7242 Z-0.1000 S1000
G1 F400 X44.0722 Y67.7543 Z-0.1000 S1000
G1 F400 X51.0725 Y67.7543 Z-0.1000 S1000
G1 F400 X51.4199 Y67.7242 Z-0.1000 S1000
G1 F400 X51.7568 Y67.6341 Z-0.1000 S1000
G1 F400 X52.0727 Y67.4866 Z-0.1000 S1000
G1 F400 X52.3582 Y67.2863 Z-0.1000 S1000
G1 F400 X52.6047 Y67.0397 Z-0.1000 S1000
G1 F400 X52.8049 Y66.7542 Z-0.1000 S1000
G1 F400 X52.9524 Y66.4382 Z-0.1000 S1000
G1 F400 X53.0424 Y66.1014 Z-0.1000 S1000
G1 F400 X53.0725 Y65.7540 Z-0.1000 S1000
G1 F400 X53.0725 Y58.7540 Z-0.1000 S1000
G1 F400 X53.0725 Y58.7540 Z-0.1000 S1000
; retracting back to z-safe
G0 Z10
; Pass 4
; Operation 2: Laser: Vector (no path offset)
; Laser Spot Diameter: 0.1

G0 Z10; move to z-safe height
G0 F1000 X53.0725 Y58.7540

G0 Z0
G1 F300 Z-0.1000
G1 F400 X53.0424 Y58.4066 Z-0.1000 S1000
G1 F400 X52.9524 Y58.0697 Z-0.1000 S1000
G1 F400 X52.8048 Y57.7538 Z-0.1000 S1000
G1 F400 X52.6046 Y57.4684 Z-0.1000 S1000
G1 F400 X52.3581 Y57.2218 Z-0.1000 S1000
G1 F400 X52.0726 Y57.0216 Z-0.1000 S1000
G1 F400 X51.7567 Y56.8741 Z-0.1000 S1000
G1 F400 X51.4199 Y56.7841 Z-0.1000 S1000
G1 F400 X51.0725 Y56.7540 Z-0.1000 S1000
G1 F400 X44.0722 Y56.7540 Z-0.1000 S1000
G1 F400 X43.7248 Y56.7841 Z-0.1000 S1000
G1 F400 X43.3880 Y56.8741 Z-0.1000 S1000
G1 F400 X43.0721 Y57.0216 Z-0.1000 S1000
G1 F400 X42.7866 Y57.2218 Z-0.1000 S1000
G1 F400 X42.5401 Y57.4684 Z-0.1000 S1000
G1 F400 X42.3399 Y57.7538 Z-0.1000 S1000
G1 F400 X42.1923 Y58.0697 Z-0.1000 S1000
G1 F400 X42.1023 Y58.4066 Z-0.1000 S1000
G1 F400 X42.0722 Y58.7540 Z-0.1000 S1000
G1 F400 X42.0722 Y65.7540 Z-0.1000 S1000
G1 F400 X42.1023 Y66.1014 Z-0.1000 S1000
G1 F400 X42.1923 Y66.4382 Z-0.1000 S1000
G1 F400 X42.3398 Y66.7542 Z-0.1000 S1000
G1 F400 X42.5400 Y67.0397 Z-0.1000 S1000
G1 F400 X42.7865 Y67.2863 Z-0.1000 S1000
G1 F400 X43.0720 Y67.4866 Z-0.1000 S1000
G1 F400 X43.3879 Y67.6341 Z-0.1000 S1000
G1 F400 X43.7248 Y67.7242 Z-0.1000 S1000
G1 F400 X44.0722 Y67.7543 Z-0.1000 S1000
G1 F400 X51.0725 Y67.7543 Z-0.1000 S1000
G1 F400 X51.4199 Y67.7242 Z-0.1000 S1000
G1 F400 X51.7568 Y67.6341 Z-0.1000 S1000
G1 F400 X52.0727 Y67.4866 Z-0.1000 S1000
G1 F400 X52.3582 Y67.2863 Z-0.1000 S1000
G1 F400 X52.6047 Y67.0397 Z-0.1000 S1000
G1 F400 X52.8049 Y66.7542 Z-0.1000 S1000
G1 F400 X52.9524 Y66.4382 Z-0.1000 S1000
G1 F400 X53.0424 Y66.1014 Z-0.1000 S1000
G1 F400 X53.0725 Y65.7540 Z-0.1000 S1000
G1 F400 X53.0725 Y58.7540 Z-0.1000 S1000
G1 F400 X53.0725 Y58.7540 Z-0.1000 S1000
; retracting back to z-safe
G0 Z10
; Pass 5
; Operation 2: Laser: Vector (no path offset)
; Laser Spot Diameter: 0.1

G0 Z10; move to z-safe height
G0 F1000 X53.0725 Y58.7540

G0 Z0
G1 F300 Z-0.1000
G1 F400 X53.0424 Y58.4066 Z-0.1000 S1000
G1 F400 X52.9524 Y58.0697 Z-0.1000 S1000
G1 F400 X52.8048 Y57.7538 Z-0.1000 S1000
G1 F400 X52.6046 Y57.4684 Z-0.1000 S1000
G1 F400 X52.3581 Y57.2218 Z-0.1000 S1000
G1 F400 X52.0726 Y57.0216 Z-0.1000 S1000
G1 F400 X51.7567 Y56.8741 Z-0.1000 S1000
G1 F400 X51.4199 Y56.7841 Z-0.1000 S1000
G1 F400 X51.0725 Y56.7540 Z-0.1000 S1000
G1 F400 X44.0722 Y56.7540 Z-0.1000 S1000
G1 F400 X43.7248 Y56.7841 Z-0.1000 S1000
G1 F400 X43.3880 Y56.8741 Z-0.1000 S1000
G1 F400 X43.0721 Y57.0216 Z-0.1000 S1000
G1 F400 X42.7866 Y57.2218 Z-0.1000 S1000
G1 F400 X42.5401 Y57.4684 Z-0.1000 S1000
G1 F400 X42.3399 Y57.7538 Z-0.1000 S1000
G1 F400 X42.1923 Y58.0697 Z-0.1000 S1000
G1 F400 X42.1023 Y58.4066 Z-0.1000 S1000
G1 F400 X42.0722 Y58.7540 Z-0.1000 S1000
G1 F400 X42.0722 Y65.7540 Z-0.1000 S1000
G1 F400 X42.1023 Y66.1014 Z-0.1000 S1000
G1 F400 X42.1923 Y66.4382 Z-0.1000 S1000
G1 F400 X42.3398 Y66.7542 Z-0.1000 S1000
G1 F400 X42.5400 Y67.0397 Z-0.1000 S1000
G1 F400 X42.7865 Y67.2863 Z-0.1000 S1000
G1 F400 X43.0720 Y67.4866 Z-0.1000 S1000
G1 F400 X43.3879 Y67.6341 Z-0.1000 S1000
G1 F400 X43.7248 Y67.7242 Z-0.1000 S1000
G1 F400 X44.0722 Y67.7543 Z-0.1000 S1000
G1 F400 X51.0725 Y67.7543 Z-0.1000 S1000
G1 F400 X51.4199 Y67.7242 Z-0.1000 S1000
G1 F400 X51.7568 Y67.6341 Z-0.1000 S1000
G1 F400 X52.0727 Y67.4866 Z-0.1000 S1000
G1 F400 X52.3582 Y67.2863 Z-0.1000 S1000
G1 F400 X52.6047 Y67.0397 Z-0.1000 S1000
G1 F400 X52.8049 Y66.7542 Z-0.1000 S1000
G1 F400 X52.9524 Y66.4382 Z-0.1000 S1000
G1 F400 X53.0424 Y66.1014 Z-0.1000 S1000
G1 F400 X53.0725 Y65.7540 Z-0.1000 S1000
G1 F400 X53.0725 Y58.7540 Z-0.1000 S1000
G1 F400 X53.0725 Y58.7540 Z-0.1000 S1000
; retracting back to z-safe
G0 Z10
; Pass 0
; Operation 3: Laser: Vector (no path offset)
; Laser Spot Diameter: 0.1

G0 Z10; move to z-safe height
G0 F1000 X68.0727 Y58.7540

G0 Z0
G1 F300 Z-0.1000
G1 F400 X68.0427 Y58.4066 Z-0.1000 S1000
G1 F400 X67.9526 Y58.0697 Z-0.1000 S1000
G1 F400 X67.8051 Y57.7538 Z-0.1000 S1000
G1 F400 X67.6049 Y57.4684 Z-0.1000 S1000
G1 F400 X67.3583 Y57.2218 Z-0.1000 S1000
G1 F400 X67.0729 Y57.0216 Z-0.1000 S1000
G1 F400 X66.7570 Y56.8741 Z-0.1000 S1000
G1 F400 X66.4202 Y56.7841 Z-0.1000 S1000
G1 F400 X66.0728 Y56.7540 Z-0.1000 S1000
G1 F400 X59.0725 Y56.7540 Z-0.1000 S1000
G1 F400 X58.7251 Y56.7841 Z-0.1000 S1000
G1 F400 X58.3882 Y56.8741 Z-0.1000 S1000
G1 F400 X58.0723 Y57.0216 Z-0.1000 S1000
G1 F400 X57.7869 Y57.2218 Z-0.1000 S1000
G1 F400 X57.5403 Y57.4684 Z-0.1000 S1000
G1 F400 X57.3401 Y57.7538 Z-0.1000 S1000
G1 F400 X57.1926 Y58.0697 Z-0.1000 S1000
G1 F400 X57.1026 Y58.4066 Z-0.1000 S1000
G1 F400 X57.0725 Y58.7540 Z-0.1000 S1000
G1 F400 X57.0725 Y65.7540 Z-0.1000 S1000
G1 F400 X57.1026 Y66.1014 Z-0.1000 S1000
G1 F400 X57.1926 Y66.4382 Z-0.1000 S1000
G1 F400 X57.3401 Y66.7542 Z-0.1000 S1000
G1 F400 X57.5403 Y67.0397 Z-0.1000 S1000
G1 F400 X57.7868 Y67.2863 Z-0.1000 S1000
G1 F400 X58.0723 Y67.4866 Z-0.1000 S1000
G1 F400 X58.3882 Y67.6341 Z-0.1000 S1000
G1 F400 X58.7250 Y67.7242 Z-0.1000 S1000
G1 F400 X59.0725 Y67.7543 Z-0.1000 S1000
G1 F400 X66.0728 Y67.7543 Z-0.1000 S1000
G1 F400 X66.4202 Y67.7242 Z-0.1000 S1000
G1 F400 X66.7571 Y67.6341 Z-0.1000 S1000
G1 F400 X67.0730 Y67.4866 Z-0.1000 S1000
G1 F400 X67.3584 Y67.2863 Z-0.1000 S1000
G1 F400 X67.6050 Y67.0397 Z-0.1000 S1000
G1 F400 X67.8052 Y66.7542 Z-0.1000 S1000
G1 F400 X67.9527 Y66.4382 Z-0.1000 S1000
G1 F400 X68.0427 Y66.1014 Z-0.1000 S1000
G1 F400 X68.0727 Y65.7540 Z-0.1000 S1000
G1 F400 X68.0727 Y58.7540 Z-0.1000 S1000
G1 F400 X68.0727 Y58.7540 Z-0.1000 S1000
; retracting back to z-safe
G0 Z10
; Pass 1
; Operation 3: Laser: Vector (no path offset)
; Laser Spot Diameter: 0.1

G0 Z10; move to z-safe height
G0 F1000 X68.0727 Y58.7540

G0 Z0
G1 F300 Z-0.1000
G1 F400 X68.0427 Y58.4066 Z-0.1000 S1000
G1 F400 X67.9526 Y58.0697 Z-0.1000 S1000
G1 F400 X67.8051 Y57.7538 Z-0.1000 S1000
G1 F400 X67.6049 Y57.4684 Z-0.1000 S1000
G1 F400 X67.3583 Y57.2218 Z-0.1000 S1000
G1 F400 X67.0729 Y57.0216 Z-0.1000 S1000
G1 F400 X66.7570 Y56.8741 Z-0.1000 S1000
G1 F400 X66.4202 Y56.7841 Z-0.1000 S1000
G1 F400 X66.0728 Y56.7540 Z-0.1000 S1000
G1 F400 X59.0725 Y56.7540 Z-0.1000 S1000
G1 F400 X58.7251 Y56.7841 Z-0.1000 S1000
G1 F400 X58.3882 Y56.8741 Z-0.1000 S1000
G1 F400 X58.0723 Y57.0216 Z-0.1000 S1000
G1 F400 X57.7869 Y57.2218 Z-0.1000 S1000
G1 F400 X57.5403 Y57.4684 Z-0.1000 S1000
G1 F400 X57.3401 Y57.7538 Z-0.1000 S1000
G1 F400 X57.1926 Y58.0697 Z-0.1000 S1000
G1 F400 X57.1026 Y58.4066 Z-0.1000 S1000
G1 F400 X57.0725 Y58.7540 Z-0.1000 S1000
G1 F400 X57.0725 Y65.7540 Z-0.1000 S1000
G1 F400 X57.1026 Y66.1014 Z-0.1000 S1000
G1 F400 X57.1926 Y66.4382 Z-0.1000 S1000
G1 F400 X57.3401 Y66.7542 Z-0.1000 S1000
G1 F400 X57.5403 Y67.0397 Z-0.1000 S1000
G1 F400 X57.7868 Y67.2863 Z-0.1000 S1000
G1 F400 X58.0723 Y67.4866 Z-0.1000 S1000
G1 F400 X58.3882 Y67.6341 Z-0.1000 S1000
G1 F400 X58.7250 Y67.7242 Z-0.1000 S1000
G1 F400 X59.0725 Y67.7543 Z-0.1000 S1000
G1 F400 X66.0728 Y67.7543 Z-0.1000 S1000
G1 F400 X66.4202 Y67.7242 Z-0.1000 S1000
G1 F400 X66.7571 Y67.6341 Z-0.1000 S1000
G1 F400 X67.0730 Y67.4866 Z-0.1000 S1000
G1 F400 X67.3584 Y67.2863 Z-0.1000 S1000
G1 F400 X67.6050 Y67.0397 Z-0.1000 S1000
G1 F400 X67.8052 Y66.7542 Z-0.1000 S1000
G1 F400 X67.9527 Y66.4382 Z-0.1000 S1000
G1 F400 X68.0427 Y66.1014 Z-0.1000 S1000
G1 F400 X68.0727 Y65.7540 Z-0.1000 S1000
G1 F400 X68.0727 Y58.7540 Z-0.1000 S1000
G1 F400 X68.0727 Y58.7540 Z-0.1000 S1000
; retracting back to z-safe
G0 Z10
; Pass 2
; Operation 3: Laser: Vector (no path offset)
; Laser Spot Diameter: 0.1

G0 Z10; move to z-safe height
G0 F1000 X68.0727 Y58.7540

G0 Z0
G1 F300 Z-0.1000
G1 F400 X68.0427 Y58.4066 Z-0.1000 S1000
G1 F400 X67.9526 Y58.0697 Z-0.1000 S1000
G1 F400 X67.8051 Y57.7538 Z-0.1000 S1000
G1 F400 X67.6049 Y57.4684 Z-0.1000 S1000
G1 F400 X67.3583 Y57.2218 Z-0.1000 S1000
G1 F400 X67.0729 Y57.0216 Z-0.1000 S1000
G1 F400 X66.7570 Y56.8741 Z-0.1000 S1000
G1 F400 X66.4202 Y56.7841 Z-0.1000 S1000
G1 F400 X66.0728 Y56.7540 Z-0.1000 S1000
G1 F400 X59.0725 Y56.7540 Z-0.1000 S1000
G1 F400 X58.7251 Y56.7841 Z-0.1000 S1000
G1 F400 X58.3882 Y56.8741 Z-0.1000 S1000
G1 F400 X58.0723 Y57.0216 Z-0.1000 S1000
G1 F400 X57.7869 Y57.2218 Z-0.1000 S1000
G1 F400 X57.5403 Y57.4684 Z-0.1000 S1000
G1 F400 X57.3401 Y57.7538 Z-0.1000 S1000
G1 F400 X57.1926 Y58.0697 Z-0.1000 S1000
G1 F400 X57.1026 Y58.4066 Z-0.1000 S1000
G1 F400 X57.0725 Y58.7540 Z-0.1000 S1000
G1 F400 X57.0725 Y65.7540 Z-0.1000 S1000
G1 F400 X57.1026 Y66.1014 Z-0.1000 S1000
G1 F400 X57.1926 Y66.4382 Z-0.1000 S1000
G1 F400 X57.3401 Y66.7542 Z-0.1000 S1000
G1 F400 X57.5403 Y67.0397 Z-0.1000 S1000
G1 F400 X57.7868 Y67.2863 Z-0.1000 S1000
G1 F400 X58.0723 Y67.4866 Z-0.1000 S1000
G1 F400 X58.3882 Y67.6341 Z-0.1000 S1000
G1 F400 X58.7250 Y67.7242 Z-0.1000 S1000
G1 F400 X59.0725 Y67.7543 Z-0.1000 S1000
G1 F400 X66.0728 Y67.7543 Z-0.1000 S1000
G1 F400 X66.4202 Y67.7242 Z-0.1000 S1000
G1 F400 X66.7571 Y67.6341 Z-0.1000 S1000
G1 F400 X67.0730 Y67.4866 Z-0.1000 S1000
G1 F400 X67.3584 Y67.2863 Z-0.1000 S1000
G1 F400 X67.6050 Y67.0397 Z-0.1000 S1000
G1 F400 X67.8052 Y66.7542 Z-0.1000 S1000
G1 F400 X67.9527 Y66.4382 Z-0.1000 S1000
G1 F400 X68.0427 Y66.1014 Z-0.1000 S1000
G1 F400 X68.0727 Y65.7540 Z-0.1000 S1000
G1 F400 X68.0727 Y58.7540 Z-0.1000 S1000
G1 F400 X68.0727 Y58.7540 Z-0.1000 S1000
; retracting back to z-safe
G0 Z10
; Pass 3
; Operation 3: Laser: Vector (no path offset)
; Laser Spot Diameter: 0.1

G0 Z10; move to z-safe height
G0 F1000 X68.0727 Y58.7540

G0 Z0
G1 F300 Z-0.1000
G1 F400 X68.0427 Y58.4066 Z-0.1000 S1000
G1 F400 X67.9526 Y58.0697 Z-0.1000 S1000
G1 F400 X67.8051 Y57.7538 Z-0.1000 S1000
G1 F400 X67.6049 Y57.4684 Z-0.1000 S1000
G1 F400 X67.3583 Y57.2218 Z-0.1000 S1000
G1 F400 X67.0729 Y57.0216 Z-0.1000 S1000
G1 F400 X66.7570 Y56.8741 Z-0.1000 S1000
G1 F400 X66.4202 Y56.7841 Z-0.1000 S1000
G1 F400 X66.0728 Y56.7540 Z-0.1000 S1000
G1 F400 X59.0725 Y56.7540 Z-0.1000 S1000
G1 F400 X58.7251 Y56.7841 Z-0.1000 S1000
G1 F400 X58.3882 Y56.8741 Z-0.1000 S1000
G1 F400 X58.0723 Y57.0216 Z-0.1000 S1000
G1 F400 X57.7869 Y57.2218 Z-0.1000 S1000
G1 F400 X57.5403 Y57.4684 Z-0.1000 S1000
G1 F400 X57.3401 Y57.7538 Z-0.1000 S1000
G1 F400 X57.1926 Y58.0697 Z-0.1000 S1000
G1 F400 X57.1026 Y58.4066 Z-0.1000 S1000
G1 F400 X57.0725 Y58.7540 Z-0.1000 S1000
G1 F400 X57.0725 Y65.7540 Z-0.1000 S1000
G1 F400 X57.1026 Y66.1014 Z-0.1000 S1000
G1 F400 X57.1926 Y66.4382 Z-0.1000 S1000
G1 F400 X57.3401 Y66.7542 Z-0.1000 S1000
G1 F400 X57.5403 Y67.0397 Z-0.1000 S1000
G1 F400 X57.7868 Y67.2863 Z-0.1000 S1000
G1 F400 X58.0723 Y67.4866 Z-0.1000 S1000
G1 F400 X58.3882 Y67.6341 Z-0.1000 S1000
G1 F400 X58.7250 Y67.7242 Z-0.1000 S1000
G1 F400 X59.0725 Y67.7543 Z-0.1000 S1000
G1 F400 X66.0728 Y67.7543 Z-0.1000 S1000
G1 F400 X66.4202 Y67.7242 Z-0.1000 S1000
G1 F400 X66.7571 Y67.6341 Z-0.1000 S1000
G1 F400 X67.0730 Y67.4866 Z-0.1000 S1000
G1 F400 X67.3584 Y67.2863 Z-0.1000 S1000
G1 F400 X67.6050 Y67.0397 Z-0.1000 S1000
G1 F400 X67.8052 Y66.7542 Z-0.1000 S1000
G1 F400 X67.9527 Y66.4382 Z-0.1000 S1000
G1 F400 X68.0427 Y66.1014 Z-0.1000 S1000
G1 F400 X68.0727 Y65.7540 Z-0.1000 S1000
G1 F400 X68.0727 Y58.7540 Z-0.1000 S1000
G1 F400 X68.0727 Y58.7540 Z-0.1000 S1000
; retracting back to z-safe
G0 Z10
; Pass 4
; Operation 3: Laser: Vector (no path offset)
; Laser Spot Diameter: 0.1

G0 Z10; move to z-safe height
G0 F1000 X68.0727 Y58.7540

G0 Z0
G1 F300 Z-0.1000
G1 F400 X68.0427 Y58.4066 Z-0.1000 S1000
G1 F400 X67.9526 Y58.0697 Z-0.1000 S1000
G1 F400 X67.8051 Y57.7538 Z-0.1000 S1000
G1 F400 X67.6049 Y57.4684 Z-0.1000 S1000
G1 F400 X67.3583 Y57.2218 Z-0.1000 S1000
G1 F400 X67.0729 Y57.0216 Z-0.1000 S1000
G1 F400 X66.7570 Y56.8741 Z-0.1000 S1000
G1 F400 X66.4202 Y56.7841 Z-0.1000 S1000
G1 F400 X66.0728 Y56.7540 Z-0.1000 S1000
G1 F400 X59.0725 Y56.7540 Z-0.1000 S1000
G1 F400 X58.7251 Y56.7841 Z-0.1000 S1000
G1 F400 X58.3882 Y56.8741 Z-0.1000 S1000
G1 F400 X58.0723 Y57.0216 Z-0.1000 S1000
G1 F400 X57.7869 Y57.2218 Z-0.1000 S1000
G1 F400 X57.5403 Y57.4684 Z-0.1000 S1000
G1 F400 X57.3401 Y57.7538 Z-0.1000 S1000
G1 F400 X57.1926 Y58.0697 Z-0.1000 S1000
G1 F400 X57.1026 Y58.4066 Z-0.1000 S1000
G1 F400 X57.0725 Y58.7540 Z-0.1000 S1000
G1 F400 X57.0725 Y65.7540 Z-0.1000 S1000
G1 F400 X57.1026 Y66.1014 Z-0.1000 S1000
G1 F400 X57.1926 Y66.4382 Z-0.1000 S1000
G1 F400 X57.3401 Y66.7542 Z-0.1000 S1000
G1 F400 X57.5403 Y67.0397 Z-0.1000 S1000
G1 F400 X57.7868 Y67.2863 Z-0.1000 S1000
G1 F400 X58.0723 Y67.4866 Z-0.1000 S1000
G1 F400 X58.3882 Y67.6341 Z-0.1000 S1000
G1 F400 X58.7250 Y67.7242 Z-0.1000 S1000
G1 F400 X59.0725 Y67.7543 Z-0.1000 S1000
G1 F400 X66.0728 Y67.7543 Z-0.1000 S1000
G1 F400 X66.4202 Y67.7242 Z-0.1000 S1000
G1 F400 X66.7571 Y67.6341 Z-0.1000 S1000
G1 F400 X67.0730 Y67.4866 Z-0.1000 S1000
G1 F400 X67.3584 Y67.2863 Z-0.1000 S1000
G1 F400 X67.6050 Y67.0397 Z-0.1000 S1000
G1 F400 X67.8052 Y66.7542 Z-0.1000 S1000
G1 F400 X67.9527 Y66.4382 Z-0.1000 S1000
G1 F400 X68.0427 Y66.1014 Z-0.1000 S1000
G1 F400 X68.0727 Y65.7540 Z-0.1000 S1000
G1 F400 X68.0727 Y58.7540 Z-0.1000 S1000
G1 F400 X68.0727 Y58.7540 Z-0.1000 S1000
; retracting back to z-safe
G0 Z10
; Pass 5
; Operation 3: Laser: Vector (no path offset)
; Laser Spot Diameter: 0.1

G0 Z10; move to z-safe height
G0 F1000 X68.0727 Y58.7540

G0 Z0
G1 F300 Z-0.1000
G1 F400 X68.0427 Y58.4066 Z-0.1000 S1000
G1 F400 X67.9526 Y58.0697 Z-0.1000 S1000
G1 F400 X67.8051 Y57.7538 Z-0.1000 S1000
G1 F400 X67.6049 Y57.4684 Z-0.1000 S1000
G1 F400 X67.3583 Y57.2218 Z-0.1000 S1000
G1 F400 X67.0729 Y57.0216 Z-0.1000 S1000
G1 F400 X66.7570 Y56.8741 Z-0.1000 S1000
G1 F400 X66.4202 Y56.7841 Z-0.1000 S1000
G1 F400 X66.0728 Y56.7540 Z-0.1000 S1000
G1 F400 X59.0725 Y56.7540 Z-0.1000 S1000
G1 F400 X58.7251 Y56.7841 Z-0.1000 S1000
G1 F400 X58.3882 Y56.8741 Z-0.1000 S1000
G1 F400 X58.0723 Y57.0216 Z-0.1000 S1000
G1 F400 X57.7869 Y57.2218 Z-0.1000 S1000
G1 F400 X57.5403 Y57.4684 Z-0.1000 S1000
G1 F400 X57.3401 Y57.7538 Z-0.1000 S1000
G1 F400 X57.1926 Y58.0697 Z-0.1000 S1000
G1 F400 X57.1026 Y58.4066 Z-0.1000 S1000
G1 F400 X57.0725 Y58.7540 Z-0.1000 S1000
G1 F400 X57.0725 Y65.7540 Z-0.1000 S1000
G1 F400 X57.1026 Y66.1014 Z-0.1000 S1000
G1 F400 X57.1926 Y66.4382 Z-0.1000 S1000
G1 F400 X57.3401 Y66.7542 Z-0.1000 S1000
G1 F400 X57.5403 Y67.0397 Z-0.1000 S1000
G1 F400 X57.7868 Y67.2863 Z-0.1000 S1000
G1 F400 X58.0723 Y67.4866 Z-0.1000 S1000
G1 F400 X58.3882 Y67.6341 Z-0.1000 S1000
G1 F400 X58.7250 Y67.7242 Z-0.1000 S1000
G1 F400 X59.0725 Y67.7543 Z-0.1000 S1000
G1 F400 X66.0728 Y67.7543 Z-0.1000 S1000
G1 F400 X66.4202 Y67.7242 Z-0.1000 S1000
G1 F400 X66.7571 Y67.6341 Z-0.1000 S1000
G1 F400 X67.0730 Y67.4866 Z-0.1000 S1000
G1 F400 X67.3584 Y67.2863 Z-0.1000 S1000
G1 F400 X67.6050 Y67.0397 Z-0.1000 S1000
G1 F400 X67.8052 Y66.7542 Z-0.1000 S1000
G1 F400 X67.9527 Y66.4382 Z-0.1000 S1000
G1 F400 X68.0427 Y66.1014 Z-0.1000 S1000
G1 F400 X68.0727 Y65.7540 Z-0.1000 S1000
G1 F400 X68.0727 Y58.7540 Z-0.1000 S1000
G1 F400 X68.0727 Y58.7540 Z-0.1000 S1000
; retracting back to z-safe
G0 Z10
; Pass 0
; Operation 4: Laser: Vector (no path offset)
; Laser Spot Diameter: 0.1

G0 Z10; move to z-safe height
G0 F1000 X83.0730 Y58.7540

G0 Z0
G1 F300 Z-0.1000
G1 F400 X83.0429 Y58.4066 Z-0.1000 S1000
G1 F400 X82.9529 Y58.0697 Z-0.1000 S1000
G1 F400 X82.8054 Y57.7538 Z-0.1000 S1000
G1 F400 X82.6052 Y57.4684 Z-0.1000 S1000
G1 F400 X82.3586 Y57.2218 Z-0.1000 S1000
G1 F400 X82.0732 Y57.0216 Z-0.1000 S1000
G1 F400 X81.7573 Y56.8741 Z-0.1000 S1000
G1 F400 X81.4204 Y56.7841 Z-0.1000 S1000
G1 F400 X81.0730 Y56.7540 Z-0.1000 S1000
G1 F400 X74.0727 Y56.7540 Z-0.1000 S1000
G1 F400 X73.7253 Y56.7841 Z-0.1000 S1000
G1 F400 X73.3885 Y56.8741 Z-0.1000 S1000
G1 F400 X73.0726 Y57.0216 Z-0.1000 S1000
G1 F400 X72.7872 Y57.2218 Z-0.1000 S1000
G1 F400 X72.5406 Y57.4684 Z-0.1000 S1000
G1 F400 X72.3404 Y57.7538 Z-0.1000 S1000
G1 F400 X72.1929 Y58.0697 Z-0.1000 S1000
G1 F400 X72.1028 Y58.4066 Z-0.1000 S1000
G1 F400 X72.0728 Y58.7540 Z-0.1000 S1000
G1 F400 X72.0728 Y65.7540 Z-0.1000 S1000
G1 F400 X72.1028 Y66.1014 Z-0.1000 S1000
G1 F400 X72.1928 Y66.4382 Z-0.1000 S1000
G1 F400 X72.3403 Y66.7542 Z-0.1000 S1000
G1 F400 X72.5405 Y67.0397 Z-0.1000 S1000
G1 F400 X72.7871 Y67.2863 Z-0.1000 S1000
G1 F400 X73.0725 Y67.4866 Z-0.1000 S1000
G1 F400 X73.3885 Y67.6341 Z-0.1000 S1000
G1 F400 X73.7253 Y67.7242 Z-0.1000 S1000
G1 F400 X74.0727 Y67.7543 Z-0.1000 S1000
G1 F400 X81.0730 Y67.7543 Z-0.1000 S1000
G1 F400 X81.4205 Y67.7242 Z-0.1000 S1000
G1 F400 X81.7573 Y67.6341 Z-0.1000 S1000
G1 F400 X82.0732 Y67.4866 Z-0.1000 S1000
G1 F400 X82.3587 Y67.2863 Z-0.1000 S1000
G1 F400 X82.6052 Y67.0397 Z-0.1000 S1000
G1 F400 X82.8054 Y66.7542 Z-0.1000 S1000
G1 F400 X82.9529 Y66.4382 Z-0.1000 S1000
G1 F400 X83.0429 Y66.1014 Z-0.1000 S1000
G1 F400 X83.0730 Y65.7540 Z-0.1000 S1000
G1 F400 X83.0730 Y58.7540 Z-0.1000 S1000
G1 F400 X83.0730 Y58.7540 Z-0.1000 S1000
; retracting back to z-safe
G0 Z10
; Pass 1
; Operation 4: Laser: Vector (no path offset)
; Laser Spot Diameter: 0.1

G0 Z10; move to z-safe height
G0 F1000 X83.0730 Y58.7540

G0 Z0
G1 F300 Z-0.1000
G1 F400 X83.0429 Y58.4066 Z-0.1000 S1000
G1 F400 X82.9529 Y58.0697 Z-0.1000 S1000
G1 F400 X82.8054 Y57.7538 Z-0.1000 S1000
G1 F400 X82.6052 Y57.4684 Z-0.1000 S1000
G1 F400 X82.3586 Y57.2218 Z-0.1000 S1000
G1 F400 X82.0732 Y57.0216 Z-0.1000 S1000
G1 F400 X81.7573 Y56.8741 Z-0.1000 S1000
G1 F400 X81.4204 Y56.7841 Z-0.1000 S1000
G1 F400 X81.0730 Y56.7540 Z-0.1000 S1000
G1 F400 X74.0727 Y56.7540 Z-0.1000 S1000
G1 F400 X73.7253 Y56.7841 Z-0.1000 S1000
G1 F400 X73.3885 Y56.8741 Z-0.1000 S1000
G1 F400 X73.0726 Y57.0216 Z-0.1000 S1000
G1 F400 X72.7872 Y57.2218 Z-0.1000 S1000
G1 F400 X72.5406 Y57.4684 Z-0.1000 S1000
G1 F400 X72.3404 Y57.7538 Z-0.1000 S1000
G1 F400 X72.1929 Y58.0697 Z-0.1000 S1000
G1 F400 X72.1028 Y58.4066 Z-0.1000 S1000
G1 F400 X72.0728 Y58.7540 Z-0.1000 S1000
G1 F400 X72.0728 Y65.7540 Z-0.1000 S1000
G1 F400 X72.1028 Y66.1014 Z-0.1000 S1000
G1 F400 X72.1928 Y66.4382 Z-0.1000 S1000
G1 F400 X72.3403 Y66.7542 Z-0.1000 S1000
G1 F400 X72.5405 Y67.0397 Z-0.1000 S1000
G1 F400 X72.7871 Y67.2863 Z-0.1000 S1000
G1 F400 X73.0725 Y67.4866 Z-0.1000 S1000
G1 F400 X73.3885 Y67.6341 Z-0.1000 S1000
G1 F400 X73.7253 Y67.7242 Z-0.1000 S1000
G1 F400 X74.0727 Y67.7543 Z-0.1000 S1000
G1 F400 X81.0730 Y67.7543 Z-0.1000 S1000
G1 F400 X81.4205 Y67.7242 Z-0.1000 S1000
G1 F400 X81.7573 Y67.6341 Z-0.1000 S1000
G1 F400 X82.0732 Y67.4866 Z-0.1000 S1000
G1 F400 X82.3587 Y67.2863 Z-0.1000 S1000
G1 F400 X82.6052 Y67.0397 Z-0.1000 S1000
G1 F400 X82.8054 Y66.7542 Z-0.1000 S1000
G1 F400 X82.9529 Y66.4382 Z-0.1000 S1000
G1 F400 X83.0429 Y66.1014 Z-0.1000 S1000
G1 F400 X83.0730 Y65.7540 Z-0.1000 S1000
G1 F400 X83.0730 Y58.7540 Z-0.1000 S1000
G1 F400 X83.0730 Y58.7540 Z-0.1000 S1000
; retracting back to z-safe
G0 Z10
; Pass 2
; Operation 4: Laser: Vector (no path offset)
; Laser Spot Diameter: 0.1

G0 Z10; move to z-safe height
G0 F1000 X83.0730 Y58.7540

G0 Z0
G1 F300 Z-0.1000
G1 F400 X83.0429 Y58.4066 Z-0.1000 S1000
G1 F400 X82.9529 Y58.0697 Z-0.1000 S1000
G1 F400 X82.8054 Y57.7538 Z-0.1000 S1000
G1 F400 X82.6052 Y57.4684 Z-0.1000 S1000
G1 F400 X82.3586 Y57.2218 Z-0.1000 S1000
G1 F400 X82.0732 Y57.0216 Z-0.1000 S1000
G1 F400 X81.7573 Y56.8741 Z-0.1000 S1000
G1 F400 X81.4204 Y56.7841 Z-0.1000 S1000
G1 F400 X81.0730 Y56.7540 Z-0.1000 S1000
G1 F400 X74.0727 Y56.7540 Z-0.1000 S1000
G1 F400 X73.7253 Y56.7841 Z-0.1000 S1000
G1 F400 X73.3885 Y56.8741 Z-0.1000 S1000
G1 F400 X73.0726 Y57.0216 Z-0.1000 S1000
G1 F400 X72.7872 Y57.2218 Z-0.1000 S1000
G1 F400 X72.5406 Y57.4684 Z-0.1000 S1000
G1 F400 X72.3404 Y57.7538 Z-0.1000 S1000
G1 F400 X72.1929 Y58.0697 Z-0.1000 S1000
G1 F400 X72.1028 Y58.4066 Z-0.1000 S1000
G1 F400 X72.0728 Y58.7540 Z-0.1000 S1000
G1 F400 X72.0728 Y65.7540 Z-0.1000 S1000
G1 F400 X72.1028 Y66.1014 Z-0.1000 S1000
G1 F400 X72.1928 Y66.4382 Z-0.1000 S1000
G1 F400 X72.3403 Y66.7542 Z-0.1000 S1000
G1 F400 X72.5405 Y67.0397 Z-0.1000 S1000
G1 F400 X72.7871 Y67.2863 Z-0.1000 S1000
G1 F400 X73.0725 Y67.4866 Z-0.1000 S1000
G1 F400 X73.3885 Y67.6341 Z-0.1000 S1000
G1 F400 X73.7253 Y67.7242 Z-0.1000 S1000
G1 F400 X74.0727 Y67.7543 Z-0.1000 S1000
G1 F400 X81.0730 Y67.7543 Z-0.1000 S1000
G1 F400 X81.4205 Y67.7242 Z-0.1000 S1000
G1 F400 X81.7573 Y67.6341 Z-0.1000 S1000
G1 F400 X82.0732 Y67.4866 Z-0.1000 S1000
G1 F400 X82.3587 Y67.2863 Z-0.1000 S1000
G1 F400 X82.6052 Y67.0397 Z-0.1000 S1000
G1 F400 X82.8054 Y66.7542 Z-0.1000 S1000
G1 F400 X82.9529 Y66.4382 Z-0.1000 S1000
G1 F400 X83.0429 Y66.1014 Z-0.1000 S1000
G1 F400 X83.0730 Y65.7540 Z-0.1000 S1000
G1 F400 X83.0730 Y58.7540 Z-0.1000 S1000
G1 F400 X83.0730 Y58.7540 Z-0.1000 S1000
; retracting back to z-safe
G0 Z10
; Pass 3
; Operation 4: Laser: Vector (no path offset)
; Laser Spot Diameter: 0.1

G0 Z10; move to z-safe height
G0 F1000 X83.0730 Y58.7540

G0 Z0
G1 F300 Z-0.1000
G1 F400 X83.0429 Y58.4066 Z-0.1000 S1000
G1 F400 X82.9529 Y58.0697 Z-0.1000 S1000
G1 F400 X82.8054 Y57.7538 Z-0.1000 S1000
G1 F400 X82.6052 Y57.4684 Z-0.1000 S1000
G1 F400 X82.3586 Y57.2218 Z-0.1000 S1000
G1 F400 X82.0732 Y57.0216 Z-0.1000 S1000
G1 F400 X81.7573 Y56.8741 Z-0.1000 S1000
G1 F400 X81.4204 Y56.7841 Z-0.1000 S1000
G1 F400 X81.0730 Y56.7540 Z-0.1000 S1000
G1 F400 X74.0727 Y56.7540 Z-0.1000 S1000
G1 F400 X73.7253 Y56.7841 Z-0.1000 S1000
G1 F400 X73.3885 Y56.8741 Z-0.1000 S1000
G1 F400 X73.0726 Y57.0216 Z-0.1000 S1000
G1 F400 X72.7872 Y57.2218 Z-0.1000 S1000
G1 F400 X72.5406 Y57.4684 Z-0.1000 S1000
G1 F400 X72.3404 Y57.7538 Z-0.1000 S1000
G1 F400 X72.1929 Y58.0697 Z-0.1000 S1000
G1 F400 X72.1028 Y58.4066 Z-0.1000 S1000
G1 F400 X72.0728 Y58.7540 Z-0.1000 S1000
G1 F400 X72.0728 Y65.7540 Z-0.1000 S1000
G1 F400 X72.1028 Y66.1014 Z-0.1000 S1000
G1 F400 X72.1928 Y66.4382 Z-0.1000 S1000
G1 F400 X72.3403 Y66.7542 Z-0.1000 S1000
G1 F400 X72.5405 Y67.0397 Z-0.1000 S1000
G1 F400 X72.7871 Y67.2863 Z-0.1000 S1000
G1 F400 X73.0725 Y67.4866 Z-0.1000 S1000
G1 F400 X73.3885 Y67.6341 Z-0.1000 S1000
G1 F400 X73.7253 Y67.7242 Z-0.1000 S1000
G1 F400 X74.0727 Y67.7543 Z-0.1000 S1000
G1 F400 X81.0730 Y67.7543 Z-0.1000 S1000
G1 F400 X81.4205 Y67.7242 Z-0.1000 S1000
G1 F400 X81.7573 Y67.6341 Z-0.1000 S1000
G1 F400 X82.0732 Y67.4866 Z-0.1000 S1000
G1 F400 X82.3587 Y67.2863 Z-0.1000 S1000
G1 F400 X82.6052 Y67.0397 Z-0.1000 S1000
G1 F400 X82.8054 Y66.7542 Z-0.1000 S1000
G1 F400 X82.9529 Y66.4382 Z-0.1000 S1000
G1 F400 X83.0429 Y66.1014 Z-0.1000 S1000
G1 F400 X83.0730 Y65.7540 Z-0.1000 S1000
G1 F400 X83.0730 Y58.7540 Z-0.1000 S1000
G1 F400 X83.0730 Y58.7540 Z-0.1000 S1000
; retracting back to z-safe
G0 Z10
; Pass 4
; Operation 4: Laser: Vector (no path offset)
; Laser Spot Diameter: 0.1

G0 Z10; move to z-safe height
G0 F1000 X83.0730 Y58.7540

G0 Z0
G1 F300 Z-0.1000
G1 F400 X83.0429 Y58.4066 Z-0.1000 S1000
G1 F400 X82.9529 Y58.0697 Z-0.1000 S1000
G1 F400 X82.8054 Y57.7538 Z-0.1000 S1000
G1 F400 X82.6052 Y57.4684 Z-0.1000 S1000
G1 F400 X82.3586 Y57.2218 Z-0.1000 S1000
G1 F400 X82.0732 Y57.0216 Z-0.1000 S1000
G1 F400 X81.7573 Y56.8741 Z-0.1000 S1000
G1 F400 X81.4204 Y56.7841 Z-0.1000 S1000
G1 F400 X81.0730 Y56.7540 Z-0.1000 S1000
G1 F400 X74.0727 Y56.7540 Z-0.1000 S1000
G1 F400 X73.7253 Y56.7841 Z-0.1000 S1000
G1 F400 X73.3885 Y56.8741 Z-0.1000 S1000
G1 F400 X73.0726 Y57.0216 Z-0.1000 S1000
G1 F400 X72.7872 Y57.2218 Z-0.1000 S1000
G1 F400 X72.5406 Y57.4684 Z-0.1000 S1000
G1 F400 X72.3404 Y57.7538 Z-0.1000 S1000
G1 F400 X72.1929 Y58.0697 Z-0.1000 S1000
G1 F400 X72.1028 Y58.4066 Z-0.1000 S1000
G1 F400 X72.0728 Y58.7540 Z-0.1000 S1000
G1 F400 X72.0728 Y65.7540 Z-0.1000 S1000
G1 F400 X72.1028 Y66.1014 Z-0.1000 S1000
G1 F400 X72.1928 Y66.4382 Z-0.1000 S1000
G1 F400 X72.3403 Y66.7542 Z-0.1000 S1000
G1 F400 X72.5405 Y67.0397 Z-0.1000 S1000
G1 F400 X72.7871 Y67.2863 Z-0.1000 S1000
G1 F400 X73.0725 Y67.4866 Z-0.1000 S1000
G1 F400 X73.3885 Y67.6341 Z-0.1000 S1000
G1 F400 X73.7253 Y67.7242 Z-0.1000 S1000
G1 F400 X74.0727 Y67.7543 Z-0.1000 S1000
G1 F400 X81.0730 Y67.7543 Z-0.1000 S1000
G1 F400 X81.4205 Y67.7242 Z-0.1000 S1000
G1 F400 X81.7573 Y67.6341 Z-0.1000 S1000
G1 F400 X82.0732 Y67.4866 Z-0.1000 S1000
G1 F400 X82.3587 Y67.2863 Z-0.1000 S1000
G1 F400 X82.6052 Y67.0397 Z-0.1000 S1000
G1 F400 X82.8054 Y66.7542 Z-0.1000 S1000
G1 F400 X82.9529 Y66.4382 Z-0.1000 S1000
G1 F400 X83.0429 Y66.1014 Z-0.1000 S1000
G1 F400 X83.0730 Y65.7540 Z-0.1000 S1000
G1 F400 X83.0730 Y58.7540 Z-0.1000 S1000
G1 F400 X83.0730 Y58.7540 Z-0.1000 S1000
; retracting back to z-safe
G0 Z10
; Pass 5
; Operation 4: Laser: Vector (no path offset)
; Laser Spot Diameter: 0.1

G0 Z10; move to z-safe height
G0 F1000 X83.0730 Y58.7540

G0 Z0
G1 F300 Z-0.1000
G1 F400 X83.0429 Y58.4066 Z-0.1000 S1000
G1 F400 X82.9529 Y58.0697 Z-0.1000 S1000
G1 F400 X82.8054 Y57.7538 Z-0.1000 S1000
G1 F400 X82.6052 Y57.4684 Z-0.1000 S1000
G1 F400 X82.3586 Y57.2218 Z-0.1000 S1000
G1 F400 X82.0732 Y57.0216 Z-0.1000 S1000
G1 F400 X81.7573 Y56.8741 Z-0.1000 S1000
G1 F400 X81.4204 Y56.7841 Z-0.1000 S1000
G1 F400 X81.0730 Y56.7540 Z-0.1000 S1000
G1 F400 X74.0727 Y56.7540 Z-0.1000 S1000
G1 F400 X73.7253 Y56.7841 Z-0.1000 S1000
G1 F400 X73.3885 Y56.8741 Z-0.1000 S1000
G1 F400 X73.0726 Y57.0216 Z-0.1000 S1000
G1 F400 X72.7872 Y57.2218 Z-0.1000 S1000
G1 F400 X72.5406 Y57.4684 Z-0.1000 S1000
G1 F400 X72.3404 Y57.7538 Z-0.1000 S1000
G1 F400 X72.1929 Y58.0697 Z-0.1000 S1000
G1 F400 X72.1028 Y58.4066 Z-0.1000 S1000
G1 F400 X72.0728 Y58.7540 Z-0.1000 S1000
G1 F400 X72.0728 Y65.7540 Z-0.1000 S1000
G1 F400 X72.1028 Y66.1014 Z-0.1000 S1000
G1 F400 X72.1928 Y66.4382 Z-0.1000 S1000
G1 F400 X72.3403 Y66.7542 Z-0.1000 S1000
G1 F400 X72.5405 Y67.0397 Z-0.1000 S1000
G1 F400 X72.7871 Y67.2863 Z-0.1000 S1000
G1 F400 X73.0725 Y67.4866 Z-0.1000 S1000
G1 F400 X73.3885 Y67.6341 Z-0.1000 S1000
G1 F400 X73.7253 Y67.7242 Z-0.1000 S1000
G1 F400 X74.0727 Y67.7543 Z-0.1000 S1000
G1 F400 X81.0730 Y67.7543 Z-0.1000 S1000
G1 F400 X81.4205 Y67.7242 Z-0.1000 S1000
G1 F400 X81.7573 Y67.6341 Z-0.1000 S1000
G1 F400 X82.0732 Y67.4866 Z-0.1000 S1000
G1 F400 X82.3587 Y67.2863 Z-0.1000 S1000
G1 F400 X82.6052 Y67.0397 Z-0.1000 S1000
G1 F400 X82.8054 Y66.7542 Z-0.1000 S1000
G1 F400 X82.9529 Y66.4382 Z-0.1000 S1000
G1 F400 X83.0429 Y66.1014 Z-0.1000 S1000
G1 F400 X83.0730 Y65.7540 Z-0.1000 S1000
G1 F400 X83.0730 Y58.7540 Z-0.1000 S1000
G1 F400 X83.0730 Y58.7540 Z-0.1000 S1000
; retracting back to z-safe
G0 Z10
; Pass 0
; Operation 5: Laser: Vector (no path offset)
; Laser Spot Diameter: 0.1

G0 Z10; move to z-safe height
G0 F1000 X98.0733 Y58.7540

G0 Z0
G1 F300 Z-0.1000
G1 F400 X98.0432 Y58.4066 Z-0.1000 S1000
G1 F400 X97.9532 Y58.0697 Z-0.1000 S1000
G1 F400 X97.8056 Y57.7538 Z-0.1000 S1000
G1 F400 X97.6054 Y57.4684 Z-0.1000 S1000
G1 F400 X97.3589 Y57.2218 Z-0.1000 S1000
G1 F400 X97.0734 Y57.0216 Z-0.1000 S1000
G1 F400 X96.7575 Y56.8741 Z-0.1000 S1000
G1 F400 X96.4207 Y56.7841 Z-0.1000 S1000
G1 F400 X96.0733 Y56.7540 Z-0.1000 S1000
G1 F400 X89.0730 Y56.7540 Z-0.1000 S1000
G1 F400 X88.7256 Y56.7841 Z-0.1000 S1000
G1 F400 X88.3888 Y56.8741 Z-0.1000 S1000
G1 F400 X88.0729 Y57.0216 Z-0.1000 S1000
G1 F400 X87.7874 Y57.2218 Z-0.1000 S1000
G1 F400 X87.5409 Y57.4684 Z-0.1000 S1000
G1 F400 X87.3407 Y57.7538 Z-0.1000 S1000
G1 F400 X87.1931 Y58.0697 Z-0.1000 S1000
G1 F400 X87.1031 Y58.4066 Z-0.1000 S1000
G1 F400 X87.0731 Y58.7540 Z-0.1000 S1000
G1 F400 X87.0731 Y65.7540 Z-0.1000 S1000
G1 F400 X87.1031 Y66.1014 Z-0.1000 S1000
G1 F400 X87.1931 Y66.4382 Z-0.1000 S1000
G1 F400 X87.3406 Y66.7542 Z-0.1000 S1000
G1 F400 X87.5408 Y67.0397 Z-0.1000 S1000
G1 F400 X87.7873 Y67.2863 Z-0.1000 S1000
G1 F400 X88.0728 Y67.4866 Z-0.1000 S1000
G1 F400 X88.3887 Y67.6341 Z-0.1000 S1000
G1 F400 X88.7256 Y67.7242 Z-0.1000 S1000
G1 F400 X89.0730 Y67.7543 Z-0.1000 S1000
G1 F400 X96.0733 Y67.7543 Z-0.1000 S1000
G1 F400 X96.4207 Y67.7242 Z-0.1000 S1000
G1 F400 X96.7576 Y67.6341 Z-0.1000 S1000
G1 F400 X97.0735 Y67.4866 Z-0.1000 S1000
G1 F400 X97.3590 Y67.2863 Z-0.1000 S1000
G1 F400 X97.6055 Y67.0397 Z-0.1000 S1000
G1 F400 X97.8057 Y66.7542 Z-0.1000 S1000
G1 F400 X97.9532 Y66.4382 Z-0.1000 S1000
G1 F400 X98.0432 Y66.1014 Z-0.1000 S1000
G1 F400 X98.0733 Y65.7540 Z-0.1000 S1000
G1 F400 X98.0733 Y58.7540 Z-0.1000 S1000
G1 F400 X98.0733 Y58.7540 Z-0.1000 S1000
; retracting back to z-safe
G0 Z10
; Pass 1
; Operation 5: Laser: Vector (no path offset)
; Laser Spot Diameter: 0.1

G0 Z10; move to z-safe height
G0 F1000 X98.0733 Y58.7540

G0 Z0
G1 F300 Z-0.1000
G1 F400 X98.0432 Y58.4066 Z-0.1000 S1000
G1 F400 X97.9532 Y58.0697 Z-0.1000 S1000
G1 F400 X97.8056 Y57.7538 Z-0.1000 S1000
G1 F400 X97.6054 Y57.4684 Z-0.1000 S1000
G1 F400 X97.3589 Y57.2218 Z-0.1000 S1000
G1 F400 X97.0734 Y57.0216 Z-0.1000 S1000
G1 F400 X96.7575 Y56.8741 Z-0.1000 S1000
G1 F400 X96.4207 Y56.7841 Z-0.1000 S1000
G1 F400 X96.0733 Y56.7540 Z-0.1000 S1000
G1 F400 X89.0730 Y56.7540 Z-0.1000 S1000
G1 F400 X88.7256 Y56.7841 Z-0.1000 S1000
G1 F400 X88.3888 Y56.8741 Z-0.1000 S1000
G1 F400 X88.0729 Y57.0216 Z-0.1000 S1000
G1 F400 X87.7874 Y57.2218 Z-0.1000 S1000
G1 F400 X87.5409 Y57.4684 Z-0.1000 S1000
G1 F400 X87.3407 Y57.7538 Z-0.1000 S1000
G1 F400 X87.1931 Y58.0697 Z-0.1000 S1000
G1 F400 X87.1031 Y58.4066 Z-0.1000 S1000
G1 F400 X87.0731 Y58.7540 Z-0.1000 S1000
G1 F400 X87.0731 Y65.7540 Z-0.1000 S1000
G1 F400 X87.1031 Y66.1014 Z-0.1000 S1000
G1 F400 X87.1931 Y66.4382 Z-0.1000 S1000
G1 F400 X87.3406 Y66.7542 Z-0.1000 S1000
G1 F400 X87.5408 Y67.0397 Z-0.1000 S1000
G1 F400 X87.7873 Y67.2863 Z-0.1000 S1000
G1 F400 X88.0728 Y67.4866 Z-0.1000 S1000
G1 F400 X88.3887 Y67.6341 Z-0.1000 S1000
G1 F400 X88.7256 Y67.7242 Z-0.1000 S1000
G1 F400 X89.0730 Y67.7543 Z-0.1000 S1000
G1 F400 X96.0733 Y67.7543 Z-0.1000 S1000
G1 F400 X96.4207 Y67.7242 Z-0.1000 S1000
G1 F400 X96.7576 Y67.6341 Z-0.1000 S1000
G1 F400 X97.0735 Y67.4866 Z-0.1000 S1000
G1 F400 X97.3590 Y67.2863 Z-0.1000 S1000
G1 F400 X97.6055 Y67.0397 Z-0.1000 S1000
G1 F400 X97.8057 Y66.7542 Z-0.1000 S1000
G1 F400 X97.9532 Y66.4382 Z-0.1000 S1000
G1 F400 X98.0432 Y66.1014 Z-0.1000 S1000
G1 F400 X98.0733 Y65.7540 Z-0.1000 S1000
G1 F400 X98.0733 Y58.7540 Z-0.1000 S1000
G1 F400 X98.0733 Y58.7540 Z-0.1000 S1000
; retracting back to z-safe
G0 Z10
; Pass 2
; Operation 5: Laser: Vector (no path offset)
; Laser Spot Diameter: 0.1

G0 Z10; move to z-safe height
G0 F1000 X98.0733 Y58.7540

G0 Z0
G1 F300 Z-0.1000
G1 F400 X98.0432 Y58.4066 Z-0.1000 S1000
G1 F400 X97.9532 Y58.0697 Z-0.1000 S1000
G1 F400 X97.8056 Y57.7538 Z-0.1000 S1000
G1 F400 X97.6054 Y57.4684 Z-0.1000 S1000
G1 F400 X97.3589 Y57.2218 Z-0.1000 S1000
G1 F400 X97.0734 Y57.0216 Z-0.1000 S1000
G1 F400 X96.7575 Y56.8741 Z-0.1000 S1000
G1 F400 X96.4207 Y56.7841 Z-0.1000 S1000
G1 F400 X96.0733 Y56.7540 Z-0.1000 S1000
G1 F400 X89.0730 Y56.7540 Z-0.1000 S1000
G1 F400 X88.7256 Y56.7841 Z-0.1000 S1000
G1 F400 X88.3888 Y56.8741 Z-0.1000 S1000
G1 F400 X88.0729 Y57.0216 Z-0.1000 S1000
G1 F400 X87.7874 Y57.2218 Z-0.1000 S1000
G1 F400 X87.5409 Y57.4684 Z-0.1000 S1000
G1 F400 X87.3407 Y57.7538 Z-0.1000 S1000
G1 F400 X87.1931 Y58.0697 Z-0.1000 S1000
G1 F400 X87.1031 Y58.4066 Z-0.1000 S1000
G1 F400 X87.0731 Y58.7540 Z-0.1000 S1000
G1 F400 X87.0731 Y65.7540 Z-0.1000 S1000
G1 F400 X87.1031 Y66.1014 Z-0.1000 S1000
G1 F400 X87.1931 Y66.4382 Z-0.1000 S1000
G1 F400 X87.3406 Y66.7542 Z-0.1000 S1000
G1 F400 X87.5408 Y67.0397 Z-0.1000 S1000
G1 F400 X87.7873 Y67.2863 Z-0.1000 S1000
G1 F400 X88.0728 Y67.4866 Z-0.1000 S1000
G1 F400 X88.3887 Y67.6341 Z-0.1000 S1000
G1 F400 X88.7256 Y67.7242 Z-0.1000 S1000
G1 F400 X89.0730 Y67.7543 Z-0.1000 S1000
G1 F400 X96.0733 Y67.7543 Z-0.1000 S1000
G1 F400 X96.4207 Y67.7242 Z-0.1000 S1000
G1 F400 X96.7576 Y67.6341 Z-0.1000 S1000
G1 F400 X97.0735 Y67.4866 Z-0.1000 S1000
G1 F400 X97.3590 Y67.2863 Z-0.1000 S1000
G1 F400 X97.6055 Y67.0397 Z-0.1000 S1000
G1 F400 X97.8057 Y66.7542 Z-0.1000 S1000
G1 F400 X97.9532 Y66.4382 Z-0.1000 S1000
G1 F400 X98.0432 Y66.1014 Z-0.1000 S1000
G1 F400 X98.0733 Y65.7540 Z-0.1000 S1000
G1 F400 X98.0733 Y58.7540 Z-0.1000 S1000
G1 F400 X98.0733 Y58.7540 Z-0.1000 S1000
; retracting back to z-safe
G0 Z10
; Pass 3
; Operation 5: Laser: Vector (no path offset)
; Laser Spot Diameter: 0.1

G0 Z10; move to z-safe height
G0 F1000 X98.0733 Y58.7540

G0 Z0
G1 F300 Z-0.1000
G1 F400 X98.0432 Y58.4066 Z-0.1000 S1000
G1 F400 X97.9532 Y58.0697 Z-0.1000 S1000
G1 F400 X97.8056 Y57.7538 Z-0.1000 S1000
G1 F400 X97.6054 Y57.4684 Z-0.1000 S1000
G1 F400 X97.3589 Y57.2218 Z-0.1000 S1000
G1 F400 X97.0734 Y57.0216 Z-0.1000 S1000
G1 F400 X96.7575 Y56.8741 Z-0.1000 S1000
G1 F400 X96.4207 Y56.7841 Z-0.1000 S1000
G1 F400 X96.0733 Y56.7540 Z-0.1000 S1000
G1 F400 X89.0730 Y56.7540 Z-0.1000 S1000
G1 F400 X88.7256 Y56.7841 Z-0.1000 S1000
G1 F400 X88.3888 Y56.8741 Z-0.1000 S1000
G1 F400 X88.0729 Y57.0216 Z-0.1000 S1000
G1 F400 X87.7874 Y57.2218 Z-0.1000 S1000
G1 F400 X87.5409 Y57.4684 Z-0.1000 S1000
G1 F400 X87.3407 Y57.7538 Z-0.1000 S1000
G1 F400 X87.1931 Y58.0697 Z-0.1000 S1000
G1 F400 X87.1031 Y58.4066 Z-0.1000 S1000
G1 F400 X87.0731 Y58.7540 Z-0.1000 S1000
G1 F400 X87.0731 Y65.7540 Z-0.1000 S1000
G1 F400 X87.1031 Y66.1014 Z-0.1000 S1000
G1 F400 X87.1931 Y66.4382 Z-0.1000 S1000
G1 F400 X87.3406 Y66.7542 Z-0.1000 S1000
G1 F400 X87.5408 Y67.0397 Z-0.1000 S1000
G1 F400 X87.7873 Y67.2863 Z-0.1000 S1000
G1 F400 X88.0728 Y67.4866 Z-0.1000 S1000
G1 F400 X88.3887 Y67.6341 Z-0.1000 S1000
G1 F400 X88.7256 Y67.7242 Z-0.1000 S1000
G1 F400 X89.0730 Y67.7543 Z-0.1000 S1000
G1 F400 X96.0733 Y67.7543 Z-0.1000 S1000
G1 F400 X96.4207 Y67.7242 Z-0.1000 S1000
G1 F400 X96.7576 Y67.6341 Z-0.1000 S1000
G1 F400 X97.0735 Y67.4866 Z-0.1000 S1000
G1 F400 X97.3590 Y67.2863 Z-0.1000 S1000
G1 F400 X97.6055 Y67.0397 Z-0.1000 S1000
G1 F400 X97.8057 Y66.7542 Z-0.1000 S1000
G1 F400 X97.9532 Y66.4382 Z-0.1000 S1000
G1 F400 X98.0432 Y66.1014 Z-0.1000 S1000
G1 F400 X98.0733 Y65.7540 Z-0.1000 S1000
G1 F400 X98.0733 Y58.7540 Z-0.1000 S1000
G1 F400 X98.0733 Y58.7540 Z-0.1000 S1000
; retracting back to z-safe
G0 Z10
; Pass 4
; Operation 5: Laser: Vector (no path offset)
; Laser Spot Diameter: 0.1

G0 Z10; move to z-safe height
G0 F1000 X98.0733 Y58.7540

G0 Z0
G1 F300 Z-0.1000
G1 F400 X98.0432 Y58.4066 Z-0.1000 S1000
G1 F400 X97.9532 Y58.0697 Z-0.1000 S1000
G1 F400 X97.8056 Y57.7538 Z-0.1000 S1000
G1 F400 X97.6054 Y57.4684 Z-0.1000 S1000
G1 F400 X97.3589 Y57.2218 Z-0.1000 S1000
G1 F400 X97.0734 Y57.0216 Z-0.1000 S1000
G1 F400 X96.7575 Y56.8741 Z-0.1000 S1000
G1 F400 X96.4207 Y56.7841 Z-0.1000 S1000
G1 F400 X96.0733 Y56.7540 Z-0.1000 S1000
G1 F400 X89.0730 Y56.7540 Z-0.1000 S1000
G1 F400 X88.7256 Y56.7841 Z-0.1000 S1000
G1 F400 X88.3888 Y56.8741 Z-0.1000 S1000
G1 F400 X88.0729 Y57.0216 Z-0.1000 S1000
G1 F400 X87.7874 Y57.2218 Z-0.1000 S1000
G1 F400 X87.5409 Y57.4684 Z-0.1000 S1000
G1 F400 X87.3407 Y57.7538 Z-0.1000 S1000
G1 F400 X87.1931 Y58.0697 Z-0.1000 S1000
G1 F400 X87.1031 Y58.4066 Z-0.1000 S1000
G1 F400 X87.0731 Y58.7540 Z-0.1000 S1000
G1 F400 X87.0731 Y65.7540 Z-0.1000 S1000
G1 F400 X87.1031 Y66.1014 Z-0.1000 S1000
G1 F400 X87.1931 Y66.4382 Z-0.1000 S1000
G1 F400 X87.3406 Y66.7542 Z-0.1000 S1000
G1 F400 X87.5408 Y67.0397 Z-0.1000 S1000
G1 F400 X87.7873 Y67.2863 Z-0.1000 S1000
G1 F400 X88.0728 Y67.4866 Z-0.1000 S1000
G1 F400 X88.3887 Y67.6341 Z-0.1000 S1000
G1 F400 X88.7256 Y67.7242 Z-0.1000 S1000
G1 F400 X89.0730 Y67.7543 Z-0.1000 S1000
G1 F400 X96.0733 Y67.7543 Z-0.1000 S1000
G1 F400 X96.4207 Y67.7242 Z-0.1000 S1000
G1 F400 X96.7576 Y67.6341 Z-0.1000 S1000
G1 F400 X97.0735 Y67.4866 Z-0.1000 S1000
G1 F400 X97.3590 Y67.2863 Z-0.1000 S1000
G1 F400 X97.6055 Y67.0397 Z-0.1000 S1000
G1 F400 X97.8057 Y66.7542 Z-0.1000 S1000
G1 F400 X97.9532 Y66.4382 Z-0.1000 S1000
G1 F400 X98.0432 Y66.1014 Z-0.1000 S1000
G1 F400 X98.0733 Y65.7540 Z-0.1000 S1000
G1 F400 X98.0733 Y58.7540 Z-0.1000 S1000
G1 F400 X98.0733 Y58.7540 Z-0.1000 S1000
; retracting back to z-safe
G0 Z10
; Pass 5
; Operation 5: Laser: Vector (no path offset)
; Laser Spot Diameter: 0.1

G0 Z10; move to z-safe height
G0 F1000 X98.0733 Y58.7540

G0 Z0
G1 F300 Z-0.1000
G1 F400 X98.0432 Y58.4066 Z-0.1000 S1000
G1 F400 X97.9532 Y58.0697 Z-0.1000 S1000
G1 F400 X97.8056 Y57.7538 Z-0.1000 S1000
G1 F400 X97.6054 Y57.4684 Z-0.1000 S1000
G1 F400 X97.3589 Y57.2218 Z-0.1000 S1000
G1 F400 X97.0734 Y57.0216 Z-0.1000 S1000
G1 F400 X96.7575 Y56.8741 Z-0.1000 S1000
G1 F400 X96.4207 Y56.7841 Z-0.1000 S1000
G1 F400 X96.0733 Y56.7540 Z-0.1000 S1000
G1 F400 X89.0730 Y56.7540 Z-0.1000 S1000
G1 F400 X88.7256 Y56.7841 Z-0.1000 S1000
G1 F400 X88.3888 Y56.8741 Z-0.1000 S1000
G1 F400 X88.0729 Y57.0216 Z-0.1000 S1000
G1 F400 X87.7874 Y57.2218 Z-0.1000 S1000
G1 F400 X87.5409 Y57.4684 Z-0.1000 S1000
G1 F400 X87.3407 Y57.7538 Z-0.1000 S1000
G1 F400 X87.1931 Y58.0697 Z-0.1000 S1000
G1 F400 X87.1031 Y58.4066 Z-0.1000 S1000
G1 F400 X87.0731 Y58.7540 Z-0.1000 S1000
G1 F400 X87.0731 Y65.7540 Z-0.1000 S1000
G1 F400 X87.1031 Y66.1014 Z-0.1000 S1000
G1 F400 X87.1931 Y66.4382 Z-0.1000 S1000
G1 F400 X87.3406 Y66.7542 Z-0.1000 S1000
G1 F400 X87.5408 Y67.0397 Z-0.1000 S1000
G1 F400 X87.7873 Y67.2863 Z-0.1000 S1000
G1 F400 X88.0728 Y67.4866 Z-0.1000 S1000
G1 F400 X88.3887 Y67.6341 Z-0.1000 S1000
G1 F400 X88.7256 Y67.7242 Z-0.1000 S1000
G1 F400 X89.0730 Y67.7543 Z-0.1000 S1000
G1 F400 X96.0733 Y67.7543 Z-0.1000 S1000
G1 F400 X96.4207 Y67.7242 Z-0.1000 S1000
G1 F400 X96.7576 Y67.6341 Z-0.1000 S1000
G1 F400 X97.0735 Y67.4866 Z-0.1000 S1000
G1 F400 X97.3590 Y67.2863 Z-0.1000 S1000
G1 F400 X97.6055 Y67.0397 Z-0.1000 S1000
G1 F400 X97.8057 Y66.7542 Z-0.1000 S1000
G1 F400 X97.9532 Y66.4382 Z-0.1000 S1000
G1 F400 X98.0432 Y66.1014 Z-0.1000 S1000
G1 F400 X98.0733 Y65.7540 Z-0.1000 S1000
G1 F400 X98.0733 Y58.7540 Z-0.1000 S1000
G1 F400 X98.0733 Y58.7540 Z-0.1000 S1000
; retracting back to z-safe
G0 Z10
; Pass 0
; Operation 6: Laser: Vector (no path offset)
; Laser Spot Diameter: 0.1

G0 Z10; move to z-safe height
G0 F1000 X113.0739 Y58.7540

G0 Z0
G1 F300 Z-0.1000
G1 F400 X113.0438 Y58.4065 Z-0.1000 S1000
G1 F400 X112.9538 Y58.0697 Z-0.1000 S1000
G1 F400 X112.8062 Y57.7538 Z-0.1000 S1000
G1 F400 X112.6059 Y57.4684 Z-0.1000 S1000
G1 F400 X112.3593 Y57.2218 Z-0.1000 S1000
G1 F400 X112.0738 Y57.0216 Z-0.1000 S1000
G1 F400 X111.7579 Y56.8741 Z-0.1000 S1000
G1 F400 X111.4210 Y56.7841 Z-0.1000 S1000
G1 F400 X111.0736 Y56.7540 Z-0.1000 S1000
G1 F400 X104.0733 Y56.7540 Z-0.1000 S1000
G1 F400 X103.7259 Y56.7841 Z-0.1000 S1000
G1 F400 X103.3891 Y56.8741 Z-0.1000 S1000
G1 F400 X103.0732 Y57.0216 Z-0.1000 S1000
G1 F400 X102.7877 Y57.2218 Z-0.1000 S1000
G1 F400 X102.5412 Y57.4684 Z-0.1000 S1000
G1 F400 X102.3410 Y57.7538 Z-0.1000 S1000
G1 F400 X102.1934 Y58.0697 Z-0.1000 S1000
G1 F400 X102.1034 Y58.4066 Z-0.1000 S1000
G1 F400 X102.0734 Y58.7540 Z-0.1000 S1000
G1 F400 X102.0734 Y65.7540 Z-0.1000 S1000
G1 F400 X102.1034 Y66.1014 Z-0.1000 S1000
G1 F400 X102.1934 Y66.4382 Z-0.1000 S1000
G1 F400 X102.3409 Y66.7542 Z-0.1000 S1000
G1 F400 X102.5411 Y67.0397 Z-0.1000 S1000
G1 F400 X102.7876 Y67.2863 Z-0.1000 S1000
G1 F400 X103.0731 Y67.4866 Z-0.1000 S1000
G1 F400 X103.3890 Y67.6341 Z-0.1000 S1000
G1 F400 X103.7259 Y67.7242 Z-0.1000 S1000
G1 F400 X104.0733 Y67.7543 Z-0.1000 S1000
G1 F400 X111.0736 Y67.7543 Z-0.1000 S1000
G1 F400 X111.4211 Y67.7242 Z-0.1000 S1000
G1 F400 X111.7579 Y67.6341 Z-0.1000 S1000
G1 F400 X112.0739 Y67.4866 Z-0.1000 S1000
G1 F400 X112.3594 Y67.2863 Z-0.1000 S1000
G1 F400 X112.6060 Y67.0397 Z-0.1000 S1000
G1 F400 X112.8062 Y66.7542 Z-0.1000 S1000
G1 F400 X112.9538 Y66.4383 Z-0.1000 S1000
G1 F400 X113.0439 Y66.1014 Z-0.1000 S1000
G1 F400 X113.0739 Y65.7540 Z-0.1000 S1000
G1 F400 X113.0739 Y58.7540 Z-0.1000 S1000
G1 F400 X113.0739 Y58.7540 Z-0.1000 S1000
; retracting back to z-safe
G0 Z10
; Pass 1
; Operation 6: Laser: Vector (no path offset)
; Laser Spot Diameter: 0.1

G0 Z10; move to z-safe height
G0 F1000 X113.0739 Y58.7540

G0 Z0
G1 F300 Z-0.1000
G1 F400 X113.0438 Y58.4065 Z-0.1000 S1000
G1 F400 X112.9538 Y58.0697 Z-0.1000 S1000
G1 F400 X112.8062 Y57.7538 Z-0.1000 S1000
G1 F400 X112.6059 Y57.4684 Z-0.1000 S1000
G1 F400 X112.3593 Y57.2218 Z-0.1000 S1000
G1 F400 X112.0738 Y57.0216 Z-0.1000 S1000
G1 F400 X111.7579 Y56.8741 Z-0.1000 S1000
G1 F400 X111.4210 Y56.7841 Z-0.1000 S1000
G1 F400 X111.0736 Y56.7540 Z-0.1000 S1000
G1 F400 X104.0733 Y56.7540 Z-0.1000 S1000
G1 F400 X103.7259 Y56.7841 Z-0.1000 S1000
G1 F400 X103.3891 Y56.8741 Z-0.1000 S1000
G1 F400 X103.0732 Y57.0216 Z-0.1000 S1000
G1 F400 X102.7877 Y57.2218 Z-0.1000 S1000
G1 F400 X102.5412 Y57.4684 Z-0.1000 S1000
G1 F400 X102.3410 Y57.7538 Z-0.1000 S1000
G1 F400 X102.1934 Y58.0697 Z-0.1000 S1000
G1 F400 X102.1034 Y58.4066 Z-0.1000 S1000
G1 F400 X102.0734 Y58.7540 Z-0.1000 S1000
G1 F400 X102.0734 Y65.7540 Z-0.1000 S1000
G1 F400 X102.1034 Y66.1014 Z-0.1000 S1000
G1 F400 X102.1934 Y66.4382 Z-0.1000 S1000
G1 F400 X102.3409 Y66.7542 Z-0.1000 S1000
G1 F400 X102.5411 Y67.0397 Z-0.1000 S1000
G1 F400 X102.7876 Y67.2863 Z-0.1000 S1000
G1 F400 X103.0731 Y67.4866 Z-0.1000 S1000
G1 F400 X103.3890 Y67.6341 Z-0.1000 S1000
G1 F400 X103.7259 Y67.7242 Z-0.1000 S1000
G1 F400 X104.0733 Y67.7543 Z-0.1000 S1000
G1 F400 X111.0736 Y67.7543 Z-0.1000 S1000
G1 F400 X111.4211 Y67.7242 Z-0.1000 S1000
G1 F400 X111.7579 Y67.6341 Z-0.1000 S1000
G1 F400 X112.0739 Y67.4866 Z-0.1000 S1000
G1 F400 X112.3594 Y67.2863 Z-0.1000 S1000
G1 F400 X112.6060 Y67.0397 Z-0.1000 S1000
G1 F400 X112.8062 Y66.7542 Z-0.1000 S1000
G1 F400 X112.9538 Y66.4383 Z-0.1000 S1000
G1 F400 X113.0439 Y66.1014 Z-0.1000 S1000
G1 F400 X113.0739 Y65.7540 Z-0.1000 S1000
G1 F400 X113.0739 Y58.7540 Z-0.1000 S1000
G1 F400 X113.0739 Y58.7540 Z-0.1000 S1000
; retracting back to z-safe
G0 Z10
; Pass 2
; Operation 6: Laser: Vector (no path offset)
; Laser Spot Diameter: 0.1

G0 Z10; move to z-safe height
G0 F1000 X113.0739 Y58.7540

G0 Z0
G1 F300 Z-0.1000
G1 F400 X113.0438 Y58.4065 Z-0.1000 S1000
G1 F400 X112.9538 Y58.0697 Z-0.1000 S1000
G1 F400 X112.8062 Y57.7538 Z-0.1000 S1000
G1 F400 X112.6059 Y57.4684 Z-0.1000 S1000
G1 F400 X112.3593 Y57.2218 Z-0.1000 S1000
G1 F400 X112.0738 Y57.0216 Z-0.1000 S1000
G1 F400 X111.7579 Y56.8741 Z-0.1000 S1000
G1 F400 X111.4210 Y56.7841 Z-0.1000 S1000
G1 F400 X111.0736 Y56.7540 Z-0.1000 S1000
G1 F400 X104.0733 Y56.7540 Z-0.1000 S1000
G1 F400 X103.7259 Y56.7841 Z-0.1000 S1000
G1 F400 X103.3891 Y56.8741 Z-0.1000 S1000
G1 F400 X103.0732 Y57.0216 Z-0.1000 S1000
G1 F400 X102.7877 Y57.2218 Z-0.1000 S1000
G1 F400 X102.5412 Y57.4684 Z-0.1000 S1000
G1 F400 X102.3410 Y57.7538 Z-0.1000 S1000
G1 F400 X102.1934 Y58.0697 Z-0.1000 S1000
G1 F400 X102.1034 Y58.4066 Z-0.1000 S1000
G1 F400 X102.0734 Y58.7540 Z-0.1000 S1000
G1 F400 X102.0734 Y65.7540 Z-0.1000 S1000
G1 F400 X102.1034 Y66.1014 Z-0.1000 S1000
G1 F400 X102.1934 Y66.4382 Z-0.1000 S1000
G1 F400 X102.3409 Y66.7542 Z-0.1000 S1000
G1 F400 X102.5411 Y67.0397 Z-0.1000 S1000
G1 F400 X102.7876 Y67.2863 Z-0.1000 S1000
G1 F400 X103.0731 Y67.4866 Z-0.1000 S1000
G1 F400 X103.3890 Y67.6341 Z-0.1000 S1000
G1 F400 X103.7259 Y67.7242 Z-0.1000 S1000
G1 F400 X104.0733 Y67.7543 Z-0.1000 S1000
G1 F400 X111.0736 Y67.7543 Z-0.1000 S1000
G1 F400 X111.4211 Y67.7242 Z-0.1000 S1000
G1 F400 X111.7579 Y67.6341 Z-0.1000 S1000
G1 F400 X112.0739 Y67.4866 Z-0.1000 S1000
G1 F400 X112.3594 Y67.2863 Z-0.1000 S1000
G1 F400 X112.6060 Y67.0397 Z-0.1000 S1000
G1 F400 X112.8062 Y66.7542 Z-0.1000 S1000
G1 F400 X112.9538 Y66.4383 Z-0.1000 S1000
G1 F400 X113.0439 Y66.1014 Z-0.1000 S1000
G1 F400 X113.0739 Y65.7540 Z-0.1000 S1000
G1 F400 X113.0739 Y58.7540 Z-0.1000 S1000
G1 F400 X113.0739 Y58.7540 Z-0.1000 S1000
; retracting back to z-safe
G0 Z10
; Pass 3
; Operation 6: Laser: Vector (no path offset)
; Laser Spot Diameter: 0.1

G0 Z10; move to z-safe height
G0 F1000 X113.0739 Y58.7540

G0 Z0
G1 F300 Z-0.1000
G1 F400 X113.0438 Y58.4065 Z-0.1000 S1000
G1 F400 X112.9538 Y58.0697 Z-0.1000 S1000
G1 F400 X112.8062 Y57.7538 Z-0.1000 S1000
G1 F400 X112.6059 Y57.4684 Z-0.1000 S1000
G1 F400 X112.3593 Y57.2218 Z-0.1000 S1000
G1 F400 X112.0738 Y57.0216 Z-0.1000 S1000
G1 F400 X111.7579 Y56.8741 Z-0.1000 S1000
G1 F400 X111.4210 Y56.7841 Z-0.1000 S1000
G1 F400 X111.0736 Y56.7540 Z-0.1000 S1000
G1 F400 X104.0733 Y56.7540 Z-0.1000 S1000
G1 F400 X103.7259 Y56.7841 Z-0.1000 S1000
G1 F400 X103.3891 Y56.8741 Z-0.1000 S1000
G1 F400 X103.0732 Y57.0216 Z-0.1000 S1000
G1 F400 X102.7877 Y57.2218 Z-0.1000 S1000
G1 F400 X102.5412 Y57.4684 Z-0.1000 S1000
G1 F400 X102.3410 Y57.7538 Z-0.1000 S1000
G1 F400 X102.1934 Y58.0697 Z-0.1000 S1000
G1 F400 X102.1034 Y58.4066 Z-0.1000 S1000
G1 F400 X102.0734 Y58.7540 Z-0.1000 S1000
G1 F400 X102.0734 Y65.7540 Z-0.1000 S1000
G1 F400 X102.1034 Y66.1014 Z-0.1000 S1000
G1 F400 X102.1934 Y66.4382 Z-0.1000 S1000
G1 F400 X102.3409 Y66.7542 Z-0.1000 S1000
G1 F400 X102.5411 Y67.0397 Z-0.1000 S1000
G1 F400 X102.7876 Y67.2863 Z-0.1000 S1000
G1 F400 X103.0731 Y67.4866 Z-0.1000 S1000
G1 F400 X103.3890 Y67.6341 Z-0.1000 S1000
G1 F400 X103.7259 Y67.7242 Z-0.1000 S1000
G1 F400 X104.0733 Y67.7543 Z-0.1000 S1000
G1 F400 X111.0736 Y67.7543 Z-0.1000 S1000
G1 F400 X111.4211 Y67.7242 Z-0.1000 S1000
G1 F400 X111.7579 Y67.6341 Z-0.1000 S1000
G1 F400 X112.0739 Y67.4866 Z-0.1000 S1000
G1 F400 X112.3594 Y67.2863 Z-0.1000 S1000
G1 F400 X112.6060 Y67.0397 Z-0.1000 S1000
G1 F400 X112.8062 Y66.7542 Z-0.1000 S1000
G1 F400 X112.9538 Y66.4383 Z-0.1000 S1000
G1 F400 X113.0439 Y66.1014 Z-0.1000 S1000
G1 F400 X113.0739 Y65.7540 Z-0.1000 S1000
G1 F400 X113.0739 Y58.7540 Z-0.1000 S1000
G1 F400 X113.0739 Y58.7540 Z-0.1000 S1000
; retracting back to z-safe
G0 Z10
; Pass 4
; Operation 6: Laser: Vector (no path offset)
; Laser Spot Diameter: 0.1

G0 Z10; move to z-safe height
G0 F1000 X113.0739 Y58.7540

G0 Z0
G1 F300 Z-0.1000
G1 F400 X113.0438 Y58.4065 Z-0.1000 S1000
G1 F400 X112.9538 Y58.0697 Z-0.1000 S1000
G1 F400 X112.8062 Y57.7538 Z-0.1000 S1000
G1 F400 X112.6059 Y57.4684 Z-0.1000 S1000
G1 F400 X112.3593 Y57.2218 Z-0.1000 S1000
G1 F400 X112.0738 Y57.0216 Z-0.1000 S1000
G1 F400 X111.7579 Y56.8741 Z-0.1000 S1000
G1 F400 X111.4210 Y56.7841 Z-0.1000 S1000
G1 F400 X111.0736 Y56.7540 Z-0.1000 S1000
G1 F400 X104.0733 Y56.7540 Z-0.1000 S1000
G1 F400 X103.7259 Y56.7841 Z-0.1000 S1000
G1 F400 X103.3891 Y56.8741 Z-0.1000 S1000
G1 F400 X103.0732 Y57.0216 Z-0.1000 S1000
G1 F400 X102.7877 Y57.2218 Z-0.1000 S1000
G1 F400 X102.5412 Y57.4684 Z-0.1000 S1000
G1 F400 X102.3410 Y57.7538 Z-0.1000 S1000
G1 F400 X102.1934 Y58.0697 Z-0.1000 S1000
G1 F400 X102.1034 Y58.4066 Z-0.1000 S1000
G1 F400 X102.0734 Y58.7540 Z-0.1000 S1000
G1 F400 X102.0734 Y65.7540 Z-0.1000 S1000
G1 F400 X102.1034 Y66.1014 Z-0.1000 S1000
G1 F400 X102.1934 Y66.4382 Z-0.1000 S1000
G1 F400 X102.3409 Y66.7542 Z-0.1000 S1000
G1 F400 X102.5411 Y67.0397 Z-0.1000 S1000
G1 F400 X102.7876 Y67.2863 Z-0.1000 S1000
G1 F400 X103.0731 Y67.4866 Z-0.1000 S1000
G1 F400 X103.3890 Y67.6341 Z-0.1000 S1000
G1 F400 X103.7259 Y67.7242 Z-0.1000 S1000
G1 F400 X104.0733 Y67.7543 Z-0.1000 S1000
G1 F400 X111.0736 Y67.7543 Z-0.1000 S1000
G1 F400 X111.4211 Y67.7242 Z-0.1000 S1000
G1 F400 X111.7579 Y67.6341 Z-0.1000 S1000
G1 F400 X112.0739 Y67.4866 Z-0.1000 S1000
G1 F400 X112.3594 Y67.2863 Z-0.1000 S1000
G1 F400 X112.6060 Y67.0397 Z-0.1000 S1000
G1 F400 X112.8062 Y66.7542 Z-0.1000 S1000
G1 F400 X112.9538 Y66.4383 Z-0.1000 S1000
G1 F400 X113.0439 Y66.1014 Z-0.1000 S1000
G1 F400 X113.0739 Y65.7540 Z-0.1000 S1000
G1 F400 X113.0739 Y58.7540 Z-0.1000 S1000
G1 F400 X113.0739 Y58.7540 Z-0.1000 S1000
; retracting back to z-safe
G0 Z10
; Pass 5
; Operation 6: Laser: Vector (no path offset)
; Laser Spot Diameter: 0.1

G0 Z10; move to z-safe height
G0 F1000 X113.0739 Y58.7540

G0 Z0
G1 F300 Z-0.1000
G1 F400 X113.0438 Y58.4065 Z-0.1000 S1000
G1 F400 X112.9538 Y58.0697 Z-0.1000 S1000
G1 F400 X112.8062 Y57.7538 Z-0.1000 S1000
G1 F400 X112.6059 Y57.4684 Z-0.1000 S1000
G1 F400 X112.3593 Y57.2218 Z-0.1000 S1000
G1 F400 X112.0738 Y57.0216 Z-0.1000 S1000
G1 F400 X111.7579 Y56.8741 Z-0.1000 S1000
G1 F400 X111.4210 Y56.7841 Z-0.1000 S1000
G1 F400 X111.0736 Y56.7540 Z-0.1000 S1000
G1 F400 X104.0733 Y56.7540 Z-0.1000 S1000
G1 F400 X103.7259 Y56.7841 Z-0.1000 S1000
G1 F400 X103.3891 Y56.8741 Z-0.1000 S1000
G1 F400 X103.0732 Y57.0216 Z-0.1000 S1000
G1 F400 X102.7877 Y57.2218 Z-0.1000 S1000
G1 F400 X102.5412 Y57.4684 Z-0.1000 S1000
G1 F400 X102.3410 Y57.7538 Z-0.1000 S1000
G1 F400 X102.1934 Y58.0697 Z-0.1000 S1000
G1 F400 X102.1034 Y58.4066 Z-0.1000 S1000
G1 F400 X102.0734 Y58.7540 Z-0.1000 S1000
G1 F400 X102.0734 Y65.7540 Z-0.1000 S1000
G1 F400 X102.1034 Y66.1014 Z-0.1000 S1000
G1 F400 X102.1934 Y66.4382 Z-0.1000 S1000
G1 F400 X102.3409 Y66.7542 Z-0.1000 S1000
G1 F400 X102.5411 Y67.0397 Z-0.1000 S1000
G1 F400 X102.7876 Y67.2863 Z-0.1000 S1000
G1 F400 X103.0731 Y67.4866 Z-0.1000 S1000
G1 F400 X103.3890 Y67.6341 Z-0.1000 S1000
G1 F400 X103.7259 Y67.7242 Z-0.1000 S1000
G1 F400 X104.0733 Y67.7543 Z-0.1000 S1000
G1 F400 X111.0736 Y67.7543 Z-0.1000 S1000
G1 F400 X111.4211 Y67.7242 Z-0.1000 S1000
G1 F400 X111.7579 Y67.6341 Z-0.1000 S1000
G1 F400 X112.0739 Y67.4866 Z-0.1000 S1000
G1 F400 X112.3594 Y67.2863 Z-0.1000 S1000
G1 F400 X112.6060 Y67.0397 Z-0.1000 S1000
G1 F400 X112.8062 Y66.7542 Z-0.1000 S1000
G1 F400 X112.9538 Y66.4383 Z-0.1000 S1000
G1 F400 X113.0439 Y66.1014 Z-0.1000 S1000
G1 F400 X113.0739 Y65.7540 Z-0.1000 S1000
G1 F400 X113.0739 Y58.7540 Z-0.1000 S1000
G1 F400 X113.0739 Y58.7540 Z-0.1000 S1000
; retracting back to z-safe
G0 Z10
; Pass 0
; Operation 7: Laser: Vector (no path offset)
; Laser Spot Diameter: 0.1

G0 Z10; move to z-safe height
G0 F1000 X128.0742 Y58.7540

G0 Z0
G1 F300 Z-0.1000
G1 F400 X128.0441 Y58.4065 Z-0.1000 S1000
G1 F400 X127.9541 Y58.0697 Z-0.1000 S1000
G1 F400 X127.8065 Y57.7538 Z-0.1000 S1000
G1 F400 X127.6062 Y57.4683 Z-0.1000 S1000
G1 F400 X127.3596 Y57.2218 Z-0.1000 S1000
G1 F400 X127.0741 Y57.0216 Z-0.1000 S1000
G1 F400 X126.7582 Y56.8741 Z-0.1000 S1000
G1 F400 X126.4213 Y56.7840 Z-0.1000 S1000
G1 F400 X126.0739 Y56.7540 Z-0.1000 S1000
G1 F400 X119.0739 Y56.7540 Z-0.1000 S1000
G1 F400 X118.7265 Y56.7840 Z-0.1000 S1000
G1 F400 X118.3896 Y56.8741 Z-0.1000 S1000
G1 F400 X118.0737 Y57.0216 Z-0.1000 S1000
G1 F400 X117.7882 Y57.2218 Z-0.1000 S1000
G1 F400 X117.5416 Y57.4683 Z-0.1000 S1000
G1 F400 X117.3413 Y57.7538 Z-0.1000 S1000
G1 F400 X117.1937 Y58.0697 Z-0.1000 S1000
G1 F400 X117.1037 Y58.4065 Z-0.1000 S1000
G1 F400 X117.0736 Y58.7540 Z-0.1000 S1000
G1 F400 X117.0736 Y65.7540 Z-0.1000 S1000
G1 F400 X117.1037 Y66.1014 Z-0.1000 S1000
G1 F400 X117.1937 Y66.4383 Z-0.1000 S1000
G1 F400 X117.3412 Y66.7543 Z-0.1000 S1000
G1 F400 X117.5415 Y67.0398 Z-0.1000 S1000
G1 F400 X117.7881 Y67.2864 Z-0.1000 S1000
G1 F400 X118.0736 Y67.4866 Z-0.1000 S1000
G1 F400 X118.3896 Y67.6342 Z-0.1000 S1000
G1 F400 X118.7265 Y67.7242 Z-0.1000 S1000
G1 F400 X119.0739 Y67.7543 Z-0.1000 S1000
G1 F400 X126.0739 Y67.7543 Z-0.1000 S1000
G1 F400 X126.4213 Y67.7242 Z-0.1000 S1000
G1 F400 X126.7582 Y67.6342 Z-0.1000 S1000
G1 F400 X127.0742 Y67.4866 Z-0.1000 S1000
G1 F400 X127.3597 Y67.2864 Z-0.1000 S1000
G1 F400 X127.6063 Y67.0398 Z-0.1000 S1000
G1 F400 X127.8066 Y66.7543 Z-0.1000 S1000
G1 F400 X127.9541 Y66.4383 Z-0.1000 S1000
G1 F400 X128.0441 Y66.1014 Z-0.1000 S1000
G1 F400 X128.0742 Y65.7540 Z-0.1000 S1000
G1 F400 X128.0742 Y58.7540 Z-0.1000 S1000
G1 F400 X128.0742 Y58.7540 Z-0.1000 S1000
; retracting back to z-safe
G0 Z10
; Pass 1
; Operation 7: Laser: Vector (no path offset)
; Laser Spot Diameter: 0.1

G0 Z10; move to z-safe height
G0 F1000 X128.0742 Y58.7540

G0 Z0
G1 F300 Z-0.1000
G1 F400 X128.0441 Y58.4065 Z-0.1000 S1000
G1 F400 X127.9541 Y58.0697 Z-0.1000 S1000
G1 F400 X127.8065 Y57.7538 Z-0.1000 S1000
G1 F400 X127.6062 Y57.4683 Z-0.1000 S1000
G1 F400 X127.3596 Y57.2218 Z-0.1000 S1000
G1 F400 X127.0741 Y57.0216 Z-0.1000 S1000
G1 F400 X126.7582 Y56.8741 Z-0.1000 S1000
G1 F400 X126.4213 Y56.7840 Z-0.1000 S1000
G1 F400 X126.0739 Y56.7540 Z-0.1000 S1000
G1 F400 X119.0739 Y56.7540 Z-0.1000 S1000
G1 F400 X118.7265 Y56.7840 Z-0.1000 S1000
G1 F400 X118.3896 Y56.8741 Z-0.1000 S1000
G1 F400 X118.0737 Y57.0216 Z-0.1000 S1000
G1 F400 X117.7882 Y57.2218 Z-0.1000 S1000
G1 F400 X117.5416 Y57.4683 Z-0.1000 S1000
G1 F400 X117.3413 Y57.7538 Z-0.1000 S1000
G1 F400 X117.1937 Y58.0697 Z-0.1000 S1000
G1 F400 X117.1037 Y58.4065 Z-0.1000 S1000
G1 F400 X117.0736 Y58.7540 Z-0.1000 S1000
G1 F400 X117.0736 Y65.7540 Z-0.1000 S1000
G1 F400 X117.1037 Y66.1014 Z-0.1000 S1000
G1 F400 X117.1937 Y66.4383 Z-0.1000 S1000
G1 F400 X117.3412 Y66.7543 Z-0.1000 S1000
G1 F400 X117.5415 Y67.0398 Z-0.1000 S1000
G1 F400 X117.7881 Y67.2864 Z-0.1000 S1000
G1 F400 X118.0736 Y67.4866 Z-0.1000 S1000
G1 F400 X118.3896 Y67.6342 Z-0.1000 S1000
G1 F400 X118.7265 Y67.7242 Z-0.1000 S1000
G1 F400 X119.0739 Y67.7543 Z-0.1000 S1000
G1 F400 X126.0739 Y67.7543 Z-0.1000 S1000
G1 F400 X126.4213 Y67.7242 Z-0.1000 S1000
G1 F400 X126.7582 Y67.6342 Z-0.1000 S1000
G1 F400 X127.0742 Y67.4866 Z-0.1000 S1000
G1 F400 X127.3597 Y67.2864 Z-0.1000 S1000
G1 F400 X127.6063 Y67.0398 Z-0.1000 S1000
G1 F400 X127.8066 Y66.7543 Z-0.1000 S1000
G1 F400 X127.9541 Y66.4383 Z-0.1000 S1000
G1 F400 X128.0441 Y66.1014 Z-0.1000 S1000
G1 F400 X128.0742 Y65.7540 Z-0.1000 S1000
G1 F400 X128.0742 Y58.7540 Z-0.1000 S1000
G1 F400 X128.0742 Y58.7540 Z-0.1000 S1000
; retracting back to z-safe
G0 Z10
; Pass 2
; Operation 7: Laser: Vector (no path offset)
; Laser Spot Diameter: 0.1

G0 Z10; move to z-safe height
G0 F1000 X128.0742 Y58.7540

G0 Z0
G1 F300 Z-0.1000
G1 F400 X128.0441 Y58.4065 Z-0.1000 S1000
G1 F400 X127.9541 Y58.0697 Z-0.1000 S1000
G1 F400 X127.8065 Y57.7538 Z-0.1000 S1000
G1 F400 X127.6062 Y57.4683 Z-0.1000 S1000
G1 F400 X127.3596 Y57.2218 Z-0.1000 S1000
G1 F400 X127.0741 Y57.0216 Z-0.1000 S1000
G1 F400 X126.7582 Y56.8741 Z-0.1000 S1000
G1 F400 X126.4213 Y56.7840 Z-0.1000 S1000
G1 F400 X126.0739 Y56.7540 Z-0.1000 S1000
G1 F400 X119.0739 Y56.7540 Z-0.1000 S1000
G1 F400 X118.7265 Y56.7840 Z-0.1000 S1000
G1 F400 X118.3896 Y56.8741 Z-0.1000 S1000
G1 F400 X118.0737 Y57.0216 Z-0.1000 S1000
G1 F400 X117.7882 Y57.2218 Z-0.1000 S1000
G1 F400 X117.5416 Y57.4683 Z-0.1000 S1000
G1 F400 X117.3413 Y57.7538 Z-0.1000 S1000
G1 F400 X117.1937 Y58.0697 Z-0.1000 S1000
G1 F400 X117.1037 Y58.4065 Z-0.1000 S1000
G1 F400 X117.0736 Y58.7540 Z-0.1000 S1000
G1 F400 X117.0736 Y65.7540 Z-0.1000 S1000
G1 F400 X117.1037 Y66.1014 Z-0.1000 S1000
G1 F400 X117.1937 Y66.4383 Z-0.1000 S1000
G1 F400 X117.3412 Y66.7543 Z-0.1000 S1000
G1 F400 X117.5415 Y67.0398 Z-0.1000 S1000
G1 F400 X117.7881 Y67.2864 Z-0.1000 S1000
G1 F400 X118.0736 Y67.4866 Z-0.1000 S1000
G1 F400 X118.3896 Y67.6342 Z-0.1000 S1000
G1 F400 X118.7265 Y67.7242 Z-0.1000 S1000
G1 F400 X119.0739 Y67.7543 Z-0.1000 S1000
G1 F400 X126.0739 Y67.7543 Z-0.1000 S1000
G1 F400 X126.4213 Y67.7242 Z-0.1000 S1000
G1 F400 X126.7582 Y67.6342 Z-0.1000 S1000
G1 F400 X127.0742 Y67.4866 Z-0.1000 S1000
G1 F400 X127.3597 Y67.2864 Z-0.1000 S1000
G1 F400 X127.6063 Y67.0398 Z-0.1000 S1000
G1 F400 X127.8066 Y66.7543 Z-0.1000 S1000
G1 F400 X127.9541 Y66.4383 Z-0.1000 S1000
G1 F400 X128.0441 Y66.1014 Z-0.1000 S1000
G1 F400 X128.0742 Y65.7540 Z-0.1000 S1000
G1 F400 X128.0742 Y58.7540 Z-0.1000 S1000
G1 F400 X128.0742 Y58.7540 Z-0.1000 S1000
; retracting back to z-safe
G0 Z10
; Pass 3
; Operation 7: Laser: Vector (no path offset)
; Laser Spot Diameter: 0.1

G0 Z10; move to z-safe height
G0 F1000 X128.0742 Y58.7540

G0 Z0
G1 F300 Z-0.1000
G1 F400 X128.0441 Y58.4065 Z-0.1000 S1000
G1 F400 X127.9541 Y58.0697 Z-0.1000 S1000
G1 F400 X127.8065 Y57.7538 Z-0.1000 S1000
G1 F400 X127.6062 Y57.4683 Z-0.1000 S1000
G1 F400 X127.3596 Y57.2218 Z-0.1000 S1000
G1 F400 X127.0741 Y57.0216 Z-0.1000 S1000
G1 F400 X126.7582 Y56.8741 Z-0.1000 S1000
G1 F400 X126.4213 Y56.7840 Z-0.1000 S1000
G1 F400 X126.0739 Y56.7540 Z-0.1000 S1000
G1 F400 X119.0739 Y56.7540 Z-0.1000 S1000
G1 F400 X118.7265 Y56.7840 Z-0.1000 S1000
G1 F400 X118.3896 Y56.8741 Z-0.1000 S1000
G1 F400 X118.0737 Y57.0216 Z-0.1000 S1000
G1 F400 X117.7882 Y57.2218 Z-0.1000 S1000
G1 F400 X117.5416 Y57.4683 Z-0.1000 S1000
G1 F400 X117.3413 Y57.7538 Z-0.1000 S1000
G1 F400 X117.1937 Y58.0697 Z-0.1000 S1000
G1 F400 X117.1037 Y58.4065 Z-0.1000 S1000
G1 F400 X117.0736 Y58.7540 Z-0.1000 S1000
G1 F400 X117.0736 Y65.7540 Z-0.1000 S1000
G1 F400 X117.1037 Y66.1014 Z-0.1000 S1000
G1 F400 X117.1937 Y66.4383 Z-0.1000 S1000
G1 F400 X117.3412 Y66.7543 Z-0.1000 S1000
G1 F400 X117.5415 Y67.0398 Z-0.1000 S1000
G1 F400 X117.7881 Y67.2864 Z-0.1000 S1000
G1 F400 X118.0736 Y67.4866 Z-0.1000 S1000
G1 F400 X118.3896 Y67.6342 Z-0.1000 S1000
G1 F400 X118.7265 Y67.7242 Z-0.1000 S1000
G1 F400 X119.0739 Y67.7543 Z-0.1000 S1000
G1 F400 X126.0739 Y67.7543 Z-0.1000 S1000
G1 F400 X126.4213 Y67.7242 Z-0.1000 S1000
G1 F400 X126.7582 Y67.6342 Z-0.1000 S1000
G1 F400 X127.0742 Y67.4866 Z-0.1000 S1000
G1 F400 X127.3597 Y67.2864 Z-0.1000 S1000
G1 F400 X127.6063 Y67.0398 Z-0.1000 S1000
G1 F400 X127.8066 Y66.7543 Z-0.1000 S1000
G1 F400 X127.9541 Y66.4383 Z-0.1000 S1000
G1 F400 X128.0441 Y66.1014 Z-0.1000 S1000
G1 F400 X128.0742 Y65.7540 Z-0.1000 S1000
G1 F400 X128.0742 Y58.7540 Z-0.1000 S1000
G1 F400 X128.0742 Y58.7540 Z-0.1000 S1000
; retracting back to z-safe
G0 Z10
; Pass 4
; Operation 7: Laser: Vector (no path offset)
; Laser Spot Diameter: 0.1

G0 Z10; move to z-safe height
G0 F1000 X128.0742 Y58.7540

G0 Z0
G1 F300 Z-0.1000
G1 F400 X128.0441 Y58.4065 Z-0.1000 S1000
G1 F400 X127.9541 Y58.0697 Z-0.1000 S1000
G1 F400 X127.8065 Y57.7538 Z-0.1000 S1000
G1 F400 X127.6062 Y57.4683 Z-0.1000 S1000
G1 F400 X127.3596 Y57.2218 Z-0.1000 S1000
G1 F400 X127.0741 Y57.0216 Z-0.1000 S1000
G1 F400 X126.7582 Y56.8741 Z-0.1000 S1000
G1 F400 X126.4213 Y56.7840 Z-0.1000 S1000
G1 F400 X126.0739 Y56.7540 Z-0.1000 S1000
G1 F400 X119.0739 Y56.7540 Z-0.1000 S1000
G1 F400 X118.7265 Y56.7840 Z-0.1000 S1000
G1 F400 X118.3896 Y56.8741 Z-0.1000 S1000
G1 F400 X118.0737 Y57.0216 Z-0.1000 S1000
G1 F400 X117.7882 Y57.2218 Z-0.1000 S1000
G1 F400 X117.5416 Y57.4683 Z-0.1000 S1000
G1 F400 X117.3413 Y57.7538 Z-0.1000 S1000
G1 F400 X117.1937 Y58.0697 Z-0.1000 S1000
G1 F400 X117.1037 Y58.4065 Z-0.1000 S1000
G1 F400 X117.0736 Y58.7540 Z-0.1000 S1000
G1 F400 X117.0736 Y65.7540 Z-0.1000 S1000
G1 F400 X117.1037 Y66.1014 Z-0.1000 S1000
G1 F400 X117.1937 Y66.4383 Z-0.1000 S1000
G1 F400 X117.3412 Y66.7543 Z-0.1000 S1000
G1 F400 X117.5415 Y67.0398 Z-0.1000 S1000
G1 F400 X117.7881 Y67.2864 Z-0.1000 S1000
G1 F400 X118.0736 Y67.4866 Z-0.1000 S1000
G1 F400 X118.3896 Y67.6342 Z-0.1000 S1000
G1 F400 X118.7265 Y67.7242 Z-0.1000 S1000
G1 F400 X119.0739 Y67.7543 Z-0.1000 S1000
G1 F400 X126.0739 Y67.7543 Z-0.1000 S1000
G1 F400 X126.4213 Y67.7242 Z-0.1000 S1000
G1 F400 X126.7582 Y67.6342 Z-0.1000 S1000
G1 F400 X127.0742 Y67.4866 Z-0.1000 S1000
G1 F400 X127.3597 Y67.2864 Z-0.1000 S1000
G1 F400 X127.6063 Y67.0398 Z-0.1000 S1000
G1 F400 X127.8066 Y66.7543 Z-0.1000 S1000
G1 F400 X127.9541 Y66.4383 Z-0.1000 S1000
G1 F400 X128.0441 Y66.1014 Z-0.1000 S1000
G1 F400 X128.0742 Y65.7540 Z-0.1000 S1000
G1 F400 X128.0742 Y58.7540 Z-0.1000 S1000
G1 F400 X128.0742 Y58.7540 Z-0.1000 S1000
; retracting back to z-safe
G0 Z10
; Pass 5
; Operation 7: Laser: Vector (no path offset)
; Laser Spot Diameter: 0.1

G0 Z10; move to z-safe height
G0 F1000 X128.0742 Y58.7540

G0 Z0
G1 F300 Z-0.1000
G1 F400 X128.0441 Y58.4065 Z-0.1000 S1000
G1 F400 X127.9541 Y58.0697 Z-0.1000 S1000
G1 F400 X127.8065 Y57.7538 Z-0.1000 S1000
G1 F400 X127.6062 Y57.4683 Z-0.1000 S1000
G1 F400 X127.3596 Y57.2218 Z-0.1000 S1000
G1 F400 X127.0741 Y57.0216 Z-0.1000 S1000
G1 F400 X126.7582 Y56.8741 Z-0.1000 S1000
G1 F400 X126.4213 Y56.7840 Z-0.1000 S1000
G1 F400 X126.0739 Y56.7540 Z-0.1000 S1000
G1 F400 X119.0739 Y56.7540 Z-0.1000 S1000
G1 F400 X118.7265 Y56.7840 Z-0.1000 S1000
G1 F400 X118.3896 Y56.8741 Z-0.1000 S1000
G1 F400 X118.0737 Y57.0216 Z-0.1000 S1000
G1 F400 X117.7882 Y57.2218 Z-0.1000 S1000
G1 F400 X117.5416 Y57.4683 Z-0.1000 S1000
G1 F400 X117.3413 Y57.7538 Z-0.1000 S1000
G1 F400 X117.1937 Y58.0697 Z-0.1000 S1000
G1 F400 X117.1037 Y58.4065 Z-0.1000 S1000
G1 F400 X117.0736 Y58.7540 Z-0.1000 S1000
G1 F400 X117.0736 Y65.7540 Z-0.1000 S1000
G1 F400 X117.1037 Y66.1014 Z-0.1000 S1000
G1 F400 X117.1937 Y66.4383 Z-0.1000 S1000
G1 F400 X117.3412 Y66.7543 Z-0.1000 S1000
G1 F400 X117.5415 Y67.0398 Z-0.1000 S1000
G1 F400 X117.7881 Y67.2864 Z-0.1000 S1000
G1 F400 X118.0736 Y67.4866 Z-0.1000 S1000
G1 F400 X118.3896 Y67.6342 Z-0.1000 S1000
G1 F400 X118.7265 Y67.7242 Z-0.1000 S1000
G1 F400 X119.0739 Y67.7543 Z-0.1000 S1000
G1 F400 X126.0739 Y67.7543 Z-0.1000 S1000
G1 F400 X126.4213 Y67.7242 Z-0.1000 S1000
G1 F400 X126.7582 Y67.6342 Z-0.1000 S1000
G1 F400 X127.0742 Y67.4866 Z-0.1000 S1000
G1 F400 X127.3597 Y67.2864 Z-0.1000 S1000
G1 F400 X127.6063 Y67.0398 Z-0.1000 S1000
G1 F400 X127.8066 Y66.7543 Z-0.1000 S1000
G1 F400 X127.9541 Y66.4383 Z-0.1000 S1000
G1 F400 X128.0441 Y66.1014 Z-0.1000 S1000
G1 F400 X128.0742 Y65.7540 Z-0.1000 S1000
G1 F400 X128.0742 Y58.7540 Z-0.1000 S1000
G1 F400 X128.0742 Y58.7540 Z-0.1000 S1000
; retracting back to z-safe
G0 Z10
; Pass 0
; Operation 8: Laser: Vector (no path offset)
; Laser Spot Diameter: 0.1

G0 Z10; move to z-safe height
G0 F1000 X23.0717 Y43.7534

G0 Z0
G1 F300 Z-0.1000
G1 F400 X23.0416 Y43.4061 Z-0.1000 S1000
G1 F400 X22.9516 Y43.0692 Z-0.1000 S1000
G1 F400 X22.8041 Y42.7533 Z-0.1000 S1000
G1 F400 X22.6039 Y42.4679 Z-0.1000 S1000
G1 F400 X22.3573 Y42.2213 Z-0.1000 S1000
G1 F400 X22.0719 Y42.0211 Z-0.1000 S1000
G1 F400 X21.7560 Y41.8736 Z-0.1000 S1000
G1 F400 X21.4191 Y41.7836 Z-0.1000 S1000
G1 F400 X21.0718 Y41.7535 Z-0.1000 S1000
G1 F400 X14.0714 Y41.7535 Z-0.1000 S1000
G1 F400 X13.7241 Y41.7836 Z-0.1000 S1000
G1 F400 X13.3872 Y41.8736 Z-0.1000 S1000
G1 F400 X13.0713 Y42.0211 Z-0.1000 S1000
G1 F400 X12.7859 Y42.2213 Z-0.1000 S1000
G1 F400 X12.5393 Y42.4679 Z-0.1000 S1000
G1 F400 X12.3391 Y42.7533 Z-0.1000 S1000
G1 F400 X12.1916 Y43.0692 Z-0.1000 S1000
G1 F400 X12.1016 Y43.4061 Z-0.1000 S1000
G1 F400 X12.0715 Y43.7534 Z-0.1000 S1000
G1 F400 X12.0715 Y50.7538 Z-0.1000 S1000
G1 F400 X12.1016 Y51.1012 Z-0.1000 S1000
G1 F400 X12.1916 Y51.4380 Z-0.1000 S1000
G1 F400 X12.3391 Y51.7539 Z-0.1000 S1000
G1 F400 X12.5393 Y52.0394 Z-0.1000 S1000
G1 F400 X12.7859 Y52.2859 Z-0.1000 S1000
G1 F400 X13.0713 Y52.4861 Z-0.1000 S1000
G1 F400 X13.3872 Y52.6337 Z-0.1000 S1000
G1 F400 X13.7241 Y52.7237 Z-0.1000 S1000
G1 F400 X14.0714 Y52.7537 Z-0.1000 S1000
G1 F400 X21.0718 Y52.7537 Z-0.1000 S1000
G1 F400 X21.4191 Y52.7237 Z-0.1000 S1000
G1 F400 X21.7560 Y52.6337 Z-0.1000 S1000
G1 F400 X22.0719 Y52.4861 Z-0.1000 S1000
G1 F400 X22.3573 Y52.2859 Z-0.1000 S1000
G1 F400 X22.6039 Y52.0394 Z-0.1000 S1000
G1 F400 X22.8041 Y51.7539 Z-0.1000 S1000
G1 F400 X22.9516 Y51.4380 Z-0.1000 S1000
G1 F400 X23.0416 Y51.1012 Z-0.1000 S1000
G1 F400 X23.0717 Y50.7538 Z-0.1000 S1000
G1 F400 X23.0717 Y43.7534 Z-0.1000 S1000
G1 F400 X23.0717 Y43.7534 Z-0.1000 S1000
; retracting back to z-safe
G0 Z10
; Pass 1
; Operation 8: Laser: Vector (no path offset)
; Laser Spot Diameter: 0.1

G0 Z10; move to z-safe height
G0 F1000 X23.0717 Y43.7534

G0 Z0
G1 F300 Z-0.1000
G1 F400 X23.0416 Y43.4061 Z-0.1000 S1000
G1 F400 X22.9516 Y43.0692 Z-0.1000 S1000
G1 F400 X22.8041 Y42.7533 Z-0.1000 S1000
G1 F400 X22.6039 Y42.4679 Z-0.1000 S1000
G1 F400 X22.3573 Y42.2213 Z-0.1000 S1000
G1 F400 X22.0719 Y42.0211 Z-0.1000 S1000
G1 F400 X21.7560 Y41.8736 Z-0.1000 S1000
G1 F400 X21.4191 Y41.7836 Z-0.1000 S1000
G1 F400 X21.0718 Y41.7535 Z-0.1000 S1000
G1 F400 X14.0714 Y41.7535 Z-0.1000 S1000
G1 F400 X13.7241 Y41.7836 Z-0.1000 S1000
G1 F400 X13.3872 Y41.8736 Z-0.1000 S1000
G1 F400 X13.0713 Y42.0211 Z-0.1000 S1000
G1 F400 X12.7859 Y42.2213 Z-0.1000 S1000
G1 F400 X12.5393 Y42.4679 Z-0.1000 S1000
G1 F400 X12.3391 Y42.7533 Z-0.1000 S1000
G1 F400 X12.1916 Y43.0692 Z-0.1000 S1000
G1 F400 X12.1016 Y43.4061 Z-0.1000 S1000
G1 F400 X12.0715 Y43.7534 Z-0.1000 S1000
G1 F400 X12.0715 Y50.7538 Z-0.1000 S1000
G1 F400 X12.1016 Y51.1012 Z-0.1000 S1000
G1 F400 X12.1916 Y51.4380 Z-0.1000 S1000
G1 F400 X12.3391 Y51.7539 Z-0.1000 S1000
G1 F400 X12.5393 Y52.0394 Z-0.1000 S1000
G1 F400 X12.7859 Y52.2859 Z-0.1000 S1000
G1 F400 X13.0713 Y52.4861 Z-0.1000 S1000
G1 F400 X13.3872 Y52.6337 Z-0.1000 S1000
G1 F400 X13.7241 Y52.7237 Z-0.1000 S1000
G1 F400 X14.0714 Y52.7537 Z-0.1000 S1000
G1 F400 X21.0718 Y52.7537 Z-0.1000 S1000
G1 F400 X21.4191 Y52.7237 Z-0.1000 S1000
G1 F400 X21.7560 Y52.6337 Z-0.1000 S1000
G1 F400 X22.0719 Y52.4861 Z-0.1000 S1000
G1 F400 X22.3573 Y52.2859 Z-0.1000 S1000
G1 F400 X22.6039 Y52.0394 Z-0.1000 S1000
G1 F400 X22.8041 Y51.7539 Z-0.1000 S1000
G1 F400 X22.9516 Y51.4380 Z-0.1000 S1000
G1 F400 X23.0416 Y51.1012 Z-0.1000 S1000
G1 F400 X23.0717 Y50.7538 Z-0.1000 S1000
G1 F400 X23.0717 Y43.7534 Z-0.1000 S1000
G1 F400 X23.0717 Y43.7534 Z-0.1000 S1000
; retracting back to z-safe
G0 Z10
; Pass 2
; Operation 8: Laser: Vector (no path offset)
; Laser Spot Diameter: 0.1

G0 Z10; move to z-safe height
G0 F1000 X23.0717 Y43.7534

G0 Z0
G1 F300 Z-0.1000
G1 F400 X23.0416 Y43.4061 Z-0.1000 S1000
G1 F400 X22.9516 Y43.0692 Z-0.1000 S1000
G1 F400 X22.8041 Y42.7533 Z-0.1000 S1000
G1 F400 X22.6039 Y42.4679 Z-0.1000 S1000
G1 F400 X22.3573 Y42.2213 Z-0.1000 S1000
G1 F400 X22.0719 Y42.0211 Z-0.1000 S1000
G1 F400 X21.7560 Y41.8736 Z-0.1000 S1000
G1 F400 X21.4191 Y41.7836 Z-0.1000 S1000
G1 F400 X21.0718 Y41.7535 Z-0.1000 S1000
G1 F400 X14.0714 Y41.7535 Z-0.1000 S1000
G1 F400 X13.7241 Y41.7836 Z-0.1000 S1000
G1 F400 X13.3872 Y41.8736 Z-0.1000 S1000
G1 F400 X13.0713 Y42.0211 Z-0.1000 S1000
G1 F400 X12.7859 Y42.2213 Z-0.1000 S1000
G1 F400 X12.5393 Y42.4679 Z-0.1000 S1000
G1 F400 X12.3391 Y42.7533 Z-0.1000 S1000
G1 F400 X12.1916 Y43.0692 Z-0.1000 S1000
G1 F400 X12.1016 Y43.4061 Z-0.1000 S1000
G1 F400 X12.0715 Y43.7534 Z-0.1000 S1000
G1 F400 X12.0715 Y50.7538 Z-0.1000 S1000
G1 F400 X12.1016 Y51.1012 Z-0.1000 S1000
G1 F400 X12.1916 Y51.4380 Z-0.1000 S1000
G1 F400 X12.3391 Y51.7539 Z-0.1000 S1000
G1 F400 X12.5393 Y52.0394 Z-0.1000 S1000
G1 F400 X12.7859 Y52.2859 Z-0.1000 S1000
G1 F400 X13.0713 Y52.4861 Z-0.1000 S1000
G1 F400 X13.3872 Y52.6337 Z-0.1000 S1000
G1 F400 X13.7241 Y52.7237 Z-0.1000 S1000
G1 F400 X14.0714 Y52.7537 Z-0.1000 S1000
G1 F400 X21.0718 Y52.7537 Z-0.1000 S1000
G1 F400 X21.4191 Y52.7237 Z-0.1000 S1000
G1 F400 X21.7560 Y52.6337 Z-0.1000 S1000
G1 F400 X22.0719 Y52.4861 Z-0.1000 S1000
G1 F400 X22.3573 Y52.2859 Z-0.1000 S1000
G1 F400 X22.6039 Y52.0394 Z-0.1000 S1000
G1 F400 X22.8041 Y51.7539 Z-0.1000 S1000
G1 F400 X22.9516 Y51.4380 Z-0.1000 S1000
G1 F400 X23.0416 Y51.1012 Z-0.1000 S1000
G1 F400 X23.0717 Y50.7538 Z-0.1000 S1000
G1 F400 X23.0717 Y43.7534 Z-0.1000 S1000
G1 F400 X23.0717 Y43.7534 Z-0.1000 S1000
; retracting back to z-safe
G0 Z10
; Pass 3
; Operation 8: Laser: Vector (no path offset)
; Laser Spot Diameter: 0.1

G0 Z10; move to z-safe height
G0 F1000 X23.0717 Y43.7534

G0 Z0
G1 F300 Z-0.1000
G1 F400 X23.0416 Y43.4061 Z-0.1000 S1000
G1 F400 X22.9516 Y43.0692 Z-0.1000 S1000
G1 F400 X22.8041 Y42.7533 Z-0.1000 S1000
G1 F400 X22.6039 Y42.4679 Z-0.1000 S1000
G1 F400 X22.3573 Y42.2213 Z-0.1000 S1000
G1 F400 X22.0719 Y42.0211 Z-0.1000 S1000
G1 F400 X21.7560 Y41.8736 Z-0.1000 S1000
G1 F400 X21.4191 Y41.7836 Z-0.1000 S1000
G1 F400 X21.0718 Y41.7535 Z-0.1000 S1000
G1 F400 X14.0714 Y41.7535 Z-0.1000 S1000
G1 F400 X13.7241 Y41.7836 Z-0.1000 S1000
G1 F400 X13.3872 Y41.8736 Z-0.1000 S1000
G1 F400 X13.0713 Y42.0211 Z-0.1000 S1000
G1 F400 X12.7859 Y42.2213 Z-0.1000 S1000
G1 F400 X12.5393 Y42.4679 Z-0.1000 S1000
G1 F400 X12.3391 Y42.7533 Z-0.1000 S1000
G1 F400 X12.1916 Y43.0692 Z-0.1000 S1000
G1 F400 X12.1016 Y43.4061 Z-0.1000 S1000
G1 F400 X12.0715 Y43.7534 Z-0.1000 S1000
G1 F400 X12.0715 Y50.7538 Z-0.1000 S1000
G1 F400 X12.1016 Y51.1012 Z-0.1000 S1000
G1 F400 X12.1916 Y51.4380 Z-0.1000 S1000
G1 F400 X12.3391 Y51.7539 Z-0.1000 S1000
G1 F400 X12.5393 Y52.0394 Z-0.1000 S1000
G1 F400 X12.7859 Y52.2859 Z-0.1000 S1000
G1 F400 X13.0713 Y52.4861 Z-0.1000 S1000
G1 F400 X13.3872 Y52.6337 Z-0.1000 S1000
G1 F400 X13.7241 Y52.7237 Z-0.1000 S1000
G1 F400 X14.0714 Y52.7537 Z-0.1000 S1000
G1 F400 X21.0718 Y52.7537 Z-0.1000 S1000
G1 F400 X21.4191 Y52.7237 Z-0.1000 S1000
G1 F400 X21.7560 Y52.6337 Z-0.1000 S1000
G1 F400 X22.0719 Y52.4861 Z-0.1000 S1000
G1 F400 X22.3573 Y52.2859 Z-0.1000 S1000
G1 F400 X22.6039 Y52.0394 Z-0.1000 S1000
G1 F400 X22.8041 Y51.7539 Z-0.1000 S1000
G1 F400 X22.9516 Y51.4380 Z-0.1000 S1000
G1 F400 X23.0416 Y51.1012 Z-0.1000 S1000
G1 F400 X23.0717 Y50.7538 Z-0.1000 S1000
G1 F400 X23.0717 Y43.7534 Z-0.1000 S1000
G1 F400 X23.0717 Y43.7534 Z-0.1000 S1000
; retracting back to z-safe
G0 Z10
; Pass 4
; Operation 8: Laser: Vector (no path offset)
; Laser Spot Diameter: 0.1

G0 Z10; move to z-safe height
G0 F1000 X23.0717 Y43.7534

G0 Z0
G1 F300 Z-0.1000
G1 F400 X23.0416 Y43.4061 Z-0.1000 S1000
G1 F400 X22.9516 Y43.0692 Z-0.1000 S1000
G1 F400 X22.8041 Y42.7533 Z-0.1000 S1000
G1 F400 X22.6039 Y42.4679 Z-0.1000 S1000
G1 F400 X22.3573 Y42.2213 Z-0.1000 S1000
G1 F400 X22.0719 Y42.0211 Z-0.1000 S1000
G1 F400 X21.7560 Y41.8736 Z-0.1000 S1000
G1 F400 X21.4191 Y41.7836 Z-0.1000 S1000
G1 F400 X21.0718 Y41.7535 Z-0.1000 S1000
G1 F400 X14.0714 Y41.7535 Z-0.1000 S1000
G1 F400 X13.7241 Y41.7836 Z-0.1000 S1000
G1 F400 X13.3872 Y41.8736 Z-0.1000 S1000
G1 F400 X13.0713 Y42.0211 Z-0.1000 S1000
G1 F400 X12.7859 Y42.2213 Z-0.1000 S1000
G1 F400 X12.5393 Y42.4679 Z-0.1000 S1000
G1 F400 X12.3391 Y42.7533 Z-0.1000 S1000
G1 F400 X12.1916 Y43.0692 Z-0.1000 S1000
G1 F400 X12.1016 Y43.4061 Z-0.1000 S1000
G1 F400 X12.0715 Y43.7534 Z-0.1000 S1000
G1 F400 X12.0715 Y50.7538 Z-0.1000 S1000
G1 F400 X12.1016 Y51.1012 Z-0.1000 S1000
G1 F400 X12.1916 Y51.4380 Z-0.1000 S1000
G1 F400 X12.3391 Y51.7539 Z-0.1000 S1000
G1 F400 X12.5393 Y52.0394 Z-0.1000 S1000
G1 F400 X12.7859 Y52.2859 Z-0.1000 S1000
G1 F400 X13.0713 Y52.4861 Z-0.1000 S1000
G1 F400 X13.3872 Y52.6337 Z-0.1000 S1000
G1 F400 X13.7241 Y52.7237 Z-0.1000 S1000
G1 F400 X14.0714 Y52.7537 Z-0.1000 S1000
G1 F400 X21.0718 Y52.7537 Z-0.1000 S1000
G1 F400 X21.4191 Y52.7237 Z-0.1000 S1000
G1 F400 X21.7560 Y52.6337 Z-0.1000 S1000
G1 F400 X22.0719 Y52.4861 Z-0.1000 S1000
G1 F400 X22.3573 Y52.2859 Z-0.1000 S1000
G1 F400 X22.6039 Y52.0394 Z-0.1000 S1000
